luts/0.cube
LUT_3D_SIZE 6
0.013304 0.012504 0.005633
0.162402 0.000302 0.002585
0.430486 0.000000 0.000000
0.564911 0.000000 0.000000
0.681621 0.000000 0.255694
0.909705 0.047955 0.550695
0.002070 0.097386 0.001472
0.100471 0.102382 0.000109
0.446981 0.090200 0.000000
0.573290 0.054608 0.000000
0.679707 0.058416 0.228637
0.908876 0.111003 0.549460
0.000000 0.318593 0.000000
0.055163 0.317898 0.000000
0.407796 0.428726 0.000000
0.731188 0.429814 0.000000
0.813033 0.297805 0.000000
0.905906 0.160426 0.544976
0.000000 0.432294 0.000000
0.054608 0.432174 0.000000
0.109213 0.430809 0.000000
0.697401 0.647480 0.000000
0.888222 0.683039 0.000000
1.000029 0.730578 0.476472
0.000000 0.529049 0.000000
0.058416 0.529049 0.000000
0.116837 0.529049 0.000000
0.179246 0.531645 0.000000
0.887918 0.782983 0.000000
1.000029 0.872260 0.009506
0.000000 0.640846 0.000000
0.069091 0.640846 0.000000
0.138183 0.640846 0.000000
0.207278 0.640846 0.000000
0.276360 0.640846 0.000000
1.000029 0.907173 0.000000
0.002424 0.006378 0.163790
0.185786 0.000000 0.181027
0.457007 0.000000 0.206202
0.586264 0.000000 0.256156
0.690529 0.000000 0.393646
0.914736 0.084318 0.627226
0.000027 0.095966 0.098094
0.093325 0.097486 0.097228
0.425969 0.053837 0.088176
0.573798 0.053711 0.136300
0.688126 0.053711 0.371425
0.912588 0.122973 0.608853
0.000000 0.304207 0.055163
0.053711 0.301802 0.053711
0.402715 0.381936 0.053711
0.697791 0.336302 0.053711
0.807104 0.282962 0.193102
0.910107 0.184465 0.605135
0.000000 0.432827 0.054608
0.053711 0.432682 0.053711
0.108991 0.432870 0.053711
0.698330 0.646584 0.053711
0.888222 0.647446 0.053711
1.000029 0.717276 0.552662
0.000000 0.529049 0.058416
0.053711 0.529049 0.053711
0.115408 0.529049 0.053711
0.178680 0.531545 0.053711
0.887925 0.783040 0.053711
1.000029 0.886199 0.094077
0.000000 0.640846 0.069091
0.053711 0.640846 0.053711
0.133573 0.640846 0.053711
0.205246 0.640846 0.053711
0.275543 0.640846 0.053711
1.000029 0.907173 0.053711
0.046889 0.000000 0.389653
0.240311 0.000000 0.444102
0.484543 0.000000 0.466648
0.608186 0.000000 0.478333
0.718393 0.000000 0.543392
0.919281 0.119239 0.703229
0.000000 0.121266 0.408905
0.116153 0.089453 0.409054
0.446789 0.053711 0.417728
0.593537 0.053711 0.403001
0.705281 0.053711 0.512021
0.919272 0.172881 0.698606
0.000000 0.336445 0.391510
0.053711 0.335455 0.395940
0.384150 0.384442 0.380873
0.692255 0.339559 0.381069
0.794991 0.237267 0.460464
0.918914 0.226786 0.674841
0.000000 0.448020 0.215420
0.053711 0.449276 0.220890
0.110327 0.457395 0.248155
0.685659 0.639362 0.126168
0.888221 0.666986 0.222111
0.993808 0.643443 0.654178
0.000000 0.529049 0.116837
0.053711 0.529049 0.115408
0.110327 0.529049 0.110327
0.176445 0.531092 0.110327
0.887942 0.782619 0.110327
1.000030 0.904975 0.352831
0.000000 0.640846 0.138183
0.053711 0.640846 0.133573
0.110327 0.640846 0.110327
0.196031 0.640846 0.110327
0.272064 0.640846 0.110327
1.000030 0.907173 0.110327
0.000000 0.000000 0.537560
0.262062 0.000000 0.581876
0.496864 0.000000 0.605159
0.647775 0.000000 0.629211
0.795779 0.035642 0.722936
0.919288 0.119292 0.772335
0.000000 0.176230 0.574370
0.151858 0.154569 0.602957
0.479561 0.096870 0.631408
0.638181 0.053711 0.615067
0.738041 0.053711 0.638561
0.919288 0.173002 0.770302
0.000000 0.347283 0.606151
0.053711 0.340710 0.603122
0.406786 0.393191 0.662985
0.693179 0.344747 0.664612
0.809130 0.270769 0.691854
0.919288 0.229619 0.761087
0.000000 0.505183 0.598436
0.053711 0.505087 0.599371
0.110327 0.511867 0.600706
0.664144 0.662681 0.632178
0.875801 0.625759 0.645361
0.925460 0.298868 0.716047
0.000000 0.620359 0.562618
0.053711 0.620089 0.560474
0.110327 0.619076 0.552302
0.163830 0.609541 0.489555
0.887230 0.847078 0.392246
1.000030 0.911521 0.642491
0.000000 0.640846 0.207278
0.053711 0.640846 0.205246
0.110327 0.640846 0.196031
0.163830 0.640846 0.163830
0.261159 0.640846 0.163830
1.000030 0.907173 0.163830
0.165329 0.287773 0.789016
0.398152 0.291999 0.811853
0.605280 0.274006 0.825751
0.745018 0.231279 0.824517
0.821438 0.176152 0.817016
0.919288 0.119292 0.841416
0.008527 0.368002 0.776771
0.310613 0.379275 0.808155
0.584709 0.369595 0.831791
0.747588 0.330549 0.833320
0.834521 0.303307 0.831521
0.919400 0.173445 0.840729
0.000000 0.426560 0.733378
0.053711 0.479466 0.781616
0.500262 0.511404 0.838592
0.746375 0.478029 0.848441
0.850248 0.448628 0.845277
0.941966 0.319629 0.863170
0.000000 0.546364 0.748717
0.053711 0.545427 0.748662
0.110327 0.573662 0.768105
0.683004 0.679644 0.862240
0.874028 0.649350 0.864666
0.984846 0.564417 0.896055
0.000000 0.642320 0.758063
0.053711 0.642319 0.758101
0.110327 0.642300 0.758168
0.163830 0.643435 0.758844
0.872007 0.877725 0.856678
1.000029 0.851842 0.873591
0.000000 0.765869 0.792898
0.053711 0.765332 0.789790
0.110327 0.763029 0.776519
0.163830 0.750761 0.698795
0.233677 0.641132 0.234567
1.000029 0.976506 0.405620
0.572259 0.571354 0.999245
0.654631 0.570484 0.999990
0.752066 0.567864 1.000010
0.855163 0.563402 1.000028
0.930905 0.551188 1.000025
0.999962 0.497735 0.997047
0.565909 0.648644 0.999627
0.631330 0.630195 0.999987
0.742906 0.627567 1.000015
0.852643 0.623567 1.000029
0.930088 0.611989 1.000029
0.999988 0.561291 0.998353
0.537905 0.735677 0.999433
0.609514 0.729726 0.999997
0.699881 0.698253 1.000019
0.839108 0.693821 1.000030
0.926610 0.684581 1.000030
1.000028 0.640272 0.999986
0.207580 0.788598 0.971013
0.398998 0.807173 0.984054
0.615219 0.816944 0.998999
0.775322 0.773034 1.000030
0.915704 0.767716 1.000030
1.000030 0.735613 1.000029
0.000000 0.708155 0.889925
0.053711 0.707104 0.889784
0.110327 0.702626 0.889216
0.180533 0.742355 0.914170
0.884595 0.885400 1.000029
1.000029 0.874938 1.000029
0.000000 0.782234 0.892520
0.053711 0.782234 0.892520
0.110327 0.782234 0.892520
0.163830 0.782234 0.892520
0.233677 0.782234 0.892520
1.000029 1.000029 1.000029
