luts/0.cube
LUT_3D_SIZE 16
0.013304 0.012504 0.005633
0.031017 0.012591 0.005625
0.068900 0.011393 0.005281
0.162402 0.000302 0.002585
0.270672 0.000000 0.000000
0.359814 0.000000 0.000000
0.430486 0.000000 0.000000
0.481836 0.000000 0.000000
0.526469 0.000000 0.000000
0.564911 0.000000 0.000000
0.603491 0.000000 0.026248
0.641854 0.000000 0.138388
0.681621 0.000000 0.255694
0.732677 0.000000 0.365316
0.825193 0.000000 0.473907
0.909705 0.047955 0.550695
0.013304 0.028179 0.005633
0.029486 0.028183 0.005633
0.058517 0.029662 0.005490
0.136914 0.019593 0.004155
0.247667 0.018257 0.000000
0.345894 0.018386 0.000000
0.422760 0.018388 0.000000
0.478139 0.018324 0.000000
0.524758 0.018257 0.000000
0.563306 0.018203 0.000000
0.601706 0.018289 0.017033
0.641196 0.018664 0.127770
0.681204 0.019474 0.250614
0.732160 0.020774 0.363416
0.824424 0.022324 0.472708
0.909495 0.069433 0.550363
0.013142 0.052605 0.005772
0.030314 0.052309 0.005757
0.054895 0.053341 0.005124
0.114961 0.054266 0.001429
0.223099 0.042246 0.000000
0.328360 0.036773 0.000000
0.411024 0.036776 0.000000
0.470183 0.036649 0.000000
0.515961 0.036513 0.000000
0.557283 0.036405 0.000000
0.597997 0.036576 0.008068
0.640150 0.037329 0.113060
0.680781 0.038947 0.245082
0.731702 0.041545 0.361353
0.823405 0.044647 0.471408
0.909260 0.090726 0.549999
0.002070 0.097386 0.001472
0.020016 0.096632 0.001672
0.040125 0.094741 0.001812
0.100471 0.102382 0.000109
0.217000 0.112997 0.000000
0.346255 0.108727 0.000000
0.446981 0.090200 0.000000
0.514133 0.063457 0.000000
0.551660 0.054769 0.000000
0.573290 0.054608 0.000000
0.591295 0.054862 0.000013
0.633548 0.055993 0.052499
0.679707 0.058416 0.228637
0.731101 0.062320 0.358220
0.822162 0.066971 0.469323
0.908876 0.111003 0.549460
0.000000 0.177889 0.000000
0.018257 0.177096 0.000000
0.036514 0.175533 0.000000
0.055813 0.172255 0.000000
0.178839 0.200068 0.000000
0.332698 0.215958 0.000000
0.464812 0.212893 0.000000
0.552712 0.194644 0.000000
0.610750 0.165981 0.000000
0.639494 0.119139 0.000000
0.655602 0.082313 0.000000
0.668277 0.074656 0.004649
0.675254 0.077891 0.132294
0.728393 0.083093 0.340147
0.820246 0.089292 0.466398
0.908321 0.130067 0.548620
0.000000 0.257871 0.000000
0.018386 0.257433 0.000000
0.036773 0.256972 0.000000
0.055160 0.254039 0.000000
0.116785 0.275845 0.000000
0.292172 0.317466 0.000000
0.456751 0.336010 0.000000
0.572271 0.331518 0.000000
0.650747 0.315169 0.000000
0.693896 0.280650 0.000000
0.716680 0.221157 0.000000
0.732255 0.158724 0.000000
0.754303 0.120829 0.062393
0.748568 0.107326 0.262798
0.817034 0.111618 0.461165
0.907459 0.146907 0.547322
0.000000 0.318593 0.000000
0.018388 0.318382 0.000000
0.036776 0.318166 0.000000
0.055163 0.317898 0.000000
0.074187 0.316988 0.000000
0.201410 0.379244 0.000000
0.407796 0.428726 0.000000
0.564052 0.445580 0.000000
0.666860 0.443349 0.000000
0.731188 0.429814 0.000000
0.772174 0.394214 0.000000
0.790234 0.327589 0.000000
0.813033 0.297805 0.000000
0.836707 0.255858 0.231097
0.811110 0.135806 0.390906
0.905906 0.160426 0.544976
0.000000 0.361141 0.000000
0.018324 0.361034 0.000000
0.036649 0.360902 0.000000
0.054971 0.360738 0.000000
0.073293 0.360450 0.000000
0.106488 0.380617 0.000000
0.306960 0.469653 0.000000
0.516147 0.519689 0.000000
0.655939 0.536049 0.000000
0.742900 0.535354 0.000000
0.802657 0.527279 0.000000
0.842757 0.493537 0.000000
0.864599 0.451043 0.000000
0.897379 0.451808 0.117670
0.910535 0.386081 0.406564
0.877695 0.210033 0.475904
0.000000 0.397887 0.000000
0.018257 0.397842 0.000000
0.036513 0.397772 0.000000
0.054769 0.397693 0.000000
0.073026 0.397571 0.000000
0.091279 0.396901 0.000000
0.158886 0.448400 0.000000
0.415891 0.545128 0.000000
0.616918 0.591562 0.000000
0.732446 0.605487 0.000000
0.808726 0.609504 0.000000
0.859869 0.611454 0.000000
0.888143 0.581665 0.000000
0.924360 0.597330 0.012531
0.965196 0.609152 0.349863
0.970854 0.518384 0.516215
0.000000 0.432294 0.000000
0.018203 0.432256 0.000000
0.036405 0.432227 0.000000
0.054608 0.432174 0.000000
0.072812 0.432107 0.000000
0.091013 0.432007 0.000000
0.109213 0.430809 0.000000
0.239419 0.509027 0.000000
0.524605 0.611331 0.000000
0.697401 0.647480 0.000000
0.799471 0.661739 0.000000
0.859769 0.673307 0.000000
0.888222 0.683039 0.000000
0.924631 0.679918 0.000000
0.967048 0.740796 0.226047
1.000029 0.730578 0.476472
0.000000 0.465128 0.000000
0.018289 0.465112 0.000000
0.036576 0.465096 0.000000
0.054862 0.465070 0.000000
0.073154 0.465041 0.000000
0.091440 0.464989 0.000000
0.109724 0.464931 0.000000
0.128008 0.474968 0.000000
0.332003 0.576829 0.000000
0.624177 0.666812 0.000000
0.771408 0.695400 0.000000
0.854900 0.712276 0.000000
0.888222 0.730976 0.000000
0.924631 0.740253 0.000000
0.967048 0.797661 0.015178
1.000029 0.832720 0.393411
0.000000 0.498046 0.000000
0.018664 0.498032 0.000000
0.037329 0.498026 0.000000
0.055993 0.498014 0.000000
0.074656 0.498000 0.000000
0.093320 0.497980 0.000000
0.111984 0.497961 0.000000
0.130640 0.497916 0.000000
0.170984 0.514659 0.000000
0.438402 0.640277 0.000000
0.720353 0.717593 0.000000
0.838044 0.738284 0.000000
0.888222 0.759701 0.000000
0.924631 0.782174 0.000000
0.967048 0.801300 0.000000
1.000029 0.876575 0.256955
0.000000 0.529049 0.000000
0.019474 0.529049 0.000000
0.038947 0.529049 0.000000
0.058416 0.529049 0.000000
0.077891 0.529049 0.000000
0.097364 0.529049 0.000000
0.116837 0.529049 0.000000
0.136305 0.529049 0.000000
0.155787 0.529049 0.000000
0.179246 0.531645 0.000000
0.555574 0.703565 0.000000
0.819628 0.769930 0.000000
0.887918 0.782983 0.000000
0.924631 0.807533 0.000000
0.967048 0.829530 0.000000
1.000029 0.872260 0.009506
0.000000 0.565458 0.000000
0.020774 0.565458 0.000000
0.041545 0.565458 0.000000
0.062320 0.565458 0.000000
0.083093 0.565458 0.000000
0.103865 0.565458 0.000000
0.124643 0.565458 0.000000
0.145407 0.565458 0.000000
0.166191 0.565458 0.000000
0.186956 0.565458 0.000000
0.207731 0.565458 0.000000
0.645698 0.748613 0.000000
0.893893 0.817418 0.000000
0.924631 0.826964 0.000000
0.967048 0.851348 0.000000
1.000029 0.861216 0.000000
0.000000 0.607875 0.000000
0.022324 0.607875 0.000000
0.044647 0.607875 0.000000
0.066971 0.607875 0.000000
0.089292 0.607875 0.000000
0.111618 0.607875 0.000000
0.133947 0.607875 0.000000
0.156257 0.607875 0.000000
0.178585 0.607875 0.000000
0.200917 0.607875 0.000000
0.223235 0.607875 0.000000
0.245585 0.607875 0.000000
0.777821 0.823037 0.000000
0.944712 0.867976 0.000000
0.967048 0.872712 0.000000
1.000029 0.884196 0.000000
0.000000 0.640846 0.000000
0.023030 0.640846 0.000000
0.046060 0.640846 0.000000
0.069091 0.640846 0.000000
0.092118 0.640846 0.000000
0.115146 0.640846 0.000000
0.138183 0.640846 0.000000
0.161197 0.640846 0.000000
0.184235 0.640846 0.000000
0.207278 0.640846 0.000000
0.230298 0.640846 0.000000
0.253345 0.640846 0.000000
0.276360 0.640846 0.000000
0.827141 0.851430 0.000000
0.976941 0.904093 0.000000
1.000029 0.907173 0.000000
0.013304 0.012599 0.022690
0.031427 0.012650 0.022945
0.071185 0.011211 0.025164
0.166176 0.000160 0.024246
0.273905 0.000000 0.018633
0.362539 0.000000 0.018386
0.433234 0.000000 0.018388
0.486989 0.000000 0.019225
0.534926 0.000000 0.030317
0.574852 0.000000 0.064346
0.609849 0.000000 0.130400
0.644699 0.000000 0.211762
0.684256 0.000000 0.303535
0.735441 0.000000 0.397429
0.830098 0.000000 0.503663
0.911076 0.057790 0.575899
0.013294 0.028344 0.021740
0.029632 0.028295 0.021942
0.060352 0.027922 0.021760
0.143449 0.016961 0.020388
0.254493 0.015549 0.015647
0.350529 0.015549 0.015549
0.425936 0.015549 0.015549
0.481440 0.015549 0.015549
0.530406 0.015549 0.018616
0.571697 0.015549 0.039181
0.608284 0.015549 0.105025
0.643816 0.015549 0.193697
0.683393 0.015549 0.290642
0.734426 0.015549 0.388111
0.828084 0.015549 0.493823
0.910492 0.069103 0.567565
0.013120 0.052835 0.022931
0.028688 0.052592 0.021319
0.055679 0.053748 0.020595
0.116413 0.053005 0.016866
0.222612 0.040063 0.015549
0.325867 0.035884 0.015549
0.407333 0.035853 0.015549
0.467750 0.035727 0.015549
0.517433 0.035604 0.015570
0.563149 0.035505 0.021925
0.604892 0.035644 0.078440
0.642940 0.036275 0.181394
0.682898 0.037648 0.285438
0.733878 0.039870 0.385900
0.827073 0.042549 0.492344
0.910199 0.095254 0.567091
0.002025 0.098792 0.018950
0.017606 0.097942 0.016836
0.039291 0.095464 0.017302
0.101774 0.103138 0.015653
0.218009 0.111625 0.015549
0.344833 0.104753 0.015549
0.440984 0.080682 0.015549
0.502814 0.057153 0.015549
0.540748 0.054285 0.015549
0.567582 0.054126 0.015589
0.595105 0.054360 0.025852
0.636804 0.055417 0.121850
0.681764 0.057709 0.271951
0.733223 0.061408 0.383138
0.825834 0.065823 0.490400
0.909838 0.116732 0.566493
0.000000 0.180506 0.018257
0.015549 0.179320 0.015549
0.035725 0.177503 0.015549
0.056169 0.174026 0.015549
0.181145 0.201239 0.015549
0.333318 0.214216 0.015549
0.462804 0.206792 0.015549
0.545784 0.179193 0.015549
0.597897 0.139246 0.015549
0.626984 0.099125 0.015549
0.648910 0.074525 0.015549
0.668030 0.074292 0.042608
0.677095 0.077441 0.178383
0.730346 0.082503 0.366726
0.823878 0.088548 0.487529
0.909297 0.136206 0.565609
0.000000 0.259344 0.018386
0.015549 0.258753 0.015549
0.035884 0.258267 0.015549
0.054766 0.255154 0.015549
0.117179 0.277643 0.015549
0.294106 0.319577 0.015549
0.457498 0.335141 0.015549
0.570275 0.324730 0.015549
0.642493 0.293802 0.015549
0.678954 0.245797 0.015549
0.704178 0.191591 0.015549
0.729819 0.150455 0.017075
0.753700 0.117984 0.125881
0.747999 0.106562 0.292040
0.821000 0.111086 0.483106
0.908440 0.153367 0.564352
0.000000 0.319324 0.018388
0.015549 0.319033 0.015549
0.035853 0.318797 0.015549
0.054711 0.318509 0.015549
0.074119 0.318163 0.015549
0.202596 0.380803 0.015549
0.409339 0.430256 0.015549
0.564723 0.446154 0.015549
0.665732 0.439086 0.015549
0.723462 0.407938 0.015549
0.757430 0.355972 0.015549
0.781471 0.308620 0.015549
0.811837 0.294420 0.036084
0.835795 0.252924 0.268316
0.810950 0.133546 0.411225
0.906926 0.167249 0.562062
0.000000 0.361469 0.018324
0.015549 0.361341 0.015549
0.035727 0.361235 0.015549
0.054501 0.361098 0.015549
0.073030 0.360722 0.015549
0.106037 0.380849 0.015549
0.308092 0.470476 0.015549
0.517137 0.520524 0.015549
0.656445 0.536661 0.015549
0.742223 0.532784 0.015549
0.796067 0.507551 0.015549
0.831697 0.463518 0.015549
0.861387 0.447458 0.015549
0.895862 0.450376 0.174501
0.909784 0.383140 0.429865
0.877180 0.207567 0.492399
0.000000 0.398098 0.018257
0.015549 0.398018 0.015549
0.035604 0.397950 0.015549
0.054285 0.397869 0.015549
0.072735 0.397762 0.015549
0.091104 0.397113 0.015549
0.160079 0.449020 0.015549
0.416728 0.545654 0.015549
0.617558 0.592008 0.015549
0.732778 0.605843 0.015549
0.808625 0.608756 0.015549
0.859061 0.596326 0.015549
0.887994 0.569195 0.015549
0.924223 0.598045 0.040589
0.964811 0.607562 0.377223
0.970220 0.515448 0.534868
0.000000 0.432426 0.018203
0.015549 0.432375 0.015549
0.035505 0.432333 0.015549
0.054126 0.432284 0.015549
0.072516 0.432213 0.015549
0.090823 0.432123 0.015549
0.109094 0.431293 0.015549
0.239593 0.509653 0.015549
0.525196 0.611650 0.015549
0.697767 0.647714 0.015549
0.799630 0.661852 0.015549
0.859777 0.673076 0.015549
0.888222 0.672382 0.015549
0.924631 0.684337 0.015762
0.967048 0.741040 0.261275
1.000029 0.729339 0.497334
0.000000 0.465224 0.018289
0.015549 0.465194 0.015549
0.035644 0.465167 0.015549
0.054360 0.465127 0.015549
0.072836 0.465091 0.015549
0.091231 0.465042 0.015549
0.109587 0.464983 0.015549
0.127916 0.475184 0.015549
0.332939 0.577111 0.015549
0.624381 0.666934 0.015549
0.771584 0.695500 0.015549
0.854941 0.712342 0.015549
0.888222 0.730902 0.015549
0.924631 0.737049 0.015549
0.967048 0.800270 0.049705
1.000029 0.832740 0.416732
0.000000 0.498073 0.018664
0.015549 0.498060 0.015549
0.036275 0.498053 0.015549
0.055417 0.498034 0.015549
0.074292 0.498024 0.015549
0.093073 0.497997 0.015549
0.111807 0.497977 0.015549
0.130525 0.497933 0.015549
0.170844 0.514621 0.015549
0.438602 0.640523 0.015549
0.720452 0.717636 0.015549
0.838108 0.738325 0.015549
0.888222 0.759700 0.015549
0.924631 0.781777 0.015549
0.967048 0.805988 0.015549
1.000029 0.877742 0.286973
0.000000 0.529049 0.019474
0.015549 0.529049 0.015549
0.037648 0.529049 0.015549
0.057709 0.529049 0.015549
0.077441 0.529049 0.015549
0.097053 0.529049 0.015549
0.116614 0.529049 0.015549
0.136148 0.529049 0.015549
0.155673 0.529049 0.015549
0.179165 0.531636 0.015549
0.555546 0.703558 0.015549
0.819634 0.769944 0.015549
0.887919 0.782992 0.015549
0.924631 0.807494 0.015549
0.967048 0.829462 0.015549
1.000029 0.876204 0.031183
0.000000 0.565458 0.020774
0.015549 0.565458 0.015549
0.039870 0.565458 0.015549
0.061408 0.565458 0.015549
0.082503 0.565458 0.015549
0.103451 0.565458 0.015549
0.124336 0.565458 0.015549
0.145182 0.565458 0.015549
0.166026 0.565458 0.015549
0.186846 0.565458 0.015549
0.207648 0.565458 0.015549
0.645165 0.748438 0.015549
0.893839 0.817399 0.015549
0.924631 0.826964 0.015549
0.967048 0.851333 0.015549
1.000029 0.861131 0.015549
0.000000 0.607875 0.022324
0.015549 0.607875 0.015549
0.042549 0.607875 0.015549
0.065823 0.607875 0.015549
0.088548 0.607875 0.015549
0.111086 0.607875 0.015549
0.133546 0.607875 0.015549
0.155973 0.607875 0.015549
0.178371 0.607875 0.015549
0.200751 0.607875 0.015549
0.223117 0.607875 0.015549
0.245472 0.607875 0.015549
0.777264 0.822930 0.015549
0.944697 0.867972 0.015549
0.967048 0.872712 0.015549
1.000029 0.884190 0.015549
0.000000 0.640846 0.023030
0.015549 0.640846 0.015549
0.043775 0.640846 0.015549
0.067839 0.640846 0.015549
0.091305 0.640846 0.015549
0.114568 0.640846 0.015549
0.137745 0.640846 0.015549
0.160879 0.640846 0.015549
0.183982 0.640846 0.015549
0.207080 0.640846 0.015549
0.230153 0.640846 0.015549
0.253251 0.640846 0.015549
0.276276 0.640846 0.015549
0.823860 0.850124 0.015549
0.976935 0.904090 0.015549
1.000029 0.907173 0.015549
0.011758 0.013059 0.056618
0.033796 0.012902 0.058585
0.075252 0.010430 0.062205
0.173094 0.000026 0.071650
0.282921 0.000000 0.073554
0.373722 0.000000 0.075665
0.445448 0.000000 0.083559
0.498902 0.000000 0.099891
0.544454 0.000000 0.127479
0.581258 0.000000 0.165565
0.613632 0.000000 0.213119
0.647449 0.000000 0.273333
0.687093 0.000000 0.347867
0.738554 0.000000 0.428948
0.835349 0.000000 0.533781
0.912522 0.068733 0.601092
0.012668 0.030262 0.050389
0.029182 0.028575 0.052001
0.062842 0.027891 0.055288
0.147804 0.016847 0.060390
0.260019 0.015549 0.058770
0.357933 0.015549 0.055568
0.435175 0.015549 0.062014
0.492735 0.015549 0.077998
0.541322 0.015549 0.106881
0.579746 0.015549 0.150733
0.612846 0.015549 0.201842
0.646815 0.015549 0.265013
0.686490 0.015549 0.342138
0.737901 0.015549 0.425205
0.834339 0.015549 0.530139
0.912207 0.081832 0.598349
0.010543 0.053659 0.047825
0.025886 0.053468 0.048766
0.053261 0.052870 0.047321
0.114090 0.046370 0.046140
0.218038 0.035348 0.042592
0.322820 0.034310 0.036227
0.406809 0.034310 0.036378
0.471699 0.034310 0.039949
0.526553 0.034310 0.056774
0.572047 0.034310 0.103137
0.610074 0.034310 0.174727
0.645833 0.034310 0.251187
0.685540 0.034310 0.330726
0.736548 0.034310 0.415105
0.831540 0.034310 0.517833
0.911422 0.094735 0.587708
0.001249 0.092735 0.042115
0.016899 0.091799 0.041361
0.038018 0.088981 0.039303
0.102020 0.096207 0.035920
0.214305 0.099433 0.034766
0.335457 0.085181 0.034477
0.427794 0.057607 0.034449
0.490606 0.053797 0.034556
0.536035 0.053626 0.035111
0.568299 0.053502 0.044473
0.600865 0.053658 0.095925
0.639760 0.054389 0.194356
0.684759 0.055991 0.323366
0.735845 0.058614 0.412551
0.830247 0.061833 0.515885
0.911041 0.120832 0.587125
0.000000 0.168416 0.036514
0.015549 0.167705 0.035921
0.034310 0.166922 0.034513
0.060912 0.161906 0.034343
0.181277 0.184304 0.034310
0.326768 0.190462 0.034310
0.450601 0.177504 0.034310
0.531123 0.147847 0.034310
0.585636 0.107838 0.034310
0.620607 0.083908 0.034310
0.647431 0.072571 0.042603
0.667747 0.073644 0.116003
0.679287 0.076353 0.232213
0.733499 0.080743 0.400954
0.828406 0.086042 0.513045
0.910506 0.142129 0.586343
0.000000 0.254433 0.036773
0.015549 0.254156 0.035884
0.034310 0.254427 0.034310
0.054084 0.249523 0.034310
0.116354 0.267750 0.034310
0.292104 0.301740 0.034310
0.450293 0.306486 0.034310
0.556783 0.286012 0.034310
0.625423 0.251743 0.034310
0.664996 0.212503 0.034310
0.698116 0.177179 0.034310
0.728564 0.140634 0.054539
0.751587 0.113888 0.190798
0.744087 0.104219 0.325592
0.825642 0.109348 0.508902
0.909675 0.160332 0.584971
0.000000 0.319065 0.036776
0.015549 0.318939 0.035853
0.034310 0.319109 0.034310
0.053979 0.318647 0.034310
0.073928 0.318778 0.034310
0.203884 0.379600 0.034310
0.409466 0.423951 0.034310
0.560349 0.427063 0.034310
0.655236 0.405305 0.034310
0.707758 0.364094 0.034310
0.743134 0.320971 0.034310
0.776538 0.300614 0.034310
0.809800 0.288851 0.102466
0.833333 0.244413 0.312390
0.810638 0.132280 0.437950
0.908284 0.174940 0.582864
0.000000 0.361804 0.036649
0.015549 0.361707 0.035727
0.034310 0.361577 0.034310
0.053797 0.361436 0.034310
0.072637 0.361040 0.034310
0.105110 0.380948 0.034310
0.308995 0.471013 0.034310
0.517945 0.519737 0.034310
0.654690 0.528374 0.034310
0.734997 0.508338 0.034310
0.783438 0.470179 0.034310
0.821597 0.440407 0.034310
0.858380 0.443593 0.034310
0.893140 0.445080 0.238397
0.906681 0.371036 0.457780
0.872269 0.196657 0.508795
0.000000 0.398314 0.036513
0.015549 0.398252 0.035604
0.034310 0.398168 0.034310
0.053626 0.398099 0.034310
0.072347 0.397977 0.034310
0.090869 0.397367 0.034310
0.161367 0.449673 0.034310
0.417725 0.546261 0.034310
0.618325 0.592598 0.034310
0.732944 0.605482 0.034310
0.805534 0.596890 0.034310
0.854356 0.570112 0.034310
0.887630 0.564674 0.034310
0.923890 0.597170 0.082320
0.963008 0.600930 0.410679
0.968007 0.505235 0.557482
0.000000 0.432626 0.036405
0.015549 0.432565 0.035505
0.034310 0.432488 0.034310
0.053502 0.432421 0.034310
0.072133 0.432346 0.034310
0.090580 0.432260 0.034310
0.108939 0.432035 0.034310
0.239587 0.510200 0.034310
0.526030 0.612189 0.034310
0.698201 0.648009 0.034310
0.799726 0.661669 0.034310
0.859789 0.668055 0.034310
0.888222 0.657318 0.034310
0.924631 0.688065 0.036244
0.967048 0.739313 0.303415
1.000029 0.725144 0.523534
0.000000 0.465340 0.036576
0.015549 0.465303 0.035644
0.034310 0.465273 0.034310
0.053658 0.465225 0.034310
0.072404 0.465173 0.034310
0.090941 0.465107 0.034310
0.109391 0.465045 0.034310
0.127802 0.475433 0.034310
0.333900 0.577433 0.034310
0.624713 0.667100 0.034310
0.771811 0.695634 0.034310
0.854997 0.712359 0.034310
0.888222 0.729309 0.034310
0.924631 0.734010 0.034310
0.967048 0.802756 0.100366
1.000029 0.831697 0.445971
0.000000 0.498101 0.037329
0.015549 0.498082 0.036275
0.034310 0.498079 0.034310
0.054389 0.498068 0.034310
0.073644 0.498052 0.034310
0.092636 0.498029 0.034310
0.111503 0.497996 0.034310
0.130309 0.497957 0.034310
0.170347 0.514396 0.034310
0.438379 0.640684 0.034310
0.720452 0.717671 0.034310
0.838187 0.738375 0.034310
0.888222 0.759673 0.034310
0.924631 0.780883 0.034310
0.967048 0.813477 0.034327
1.000029 0.878750 0.323526
0.000000 0.529049 0.038947
0.015549 0.529049 0.037648
0.034310 0.529049 0.034310
0.055991 0.529049 0.034310
0.076353 0.529049 0.034310
0.096310 0.529049 0.034310
0.116081 0.529049 0.034310
0.135766 0.529049 0.034310
0.155400 0.529049 0.034310
0.178951 0.531597 0.034310
0.554048 0.703143 0.034310
0.819539 0.769942 0.034310
0.887922 0.783023 0.034310
0.924631 0.807408 0.034310
0.967048 0.829258 0.034310
1.000029 0.880777 0.059523
0.000000 0.565458 0.041545
0.015549 0.565458 0.039870
0.034310 0.565458 0.034310
0.058614 0.565458 0.034310
0.080743 0.565458 0.034310
0.102240 0.565458 0.034310
0.123465 0.565458 0.034310
0.144533 0.565458 0.034310
0.165551 0.565458 0.034310
0.186496 0.565458 0.034310
0.207413 0.565458 0.034310
0.641572 0.747273 0.034310
0.893665 0.817348 0.034310
0.924631 0.826968 0.034310
0.967048 0.851258 0.034310
1.000029 0.861003 0.034310
0.000000 0.607875 0.044647
0.015549 0.607875 0.042549
0.034310 0.607875 0.034310
0.061833 0.607875 0.034310
0.086042 0.607875 0.034310
0.109348 0.607875 0.034310
0.132280 0.607875 0.034310
0.155015 0.607875 0.034310
0.177650 0.607875 0.034310
0.200210 0.607875 0.034310
0.222712 0.607875 0.034310
0.245233 0.607875 0.034310
0.775316 0.822440 0.034310
0.944620 0.867950 0.034310
0.967048 0.872712 0.034310
1.000029 0.884109 0.034310
0.000000 0.640846 0.046060
0.015549 0.640846 0.043775
0.034310 0.640846 0.034310
0.063311 0.640846 0.034310
0.088459 0.640846 0.034310
0.112580 0.640846 0.034310
0.136282 0.640846 0.034310
0.159765 0.640846 0.034310
0.183128 0.640846 0.034310
0.206432 0.640846 0.034310
0.229645 0.640846 0.034310
0.252860 0.640846 0.034310
0.276003 0.640846 0.034310
0.815514 0.846843 0.034310
0.976855 0.904061 0.034310
1.000029 0.907173 0.034310
0.002424 0.006378 0.163790
0.029950 0.003992 0.164496
0.090141 0.001045 0.174244
0.185786 0.000000 0.181027
0.298776 0.000000 0.192814
0.388144 0.000000 0.199558
0.457007 0.000000 0.206202
0.507875 0.000000 0.216554
0.551363 0.000000 0.232535
0.586264 0.000000 0.256156
0.617526 0.000000 0.288744
0.651085 0.000000 0.333174
0.690529 0.000000 0.393646
0.743435 0.000000 0.463514
0.842546 0.000000 0.566705
0.914736 0.084318 0.627226
0.001642 0.029107 0.133357
0.019119 0.025585 0.139609
0.066440 0.020855 0.146235
0.154789 0.015901 0.154183
0.271177 0.015549 0.165413
0.370648 0.015549 0.173774
0.446985 0.015549 0.183429
0.501838 0.015549 0.196774
0.548171 0.015549 0.216933
0.585006 0.015549 0.246021
0.616846 0.015549 0.281605
0.650537 0.015549 0.327651
0.690069 0.015549 0.389826
0.742781 0.015549 0.460846
0.841703 0.015549 0.564310
0.914456 0.097768 0.625546
0.001220 0.058482 0.111580
0.016870 0.056687 0.113293
0.048039 0.052069 0.109852
0.114753 0.040511 0.111624
0.223101 0.035091 0.116091
0.332039 0.034310 0.118953
0.417562 0.034310 0.125727
0.481590 0.034310 0.140517
0.533660 0.034310 0.164716
0.576886 0.034310 0.201827
0.613458 0.034310 0.255488
0.649576 0.034310 0.318234
0.689332 0.034310 0.382829
0.741454 0.034310 0.454650
0.839668 0.034310 0.557335
0.913799 0.111874 0.620097
0.000027 0.095966 0.098094
0.015590 0.095585 0.100154
0.035155 0.092887 0.098954
0.093325 0.097486 0.097228
0.210205 0.094933 0.093047
0.330695 0.069925 0.088914
0.425969 0.053837 0.088176
0.491735 0.053711 0.091884
0.540111 0.053711 0.105690
0.573798 0.053711 0.136300
0.604748 0.053711 0.183486
0.642355 0.053711 0.262088
0.688126 0.053711 0.371425
0.739619 0.053711 0.444482
0.836048 0.053711 0.543886
0.912588 0.122973 0.608853
0.000000 0.161041 0.078288
0.015549 0.160510 0.080184
0.034310 0.159342 0.081759
0.057424 0.154321 0.078894
0.175728 0.171965 0.061917
0.321021 0.175666 0.056042
0.443134 0.162540 0.056368
0.527151 0.134662 0.056615
0.585542 0.101777 0.061387
0.622778 0.080070 0.082915
0.650135 0.072433 0.132076
0.668586 0.073226 0.198868
0.681909 0.074954 0.288857
0.738546 0.077811 0.441097
0.834273 0.081332 0.541220
0.912063 0.148246 0.608076
0.000000 0.233361 0.055160
0.015549 0.233246 0.054766
0.034310 0.233244 0.054084
0.053711 0.228483 0.053711
0.113581 0.241259 0.053711
0.285224 0.269071 0.053711
0.437930 0.272753 0.053711
0.544161 0.257841 0.053711
0.616083 0.233737 0.053711
0.663784 0.203329 0.053711
0.698773 0.168678 0.070566
0.728634 0.133509 0.148485
0.749126 0.109395 0.256575
0.737842 0.100246 0.361376
0.831576 0.106165 0.537184
0.911298 0.168431 0.606928
0.000000 0.304207 0.055163
0.015549 0.303658 0.054711
0.034310 0.303233 0.053979
0.053711 0.301802 0.053711
0.074015 0.299229 0.053711
0.206123 0.347582 0.053711
0.402715 0.381936 0.053711
0.547730 0.381654 0.053711
0.639829 0.363264 0.053711
0.697791 0.336302 0.053711
0.739021 0.311722 0.053711
0.774702 0.296317 0.068425
0.807104 0.282962 0.193102
0.829141 0.230435 0.360123
0.809126 0.129977 0.467443
0.910107 0.184465 0.605135
0.000000 0.358826 0.054971
0.015549 0.358421 0.054501
0.034310 0.358116 0.053797
0.053711 0.357388 0.053711
0.072590 0.355854 0.053711
0.105812 0.372779 0.053711
0.309711 0.453986 0.053711
0.513382 0.491063 0.053711
