luts/1.cube
LUT_3D_SIZE 16
0.023832 0.026245 0.026520
0.026902 0.026908 0.026855
0.050705 0.028018 0.024987
0.106460 0.029848 0.020174
0.158796 0.034449 0.017464
0.206996 0.043395 0.017065
0.248893 0.048903 0.017710
0.285436 0.052450 0.018228
0.318596 0.055849 0.018778
0.352842 0.058227 0.018919
0.385744 0.059069 0.018919
0.421807 0.059815 0.018919
0.464808 0.061700 0.019116
0.515705 0.066188 0.019669
0.558130 0.071672 0.020733
0.570988 0.073561 0.021145
0.023499 0.028228 0.027433
0.027303 0.029781 0.028428
0.055407 0.032980 0.026229
0.117287 0.041098 0.019850
0.174153 0.050851 0.017636
0.221283 0.054987 0.017929
0.263621 0.059175 0.018205
0.299870 0.062301 0.018631
0.333526 0.064391 0.019010
0.366673 0.065324 0.019089
0.399097 0.065833 0.019128
0.434999 0.067123 0.019292
0.476548 0.070010 0.019639
0.525173 0.074714 0.020366
0.567547 0.080170 0.021444
0.581471 0.082560 0.022044
0.019848 0.041410 0.030040
0.024814 0.047329 0.030054
0.063433 0.056375 0.028946
0.140975 0.075456 0.024292
0.211219 0.084088 0.021341
0.269401 0.085781 0.019887
0.312069 0.087386 0.020128
0.345940 0.086647 0.019916
0.375093 0.085176 0.019527
0.403450 0.084879 0.019425
0.431464 0.085151 0.019454
0.464436 0.087347 0.019569
0.505421 0.091497 0.019962
0.553582 0.097259 0.020963
0.593609 0.103873 0.023212
0.608220 0.106430 0.024240
0.015061 0.072137 0.040695
0.017268 0.082386 0.040171
0.065137 0.101992 0.035298
0.161824 0.124114 0.033189
0.249347 0.136496 0.029477
0.310651 0.135528 0.026491
0.355239 0.132007 0.024566
0.392140 0.128445 0.022405
0.420733 0.122753 0.021456
0.447791 0.118624 0.020898
0.474515 0.116005 0.020812
0.505627 0.115830 0.020716
0.544778 0.119333 0.020846
0.590559 0.125663 0.022298
0.629513 0.134323 0.025766
0.644272 0.139373 0.028169
0.013491 0.102709 0.055279
0.013801 0.114794 0.055278
0.039199 0.141105 0.047840
0.153321 0.179733 0.042978
0.278747 0.205625 0.044805
0.353948 0.208415 0.039943
0.399981 0.198394 0.034041
0.434352 0.186949 0.031819
0.464886 0.177889 0.030080
0.492714 0.167873 0.027581
0.520446 0.161069 0.025461
0.549820 0.156251 0.024505
0.585486 0.155860 0.024534
0.628042 0.163797 0.027829
0.667541 0.177891 0.034315
0.684516 0.187361 0.039919
0.012671 0.132979 0.068607
0.012537 0.145152 0.068863
0.022337 0.179765 0.058262
0.108961 0.218948 0.045518
0.265439 0.266092 0.051608
0.388761 0.290107 0.064868
0.443695 0.280755 0.058442
0.480400 0.263714 0.051265
0.511601 0.247688 0.047692
0.540478 0.235111 0.044021
0.567518 0.222738 0.039375
0.598103 0.215463 0.036454
0.633981 0.211205 0.034902
0.679503 0.220110 0.038417
0.725803 0.245248 0.050628
0.747608 0.262473 0.061136
0.012068 0.163504 0.084963
0.012043 0.174199 0.084434
0.015170 0.212867 0.072888
0.051044 0.243443 0.052518
0.209829 0.300668 0.055601
0.367848 0.344405 0.076662
0.476571 0.363906 0.093986
0.523718 0.349368 0.084930
0.559966 0.331873 0.076703
0.593902 0.315791 0.068114
0.623975 0.302235 0.060582
0.657378 0.292307 0.054717
0.700162 0.291404 0.052969
0.753428 0.303919 0.058443
0.805382 0.342933 0.082136
0.829346 0.369280 0.100220
0.011503 0.193363 0.105625
0.011457 0.204683 0.106805
0.012617 0.241782 0.098653
0.030437 0.272679 0.073192
0.125051 0.310575 0.058687
0.303535 0.369352 0.078428
0.454983 0.414332 0.108322
0.557995 0.432692 0.122271
0.609871 0.421724 0.110829
0.653624 0.409887 0.100127
0.690233 0.396397 0.088872
0.728422 0.387644 0.079022
0.774785 0.388458 0.075539
0.831126 0.410997 0.089265
0.872700 0.454738 0.128499
0.885812 0.485017 0.164025
0.011137 0.223783 0.126008
0.011047 0.233257 0.125862
0.011465 0.270112 0.123144
0.020651 0.299865 0.095963
0.066103 0.323376 0.069993
0.209814 0.373794 0.070245
0.391848 0.438726 0.100309
0.540540 0.485279 0.136126
0.650787 0.507941 0.145714
0.709887 0.502631 0.131112
0.755459 0.493919 0.118764
0.796222 0.487655 0.109251
0.838837 0.492296 0.108445
0.879278 0.518720 0.137614
0.901792 0.562957 0.204210
0.908627 0.592770 0.253054
0.011220 0.256462 0.146962
0.011208 0.263871 0.145855
0.011344 0.296441 0.142455
0.015867 0.332021 0.114320
0.042069 0.349137 0.086202
0.132665 0.381523 0.071148
0.298417 0.444288 0.079589
0.484247 0.515993 0.126176
0.637675 0.563001 0.164706
0.749847 0.588064 0.167170
0.802120 0.584673 0.157298
0.842912 0.582883 0.151110
0.876816 0.591630 0.162855
0.903996 0.621186 0.214840
0.918044 0.660296 0.299933
0.924192 0.686575 0.353137
0.011553 0.288675 0.163110
0.011553 0.294648 0.162440
0.011504 0.322175 0.156705
0.013432 0.363047 0.129059
0.029030 0.382093 0.101919
0.077109 0.400056 0.081037
0.212056 0.453842 0.076253
0.402036 0.526761 0.107841
0.587799 0.596501 0.165452
0.733109 0.641581 0.194056
0.826535 0.669077 0.207886
0.868209 0.671294 0.213241
0.895227 0.680705 0.234723
0.917070 0.706423 0.301317
0.927803 0.738709 0.388247
0.930379 0.758026 0.435561
0.011888 0.320746 0.173212
0.011901 0.325988 0.172160
0.012277 0.351450 0.166755
0.014115 0.398206 0.143879
0.025026 0.427522 0.120854
0.054855 0.438439 0.106494
0.151734 0.476275 0.089910
0.333394 0.548452 0.105357
0.540912 0.628529 0.164216
0.710439 0.689156 0.217168
0.822694 0.728735 0.251753
0.883009 0.754292 0.284090
0.907854 0.760373 0.318434
0.925339 0.776710 0.386545
0.931547 0.799594 0.462307
0.931984 0.814382 0.499810
0.013614 0.358700 0.183169
0.013791 0.363789 0.180394
0.015120 0.390615 0.174851
0.018581 0.443848 0.163494
0.028829 0.488063 0.152606
0.058374 0.503500 0.151490
0.132168 0.527408 0.138268
0.302603 0.588088 0.125594
0.516503 0.672757 0.183632
0.703299 0.742796 0.255408
0.821494 0.784054 0.308148
0.884705 0.811124 0.354211
0.918202 0.827329 0.393133
0.930136 0.833301 0.465600
0.931661 0.847881 0.535895
0.930761 0.858290 0.562646
0.019514 0.413710 0.197787
0.019825 0.419646 0.195503
0.022579 0.450430 0.192672
0.029548 0.506913 0.200718
0.043805 0.556685 0.213764
0.080917 0.576941 0.230255
0.153068 0.599279 0.231604
0.321076 0.651378 0.210892
0.530734 0.728952 0.266308
0.709510 0.798120 0.355796
0.824297 0.834198 0.419042
0.882396 0.851046 0.463115
0.914223 0.861408 0.496621
0.930426 0.866896 0.525643
0.930147 0.872930 0.582315
0.929625 0.877654 0.597661
0.027209 0.476131 0.211987
0.028054 0.483376 0.213663
0.034474 0.520443 0.230429
0.048713 0.573104 0.263866
0.076287 0.606947 0.297401
0.132833 0.625715 0.324336
0.225857 0.659909 0.333447
0.391248 0.715987 0.343591
0.585367 0.787098 0.401091
0.741708 0.841380 0.475671
0.841132 0.862349 0.524720
0.888021 0.870711 0.559813
0.915416 0.877038 0.584011
0.926453 0.879902 0.595629
0.929155 0.880900 0.602685
0.929172 0.881878 0.607697
0.032668 0.509015 0.226974
0.034186 0.517463 0.231098
0.041862 0.554274 0.257146
0.059783 0.603561 0.300494
0.100530 0.621426 0.339198
0.176052 0.649313 0.376523
0.294969 0.700402 0.402012
0.456923 0.756884 0.424537
0.625893 0.817552 0.471865
0.766048 0.855721 0.520080
0.857377 0.868471 0.552311
0.898864 0.875128 0.579227
0.922629 0.880404 0.600003
0.928502 0.881810 0.607316
0.928971 0.882058 0.608071
0.929172 0.882110 0.608255
0.023749 0.026489 0.028259
0.026744 0.026859 0.029260
0.051130 0.027508 0.029088
0.109234 0.027805 0.024633
0.164148 0.029030 0.020976
0.213758 0.031611 0.018536
0.261352 0.034534 0.017835
0.302447 0.036382 0.017931
0.339581 0.038235 0.018066
0.375925 0.040269 0.018025
0.411375 0.042169 0.017972
0.449388 0.044906 0.017883
0.493933 0.049225 0.018146
0.545247 0.055110 0.019637
0.586806 0.060665 0.021951
0.599371 0.062429 0.022843
0.023490 0.028624 0.029322
0.026829 0.029885 0.030258
0.053741 0.029635 0.026518
0.112415 0.033427 0.020651
0.166773 0.038333 0.018512
0.216563 0.043254 0.017734
0.261595 0.047167 0.017718
0.299862 0.049784 0.018155
0.334610 0.052181 0.018504
0.368376 0.054015 0.018647
0.402507 0.055872 0.018559
0.439051 0.057804 0.018661
0.482387 0.060686 0.018932
0.532308 0.065322 0.020198
0.574286 0.071265 0.021832
0.587696 0.073332 0.022433
0.019833 0.042284 0.034932
0.021627 0.044778 0.033356
0.057805 0.053522 0.034582
0.135676 0.068204 0.026957
0.205755 0.075905 0.022029
0.261693 0.077492 0.020835
0.304660 0.078893 0.020750
0.340448 0.078554 0.020124
0.370916 0.077592 0.019783
0.401363 0.077538 0.019521
0.430893 0.077799 0.019641
0.465725 0.079658 0.019829
0.508498 0.083600 0.020192
0.557086 0.089631 0.021532
0.597779 0.096621 0.024068
0.612577 0.099521 0.025047
0.015341 0.072480 0.051690
0.015387 0.076537 0.046505
0.049933 0.096725 0.039978
0.155546 0.121025 0.036952
0.243437 0.131275 0.032398
0.306074 0.129574 0.028157
0.352344 0.125408 0.025457
0.388738 0.121600 0.023359
0.417188 0.115864 0.022218
0.445581 0.111502 0.021231
0.473180 0.109279 0.021201
0.505540 0.109179 0.021002
0.546011 0.112860 0.021047
0.591832 0.119663 0.023065
0.630497 0.129035 0.027082
0.644733 0.134519 0.030068
0.013731 0.103335 0.064318
0.013438 0.108131 0.059654
0.031837 0.137006 0.054399
0.137967 0.173779 0.047685
0.272663 0.202917 0.049473
0.349499 0.203841 0.042431
0.396219 0.193039 0.035705
0.430907 0.180909 0.032619
0.462252 0.171460 0.030298
0.490537 0.161607 0.027859
0.518388 0.154868 0.026211
0.548312 0.150322 0.025471
0.585352 0.150313 0.025413
0.628544 0.158784 0.028805
0.668477 0.173484 0.035764
0.685572 0.183540 0.041936
0.012691 0.135036 0.080588
0.012593 0.138726 0.073840
0.019443 0.174436 0.065241
0.092809 0.211822 0.051211
0.254636 0.262285 0.055065
0.385307 0.288047 0.066962
0.440160 0.277332 0.060053
0.477395 0.259468 0.052372
0.508613 0.242631 0.048466
0.537732 0.229685 0.044656
0.565223 0.217277 0.040012
0.596629 0.210038 0.036977
0.632976 0.205556 0.035342
0.678614 0.215048 0.039416
0.725290 0.241547 0.053293
0.747680 0.259192 0.063752
0.012157 0.166656 0.095632
0.012067 0.169241 0.088873
0.014154 0.207359 0.079401
0.045324 0.240023 0.057591
0.194854 0.294837 0.056904
0.359783 0.341176 0.078003
0.473935 0.362601 0.096619
0.521149 0.347132 0.087156
0.557375 0.328918 0.077957
0.591392 0.312093 0.069197
0.621545 0.298198 0.062039
0.655631 0.288300 0.056002
0.698551 0.287005 0.054158
0.752081 0.298963 0.059662
0.804690 0.339467 0.084379
0.828733 0.365850 0.102506
0.011541 0.196878 0.115661
0.011503 0.199517 0.110044
0.012132 0.237849 0.105099
0.027177 0.269843 0.078905
0.112234 0.305661 0.060774
0.293201 0.365473 0.079458
0.449104 0.411937 0.109760
0.556057 0.432059 0.125208
0.607795 0.420190 0.112967
0.651856 0.407840 0.101896
0.688593 0.393533 0.090166
0.726934 0.384282 0.080053
0.773360 0.384708 0.076488
0.830670 0.407915 0.091267
0.871880 0.452280 0.131903
0.885389 0.483293 0.167340
0.011221 0.227590 0.135487
0.011135 0.229210 0.129591
0.011350 0.266202 0.129104
0.019024 0.299453 0.103782
0.060228 0.321109 0.074886
0.196446 0.369168 0.071088
0.384098 0.435808 0.101678
0.536847 0.484344 0.137856
0.649528 0.507579 0.148042
0.708724 0.501648 0.132893
0.754474 0.492378 0.120437
0.795416 0.485970 0.110694
0.838390 0.490247 0.109916
0.878773 0.516488 0.139135
0.901715 0.561754 0.206569
0.908625 0.591710 0.255256
0.011467 0.261076 0.157406
0.011366 0.261722 0.151770
0.011381 0.292728 0.147954
0.014985 0.331140 0.121745
0.038524 0.347915 0.091194
0.120884 0.377643 0.072783
0.289665 0.441030 0.079998
0.478105 0.514004 0.126077
0.634937 0.562585 0.166150
0.749339 0.587867 0.168375
0.801789 0.584116 0.158266
0.842879 0.582044 0.152077
0.876932 0.590625 0.163703
0.904087 0.619935 0.215912
0.918022 0.659406 0.300532
0.924176 0.685530 0.353227
0.011754 0.293435 0.172713
0.011631 0.293198 0.167040
0.011667 0.319288 0.162442
0.013351 0.361394 0.135981
0.027438 0.382407 0.106395
0.071089 0.398158 0.083939
0.203089 0.450685 0.077769
0.394706 0.524336 0.106963
0.583922 0.595543 0.165311
0.731580 0.641443 0.194730
0.826380 0.669193 0.208466
0.868225 0.671206 0.213451
0.895388 0.680317 0.235078
0.917266 0.705689 0.301499
0.927597 0.738042 0.386997
0.930451 0.757371 0.434155
0.012343 0.325736 0.181506
0.012088 0.325013 0.176073
0.012698 0.349134 0.172158
0.014413 0.395791 0.150219
0.024037 0.428217 0.124597
0.052176 0.438766 0.109741
0.144956 0.474084 0.092259
0.325845 0.546200 0.104563
0.536244 0.627504 0.163249
0.708282 0.688974 0.216980
0.821916 0.728870 0.251743
0.882987 0.754431 0.284005
0.907962 0.760324 0.318031
0.925455 0.776326 0.385983
0.931585 0.799446 0.461007
0.932082 0.814163 0.498250
0.014876 0.364909 0.191779
0.014449 0.363837 0.185964
0.015530 0.388147 0.179335
0.018714 0.440272 0.167955
0.028058 0.487613 0.155480
0.056221 0.504529 0.153792
0.126480 0.526416 0.141639
0.295851 0.586279 0.125602
0.511386 0.671513 0.182035
0.701318 0.742521 0.254607
0.820806 0.783902 0.307409
0.884651 0.811172 0.353526
0.918221 0.827381 0.392784
0.930200 0.833320 0.464018
0.931665 0.847895 0.534507
0.930699 0.858274 0.561327
0.021490 0.421515 0.207714
0.020458 0.419355 0.200964
0.022649 0.447232 0.196011
0.029426 0.503205 0.202662
0.043176 0.555208 0.215106
0.079113 0.577011 0.231155
0.149700 0.598635 0.233122
0.316044 0.649740 0.210350
0.527064 0.727708 0.264847
0.707757 0.797385 0.354194
0.824561 0.833868 0.416975
0.882931 0.850620 0.460852
0.914630 0.861161 0.494580
0.930570 0.866762 0.523867
0.930168 0.872421 0.580892
0.929623 0.877410 0.596565
0.029494 0.484446 0.221988
0.028506 0.482387 0.216786
0.034002 0.516308 0.230497
0.047719 0.569762 0.262744
0.074552 0.605257 0.295828
0.129724 0.624591 0.322663
0.221516 0.657959 0.331399
0.386381 0.713568 0.340863
0.583017 0.785723 0.398247
0.741581 0.840940 0.473513
0.841442 0.861810 0.522754
0.888252 0.870543 0.558114
0.915365 0.876642 0.582560
0.926599 0.879692 0.594848
0.929212 0.880770 0.601911
0.929241 0.881726 0.606975
0.035798 0.518169 0.237930
0.034344 0.515796 0.232576
0.041181 0.549764 0.255164
0.058295 0.600903 0.298555
0.098100 0.620508 0.337622
0.172011 0.647578 0.374374
0.290147 0.698048 0.399615
0.452611 0.754876 0.421862
0.623645 0.816306 0.469419
0.765287 0.855193 0.517917
0.857355 0.868205 0.550643
0.899046 0.874851 0.577787
0.922595 0.880247 0.598914
0.928472 0.881903 0.606656
0.929144 0.881958 0.607608
0.929172 0.881961 0.607693
0.023265 0.028275 0.040904
0.028165 0.028488 0.043305
0.047696 0.027266 0.046447
0.103745 0.027012 0.054729
0.159694 0.028232 0.052523
0.210045 0.029352 0.047146
0.260591 0.029760 0.041670
0.308147 0.030690 0.036826
0.349877 0.031661 0.034224
0.392081 0.032695 0.031932
0.434832 0.033495 0.030675
0.481014 0.034826 0.030045
0.532289 0.037926 0.029503
0.586317 0.043730 0.031141
0.629095 0.050177 0.035776
0.640856 0.053385 0.039630
0.022204 0.031966 0.045379
0.025211 0.031141 0.046814
0.049232 0.029185 0.051313
0.109375 0.029358 0.051152
0.169093 0.030852 0.045285
0.221562 0.031032 0.039917
0.270081 0.032098 0.035102
0.315240 0.032737 0.031291
0.356613 0.033469 0.029042
0.399396 0.034029 0.027476
0.439346 0.035703 0.026401
0.482820 0.037673 0.025485
0.532051 0.040892 0.024991
0.585311 0.046799 0.027548
0.625903 0.054474 0.032941
0.637359 0.058280 0.036721
0.019926 0.043724 0.048889
0.021611 0.046223 0.051232
0.047294 0.049437 0.050186
0.122032 0.048908 0.036125
0.187174 0.051614 0.028904
0.242193 0.051406 0.025665
0.291115 0.051746 0.023108
0.333125 0.051803 0.022231
0.370673 0.051649 0.021525
0.408845 0.052195 0.020957
0.445032 0.053491 0.020657
0.486462 0.056148 0.019958
0.531587 0.060254 0.020479
0.579818 0.066896 0.023590
0.617717 0.075322 0.028911
0.630015 0.079714 0.031812
0.015635 0.073245 0.068353
0.015953 0.077733 0.069279
0.027158 0.088189 0.062475
0.133926 0.110661 0.057055
0.226174 0.115148 0.042668
0.290889 0.110359 0.034621
0.339154 0.105211 0.030901
0.377696 0.101070 0.027877
0.410883 0.095392 0.025077
0.441922 0.091014 0.023514
0.475342 0.089594 0.022924
0.510679 0.089984 0.023344
0.554998 0.093822 0.023880
0.602853 0.102044 0.026955
0.640462 0.113676 0.033683
0.653729 0.120286 0.038114
0.013956 0.105433 0.092015
0.013821 0.110419 0.089474
0.018024 0.126103 0.077223
0.092438 0.156488 0.066514
0.250741 0.193671 0.067178
0.333159 0.190040 0.054631
0.384315 0.176871 0.043850
0.422663 0.163496 0.037521
0.454948 0.152893 0.034036
0.484216 0.142591 0.030787
0.514532 0.135543 0.029143
0.547635 0.132060 0.028767
0.589447 0.132782 0.028372
0.635136 0.142531 0.032652
0.675085 0.160976 0.043757
0.691269 0.172164 0.051363
0.012733 0.138882 0.104036
0.012628 0.143673 0.102733
0.013932 0.162246 0.091580
0.055908 0.195940 0.073837
0.213172 0.247073 0.071452
0.369305 0.281414 0.081943
0.429481 0.266532 0.068558
0.468043 0.245943 0.058113
0.500140 0.226398 0.051675
0.530507 0.212618 0.046836
0.560149 0.200232 0.042509
0.593331 0.192399 0.040608
0.632001 0.188999 0.040338
0.680162 0.199562 0.045231
0.729185 0.231363 0.063973
0.752402 0.250965 0.076428
0.011956 0.171664 0.118934
0.011996 0.176219 0.117283
0.012396 0.196476 0.104910
0.031376 0.231359 0.078986
0.147256 0.276846 0.066203
0.331727 0.330908 0.085723
0.463811 0.358276 0.106001
0.513214 0.339933 0.094673
0.550284 0.319009 0.082961
0.584273 0.299802 0.074739
0.615700 0.285230 0.067858
0.651864 0.274734 0.061646
0.696977 0.273685 0.060102
0.752948 0.288059 0.068154
0.806829 0.331392 0.097005
0.830169 0.360818 0.119794
0.011514 0.204586 0.139747
0.011539 0.208649 0.137330
0.011534 0.229565 0.126070
0.020290 0.265588 0.099601
0.079251 0.293687 0.070579
0.254598 0.351839 0.082566
0.427868 0.404094 0.115823
0.548380 0.430367 0.136416
0.601751 0.416487 0.123002
0.646658 0.402032 0.109839
0.684301 0.385069 0.096816
0.724150 0.374676 0.087567
0.772788 0.374606 0.084729
0.830949 0.399935 0.103529
0.871803 0.448709 0.151539
0.886060 0.482639 0.187822
0.011537 0.238249 0.161739
0.011539 0.241490 0.159619
0.011505 0.259593 0.149245
0.015404 0.301964 0.129749
0.044787 0.316262 0.093141
0.154408 0.355340 0.076530
0.355413 0.425774 0.107720
0.521652 0.480474 0.146271
0.645118 0.507954 0.160349
0.706076 0.500186 0.144435
0.752412 0.488658 0.130115
0.794252 0.480994 0.119431
0.837837 0.485149 0.119959
0.879497 0.513432 0.153889
0.903009 0.561955 0.225297
0.909990 0.593684 0.274028
0.011777 0.271396 0.179143
0.011755 0.273331 0.176506
0.011672 0.289058 0.168961
0.014014 0.334169 0.150397
0.030608 0.349681 0.114429
0.086642 0.367391 0.084361
0.251379 0.428899 0.084478
0.454754 0.507183 0.131232
0.624637 0.562132 0.174846
0.747595 0.589038 0.176668
0.801631 0.583881 0.166166
0.843657 0.581047 0.160366
0.878460 0.589851 0.173621
0.905413 0.619252 0.229189
0.919448 0.659822 0.311617
0.924735 0.685782 0.361427
0.012816 0.306131 0.196913
0.012801 0.307236 0.194046
0.013031 0.319333 0.185744
0.015186 0.364524 0.166409
0.024743 0.390208 0.129891
0.057840 0.398371 0.102937
0.168143 0.440080 0.087927
0.368171 0.517166 0.108318
0.569112 0.593986 0.168421
0.726006 0.643325 0.201231
0.826351 0.671994 0.215016
0.869495 0.672940 0.219961
0.897281 0.681245 0.243013
0.918257 0.706970 0.311373
0.927887 0.738878 0.390208
0.930355 0.757759 0.432667
0.015655 0.343835 0.213728
0.015357 0.343813 0.209220
0.015055 0.352070 0.196177
0.017359 0.397488 0.179417
0.023524 0.436776 0.146848
0.047523 0.446433 0.128841
0.121356 0.469500 0.107486
0.297644 0.539776 0.106222
0.518428 0.625884 0.162975
0.701087 0.691198 0.220904
0.820863 0.732788 0.256707
0.884529 0.758476 0.288509
0.909521 0.762553 0.321619
0.925953 0.777936 0.389977
0.931797 0.800438 0.459590
0.932217 0.814880 0.492317
0.020398 0.388290 0.226796
0.019728 0.387311 0.220597
0.018523 0.392502 0.203147
0.021925 0.439358 0.192610
0.028855 0.494094 0.176932
0.052372 0.514341 0.171190
0.112208 0.528791 0.162120
0.273355 0.583476 0.133982
0.493373 0.670111 0.182378
0.694266 0.744401 0.257934
0.819142 0.786736 0.310604
0.885266 0.813907 0.356589
0.918549 0.829332 0.396051
0.930387 0.834742 0.460522
0.931899 0.848589 0.526509
0.931112 0.858457 0.551184
0.029031 0.450367 0.241453
0.028356 0.448945 0.236290
0.027018 0.452492 0.221909
0.032198 0.501634 0.222740
0.045382 0.556939 0.232570
0.078196 0.582373 0.246131
0.145942 0.602767 0.249629
0.303545 0.650029 0.223343
0.516144 0.727984 0.271007
0.705428 0.797516 0.354686
0.826630 0.834012 0.413769
0.885937 0.850075 0.453506
0.916370 0.860080 0.486898
0.930735 0.865103 0.515211
0.930813 0.871004 0.568051
0.930147 0.875872 0.584181
0.042571 0.523264 0.269224
0.041130 0.520283 0.263210
0.037862 0.518775 0.249195
0.046583 0.567655 0.270913
0.073641 0.603396 0.300530
0.125069 0.623567 0.324976
0.217034 0.657311 0.333810
0.380518 0.711049 0.339495
0.580882 0.784415 0.395264
0.745242 0.838907 0.466058
0.845338 0.859818 0.511749
0.892077 0.868041 0.543727
0.917119 0.874074 0.567424
0.927646 0.877021 0.580800
0.929642 0.878390 0.588625
0.929693 0.879577 0.595214
0.049309 0.558697 0.289772
0.047629 0.555290 0.283226
0.044092 0.553259 0.269289
0.057086 0.596986 0.302998
0.094899 0.620545 0.340935
0.164534 0.644772 0.371247
0.279480 0.692385 0.390601
0.446281 0.749416 0.409877
0.626127 0.813422 0.458429
0.771598 0.852353 0.505282
0.860805 0.865933 0.537964
0.902464 0.872579 0.564869
0.923494 0.877829 0.585695
0.928954 0.879673 0.594846
0.929563 0.880000 0.597200
0.929563 0.880157 0.597565
0.019412 0.029900 0.076304
0.024782 0.029257 0.082057
0.055897 0.026529 0.091371
0.095159 0.026191 0.087326
0.149808 0.026929 0.090575
0.200955 0.028285 0.082522
0.253175 0.028966 0.072564
0.305777 0.029845 0.065507
0.355695 0.030744 0.060690
0.404394 0.031127 0.057592
0.452501 0.031244 0.054877
0.505448 0.031710 0.053946
0.564915 0.033786 0.055196
0.624103 0.040259 0.060623
0.666096 0.049181 0.070946
0.677808 0.053408 0.077167
0.019100 0.035311 0.081516
0.020314 0.031751 0.083852
0.054189 0.028151 0.098486
0.098380 0.026998 0.098441
0.159248 0.029026 0.090280
0.214219 0.029436 0.077178
0.265456 0.030195 0.068101
0.316458 0.030905 0.061265
0.365870 0.031290 0.056485
0.413975 0.031526 0.053217
0.461383 0.031827 0.050721
0.512530 0.032734 0.049808
0.570218 0.035040 0.050879
0.626906 0.041761 0.056536
0.666740 0.051698 0.067194
0.678067 0.056417 0.073385
0.018081 0.056112 0.084204
0.018834 0.056273 0.088245
0.037037 0.048306 0.095236
0.105678 0.043547 0.106965
0.179499 0.043554 0.083278
0.242444 0.040745 0.067307
0.293938 0.040136 0.056850
0.340808 0.040073 0.049249
0.386108 0.038702 0.044829
0.433860 0.037799 0.042214
0.480354 0.037807 0.040148
0.526792 0.039767 0.038633
0.578245 0.043431 0.038059
0.629673 0.050803 0.044029
0.663642 0.063143 0.058089
0.673690 0.069697 0.065478
0.015786 0.074556 0.094129
0.016177 0.079329 0.097846
0.028222 0.089586 0.105880
0.099533 0.095864 0.097107
0.198770 0.093911 0.074610
0.270460 0.086654 0.058034
0.324475 0.081518 0.048215
0.368917 0.078327 0.043330
0.409441 0.073944 0.039964
0.449946 0.070338 0.037270
0.492845 0.069609 0.035996
0.538336 0.070401 0.035075
0.589078 0.073471 0.034915
0.637033 0.081887 0.040332
0.670495 0.098428 0.055915
0.681210 0.106983 0.064327
0.014123 0.107316 0.116093
0.014007 0.112581 0.118803
0.019249 0.129605 0.124155
0.059887 0.146451 0.114334
0.211225 0.177957 0.110435
0.307676 0.171672 0.084426
0.365371 0.156080 0.065653
0.408567 0.142415 0.056101
0.444947 0.132078 0.049282
0.480526 0.121941 0.043099
0.515677 0.114527 0.040185
0.556953 0.111631 0.039617
0.602803 0.113105 0.041359
0.654077 0.123924 0.047388
0.694583 0.148589 0.065934
0.710235 0.162320 0.077104
0.012756 0.142479 0.132772
0.012649 0.147636 0.133212
0.014556 0.169241 0.137365
0.037188 0.190023 0.122552
0.145915 0.221258 0.111079
0.335693 0.270483 0.124024
0.408827 0.252545 0.099335
0.454907 0.229212 0.079319
0.490789 0.207183 0.065500
0.522533 0.191044 0.058103
0.554925 0.177774 0.053052
0.592491 0.168465 0.050668
0.637327 0.167583 0.052193
0.692061 0.182902 0.061990
0.744269 0.221027 0.088694
0.769165 0.246279 0.108641
0.011643 0.176136 0.143955
0.011722 0.181358 0.144484
0.012704 0.206842 0.148930
0.025473 0.233923 0.131779
0.093735 0.256141 0.102825
0.278341 0.312622 0.114044
0.441360 0.351216 0.134345
0.500782 0.330129 0.113956
0.540099 0.304954 0.096389
0.575712 0.281348 0.084471
0.609087 0.264590 0.076538
0.649084 0.253571 0.071495
0.699350 0.250964 0.072434
0.760526 0.273121 0.089941
0.815675 0.326864 0.132768
0.842187 0.363944 0.163913
0.011463 0.211720 0.164195
0.011542 0.216659 0.165432
0.012119 0.242398 0.166048
0.019279 0.276155 0.143450
0.057902 0.286992 0.099347
0.197929 0.333208 0.094144
0.391309 0.392070 0.128188
0.533603 0.426493 0.153424
