luts/1.cube
LUT_3D_SIZE 6
0.023832 0.026245 0.026520
0.106460 0.029848 0.020174
0.248893 0.048903 0.017710
0.352842 0.058227 0.018919
0.464808 0.061700 0.019116
0.570988 0.073561 0.021145
0.015061 0.072137 0.040695
0.161824 0.124114 0.033189
0.355239 0.132007 0.024566
0.447791 0.118624 0.020898
0.544778 0.119333 0.020846
0.644272 0.139373 0.028169
0.012068 0.163504 0.084963
0.051044 0.243443 0.052518
0.476571 0.363906 0.093986
0.593902 0.315791 0.068114
0.700162 0.291404 0.052969
0.829346 0.369280 0.100220
0.011220 0.256462 0.146962
0.015867 0.332021 0.114320
0.298417 0.444288 0.079589
0.749847 0.588064 0.167170
0.876816 0.591630 0.162855
0.924192 0.686575 0.353137
0.013614 0.358700 0.183169
0.018581 0.443848 0.163494
0.132168 0.527408 0.138268
0.703299 0.742796 0.255408
0.918202 0.827329 0.393133
0.930761 0.858290 0.562646
0.032668 0.509015 0.226974
0.059783 0.603561 0.300494
0.294969 0.700402 0.402012
0.766048 0.855721 0.520080
0.922629 0.880404 0.600003
0.929172 0.882110 0.608255
0.019412 0.029900 0.076304
0.095159 0.026191 0.087326
0.253175 0.028966 0.072564
0.404394 0.031127 0.057592
0.564915 0.033786 0.055196
0.677808 0.053408 0.077167
0.015786 0.074556 0.094129
0.099533 0.095864 0.097107
0.324475 0.081518 0.048215
0.449946 0.070338 0.037270
0.589078 0.073471 0.034915
0.681210 0.106983 0.064327
0.011643 0.176136 0.143955
0.025473 0.233923 0.131779
0.441360 0.351216 0.134345
0.575712 0.281348 0.084471
0.699350 0.250964 0.072434
0.842187 0.363944 0.163913
0.013286 0.283724 0.205654
0.018419 0.356247 0.198319
0.197002 0.414622 0.100811
0.743760 0.593069 0.200299
0.882391 0.592110 0.201371
0.926731 0.693613 0.388642
0.026977 0.412287 0.262086
0.034125 0.473956 0.249623
0.104736 0.546508 0.208649
0.680727 0.751205 0.272537
0.921351 0.836350 0.408475
0.931889 0.857400 0.527576
0.063728 0.599552 0.343629
0.067469 0.617697 0.341049
0.273125 0.690539 0.389739
0.790336 0.849637 0.487057
0.926782 0.871122 0.548595
0.930830 0.873254 0.559169
0.016438 0.033796 0.150497
0.075690 0.022737 0.212963
0.237001 0.025938 0.196813
0.424483 0.028395 0.176375
0.605570 0.034254 0.187454
0.714196 0.065507 0.241172
0.016201 0.085734 0.179501
0.043964 0.077870 0.231611
0.328559 0.068352 0.258569
0.496066 0.051428 0.186564
0.664526 0.062154 0.184927
0.729737 0.119079 0.258785
0.013166 0.194442 0.233641
0.031344 0.260714 0.304825
0.334610 0.337016 0.328680
0.569723 0.264526 0.219371
0.711350 0.209679 0.174419
0.863993 0.394534 0.343430
0.019958 0.318437 0.288071
0.046676 0.422414 0.348205
0.173179 0.424271 0.236484
0.686417 0.575770 0.291541
0.874860 0.557107 0.272645
0.925756 0.697609 0.471780
0.063260 0.489522 0.378032
0.084536 0.576376 0.417314
0.148717 0.612711 0.356691
0.617513 0.755573 0.338577
0.921908 0.846270 0.453585
0.930403 0.870481 0.571325
0.108562 0.678053 0.471932
0.113024 0.681181 0.469242
0.305794 0.729928 0.495343
0.811826 0.866919 0.562003
0.928597 0.877514 0.583975
0.929637 0.877806 0.586352
0.015789 0.036253 0.224224
0.053864 0.026105 0.290736
0.214676 0.024135 0.303883
0.448796 0.027846 0.314702
0.619287 0.036710 0.327526
0.697120 0.072726 0.372894
0.016800 0.082040 0.252708
0.026492 0.069212 0.337402
0.238129 0.053710 0.418953
0.526411 0.056509 0.389026
0.667288 0.065394 0.364847
0.710461 0.137766 0.407109
0.014057 0.195150 0.309145
0.022353 0.231040 0.394800
0.185559 0.265625 0.426975
0.561206 0.283895 0.496974
0.709743 0.213533 0.434029
0.850662 0.412141 0.558234
0.030531 0.354096 0.389633
0.083417 0.478863 0.516207
0.227818 0.492461 0.517919
0.571668 0.579103 0.553943
0.824700 0.497797 0.452923
0.904639 0.657044 0.597442
0.108842 0.569471 0.501208
0.130365 0.651042 0.557913
0.254798 0.719946 0.582229
0.426763 0.689753 0.465427
0.871823 0.794708 0.497834
0.923910 0.852636 0.656361
0.138425 0.715630 0.584526
0.158112 0.723182 0.604316
0.468796 0.838703 0.728116
0.724238 0.881742 0.710543
0.900574 0.905512 0.750193
0.923739 0.915055 0.795054
0.016054 0.040868 0.309150
0.040974 0.033796 0.367852
0.205515 0.023839 0.408046
0.457460 0.030777 0.420043
0.621192 0.039146 0.442192
0.676993 0.070305 0.452434
0.017617 0.081406 0.337392
0.019706 0.066770 0.444607
0.174496 0.041569 0.523885
0.517997 0.063296 0.512001
0.654668 0.064068 0.489539
0.687881 0.136688 0.494777
0.014457 0.198863 0.378875
0.017682 0.225473 0.470037
0.107954 0.221164 0.508649
0.457303 0.223534 0.629313
0.702130 0.221008 0.608400
0.825957 0.401881 0.713066
0.034658 0.371308 0.490458
0.055444 0.441994 0.602342
0.174522 0.459603 0.658842
0.434352 0.498770 0.732146
0.800531 0.508759 0.745940
0.891088 0.705823 0.825419
0.125354 0.614697 0.619836
0.139646 0.674113 0.693962
0.314892 0.758068 0.787655
0.522284 0.767953 0.776376
0.784912 0.782517 0.756558
0.908502 0.792486 0.751862
0.139936 0.716089 0.717179
0.177093 0.729696 0.745251
0.535184 0.862488 0.858013
0.767013 0.902716 0.859099
0.808130 0.902006 0.790746
0.923097 0.917332 0.811576
0.016138 0.045977 0.384634
0.037329 0.041094 0.438375
0.230327 0.024259 0.497440
0.498042 0.036476 0.499237
0.647900 0.045186 0.508876
0.668927 0.066180 0.489407
0.016603 0.084874 0.418230
0.016439 0.067443 0.525504
0.181900 0.037437 0.628727
0.527383 0.056827 0.592858
0.662915 0.075133 0.558939
0.676589 0.126050 0.539348
0.014773 0.228590 0.464476
0.016666 0.244878 0.549283
0.094634 0.214985 0.635126
0.506815 0.278122 0.744510
0.781324 0.384138 0.758240
0.838499 0.434558 0.777356
0.051356 0.439072 0.586303
0.068995 0.461066 0.669827
0.344574 0.593722 0.809508
0.648235 0.670465 0.869013
0.847838 0.703906 0.863033
0.897557 0.768443 0.875020
0.125641 0.646308 0.730337
0.166864 0.664685 0.748213
0.442196 0.761083 0.847506
0.657247 0.811353 0.877699
0.817848 0.819966 0.892299
0.911236 0.836674 0.896102
0.138587 0.710921 0.742566
0.184214 0.729726 0.762112
0.543377 0.863242 0.871741
0.749415 0.900684 0.891705
0.818343 0.912619 0.902539
0.928133 0.928065 0.919388
