luts/2.cube
LUT_3D_SIZE 6
0.021145 0.020865 0.020767
0.121181 0.027499 0.020896
0.329440 0.058564 0.028143
0.510942 0.081636 0.033998
0.681878 0.114202 0.045969
0.753677 0.134594 0.052184
0.029591 0.080390 0.047890
0.143819 0.143805 0.039902
0.386117 0.187379 0.041418
0.570598 0.219129 0.050669
0.718292 0.273634 0.068639
0.782458 0.290468 0.076444
0.022053 0.271243 0.110531
0.114905 0.404169 0.075015
0.414654 0.435168 0.125822
0.623600 0.444435 0.108661
0.760776 0.455523 0.109027
0.817412 0.444738 0.114328
0.028315 0.476938 0.166538
0.069684 0.568186 0.150777
0.465282 0.652888 0.211953
0.725328 0.713642 0.363422
0.843154 0.709670 0.301743
0.889159 0.740921 0.353824
0.050896 0.670949 0.236326
0.096581 0.731224 0.279359
0.553723 0.820849 0.535976
0.835083 0.879797 0.647914
0.913622 0.902187 0.731044
0.927742 0.908725 0.743207
0.087479 0.786546 0.327855
0.168501 0.824642 0.448510
0.597048 0.882882 0.669634
0.860008 0.913192 0.743390
0.928071 0.920969 0.772500
0.930755 0.921487 0.775940
0.027862 0.018175 0.042463
0.102090 0.021309 0.051309
0.332462 0.031054 0.075715
0.564049 0.043382 0.072544
0.752177 0.056196 0.076542
0.820850 0.063265 0.081135
0.026008 0.064181 0.096775
0.101570 0.094620 0.094773
0.395537 0.095642 0.065052
0.599419 0.103823 0.062802
0.754311 0.124148 0.073993
0.818376 0.127992 0.081189
0.018182 0.267113 0.188934
0.062689 0.369878 0.126738
0.403752 0.416781 0.166049
0.633826 0.394812 0.122481
0.773850 0.373477 0.112654
0.840319 0.378716 0.128980
0.032205 0.498095 0.259989
0.055195 0.570309 0.210782
0.428871 0.663366 0.281092
0.736434 0.725212 0.409982
0.858353 0.711581 0.317549
0.895808 0.744270 0.378643
0.074369 0.719563 0.348122
0.099784 0.751665 0.343144
0.509672 0.830657 0.572223
0.835371 0.887349 0.663040
0.918258 0.907131 0.723008
0.927397 0.911094 0.730424
0.157064 0.828259 0.479933
0.194054 0.845776 0.503204
0.568136 0.880809 0.654556
0.862337 0.912259 0.725663
0.927332 0.918159 0.747756
0.929196 0.918662 0.752066
0.027311 0.018373 0.122925
0.091977 0.018189 0.153597
0.305351 0.026430 0.172447
0.560807 0.039470 0.167707
0.763781 0.051397 0.152894
0.838692 0.058379 0.142286
0.020715 0.059848 0.253204
0.055328 0.053809 0.283128
0.390915 0.061450 0.247518
0.614924 0.061863 0.175865
0.782873 0.073974 0.138297
0.849707 0.085397 0.139951
0.015124 0.239812 0.329166
0.046791 0.319346 0.376794
0.371615 0.377624 0.378692
0.657813 0.293914 0.265774
0.818183 0.232368 0.166052
0.884977 0.359940 0.248937
0.037446 0.520054 0.388184
0.077512 0.596000 0.393004
0.414776 0.667459 0.420126
0.702104 0.695607 0.466990
0.864563 0.677674 0.362113
0.906132 0.738900 0.475775
0.130664 0.765229 0.517529
0.196089 0.795547 0.549663
0.531769 0.854255 0.662604
0.843842 0.898399 0.724192
0.921493 0.910527 0.749332
0.929759 0.916474 0.761015
0.258519 0.856819 0.626230
0.289106 0.859951 0.633779
0.616719 0.888450 0.716924
0.884255 0.917305 0.762057
0.929948 0.920758 0.770424
0.930537 0.921086 0.772130
0.026932 0.021376 0.251186
0.078088 0.020269 0.291506
0.298692 0.024682 0.281358
0.577938 0.038319 0.279337
0.776266 0.051025 0.244304
0.850903 0.058330 0.213546
0.021240 0.049922 0.426669
0.038667 0.041858 0.494897
0.346994 0.049963 0.437208
0.638443 0.062733 0.347681
0.793670 0.074664 0.240798
0.862895 0.090205 0.248105
0.015465 0.204350 0.493544
0.030437 0.202992 0.582088
0.222247 0.221837 0.582183
0.645778 0.266235 0.556962
0.832969 0.234292 0.433181
0.885535 0.362888 0.543036
0.032047 0.502357 0.525282
0.072905 0.575661 0.599253
0.324647 0.614298 0.626963
0.664169 0.665298 0.662339
0.859132 0.576228 0.531974
0.918165 0.709141 0.683788
0.166828 0.801101 0.662333
0.249024 0.822131 0.707124
0.585247 0.867470 0.772809
0.804915 0.875942 0.758599
0.887848 0.875177 0.750043
0.929481 0.883279 0.781702
0.254424 0.859116 0.725694
0.308819 0.862733 0.753284
0.658383 0.896643 0.827232
0.876919 0.924701 0.838383
0.921275 0.927132 0.841881
0.936546 0.932576 0.867001
0.026573 0.024440 0.431633
0.065395 0.024038 0.480393
0.307427 0.026911 0.434173
0.590746 0.039203 0.399460
0.791198 0.053840 0.370757
0.859364 0.060810 0.315830
0.023066 0.046691 0.619964
0.033750 0.041359 0.693294
0.262809 0.043047 0.623364
0.654023 0.066747 0.542638
0.800457 0.084045 0.440247
0.862254 0.102987 0.437164
0.016994 0.169834 0.635145
0.028244 0.150789 0.726618
0.110167 0.101357 0.804101
0.581065 0.167584 0.745314
0.839110 0.382785 0.769751
0.873727 0.468701 0.806501
0.028025 0.454233 0.691922
0.046379 0.430645 0.768369
0.152800 0.314912 0.827649
0.525128 0.387819 0.819938
0.854977 0.661663 0.835830
0.918291 0.796692 0.881342
0.123590 0.787089 0.779848
0.176362 0.806027 0.810685
0.440442 0.828523 0.840323
0.676893 0.833673 0.837924
0.855441 0.851809 0.846493
0.933907 0.853022 0.853116
0.154773 0.835744 0.827086
0.201140 0.842171 0.841454
0.618326 0.892317 0.882171
0.852411 0.924338 0.879029
0.899668 0.927328 0.861190
0.936430 0.932349 0.873763
0.026565 0.026056 0.528246
0.058078 0.026114 0.585272
0.303264 0.028308 0.526891
0.602579 0.041332 0.479851
0.795675 0.056219 0.462041
0.856445 0.062498 0.409883
0.023977 0.045957 0.720721
0.032767 0.042099 0.787721
0.224918 0.042005 0.724185
0.647451 0.067480 0.637209
0.806209 0.095605 0.590448
0.858819 0.118442 0.585390
0.018848 0.151972 0.733601
0.028604 0.129980 0.813516
0.095356 0.085520 0.904977
0.567015 0.184807 0.830061
0.850937 0.465877 0.844632
0.874898 0.520416 0.853471
0.032648 0.450328 0.756484
0.042064 0.368929 0.843183
0.249544 0.381606 0.873907
0.725947 0.614564 0.884952
0.885645 0.769942 0.900623
0.922567 0.834555 0.910889
0.094271 0.748538 0.844052
0.135816 0.757596 0.853159
0.413562 0.774859 0.868694
0.703595 0.817569 0.898268
0.867659 0.850131 0.914979
0.929021 0.872813 0.918488
0.141651 0.828349 0.845766
0.200351 0.839850 0.850595
0.606905 0.890282 0.889079
0.804151 0.917344 0.910672
0.877097 0.927331 0.918706
0.942597 0.939141 0.932746
