luts/2.cube
LUT_3D_SIZE 16
0.021145 0.020865 0.020767
0.025381 0.021445 0.020936
0.054270 0.023858 0.020252
0.121181 0.027499 0.020896
0.193308 0.035179 0.023957
0.262951 0.049838 0.026340
0.329440 0.058564 0.028143
0.390606 0.065498 0.029561
0.449513 0.073624 0.031316
0.510942 0.081636 0.033998
0.570786 0.089810 0.037468
0.627273 0.099642 0.041552
0.681878 0.114202 0.045969
0.727485 0.127342 0.049765
0.748447 0.133091 0.051663
0.753677 0.134594 0.052184
0.022555 0.022779 0.021525
0.027093 0.024182 0.021537
0.060636 0.029689 0.020531
0.132550 0.043167 0.020064
0.202677 0.058327 0.023177
0.271675 0.066500 0.026383
0.336200 0.075133 0.028480
0.395926 0.082097 0.030332
0.457087 0.088583 0.032598
0.518995 0.095992 0.035621
0.576533 0.106651 0.039502
0.630399 0.120352 0.043570
0.682076 0.135358 0.047628
0.726271 0.148230 0.051320
0.748217 0.153971 0.053361
0.754321 0.155608 0.054015
0.027820 0.038662 0.026566
0.033236 0.046066 0.027759
0.066107 0.056463 0.025233
0.146954 0.085778 0.025595
0.227889 0.102932 0.027311
0.299789 0.111457 0.030466
0.364393 0.119900 0.033373
0.424372 0.126660 0.035362
0.483508 0.134214 0.037729
0.541435 0.144764 0.040956
0.596545 0.160207 0.045111
0.648583 0.180694 0.050262
0.696904 0.198149 0.055297
0.738177 0.210852 0.059603
0.759335 0.215973 0.061880
0.765543 0.216751 0.062449
0.029591 0.080390 0.047890
0.033500 0.095870 0.051558
0.072024 0.121702 0.046194
0.143819 0.143805 0.039902
0.237909 0.167966 0.037948
0.315800 0.177529 0.039328
0.386117 0.187379 0.041418
0.450494 0.197073 0.043390
0.513500 0.207588 0.046647
0.570598 0.219129 0.050669
0.622672 0.232986 0.055452
0.672354 0.253345 0.061848
0.718292 0.273634 0.068639
0.756198 0.287419 0.073774
0.776105 0.291272 0.076049
0.782458 0.290468 0.076444
0.026301 0.133931 0.074890
0.028878 0.155001 0.077602
0.058753 0.200651 0.064270
0.141663 0.235858 0.056885
0.230978 0.249702 0.057609
0.324978 0.264179 0.056910
0.402429 0.270000 0.056630
0.472392 0.277091 0.059111
0.536051 0.286774 0.061562
0.596916 0.301792 0.065715
0.649126 0.317864 0.071089
0.695742 0.332362 0.076924
0.736532 0.344974 0.082903
0.770302 0.351776 0.087508
0.788434 0.351517 0.089250
0.793211 0.346570 0.088857
0.023544 0.199057 0.095711
0.026058 0.222057 0.094669
0.053597 0.286249 0.071138
0.134350 0.331159 0.060785
0.239623 0.352146 0.067397
0.324560 0.351419 0.085796
0.410606 0.356067 0.085205
0.485251 0.360023 0.083586
0.552712 0.365505 0.083573
0.612280 0.374107 0.084222
0.663628 0.383554 0.085945
0.709532 0.396866 0.091217
0.750149 0.407328 0.096693
0.781904 0.408192 0.100296
0.799591 0.403240 0.101434
0.804418 0.396761 0.100738
0.022053 0.271243 0.110531
0.025083 0.290917 0.105880
0.046930 0.355264 0.083941
0.114905 0.404169 0.075015
0.233754 0.431982 0.078411
0.332030 0.436300 0.101374
0.414654 0.435168 0.125822
0.489944 0.435015 0.121096
0.559432 0.439272 0.115705
0.623600 0.444435 0.108661
0.675125 0.446821 0.105092
0.720495 0.450554 0.105383
0.760776 0.455523 0.109027
0.793369 0.454938 0.112701
0.811590 0.450175 0.114785
0.817412 0.444738 0.114328
0.022308 0.337763 0.128929
0.025102 0.355100 0.123534
0.041016 0.414308 0.105702
0.090743 0.461881 0.095998
0.199924 0.491327 0.101545
0.333163 0.508666 0.110614
0.423114 0.509560 0.150759
0.503307 0.516795 0.174750
0.572916 0.519184 0.165447
0.637074 0.523121 0.153262
0.693423 0.521876 0.141000
0.737409 0.515182 0.130820
0.776763 0.512124 0.129480
0.809437 0.513309 0.134310
0.831375 0.520257 0.142666
0.838401 0.520838 0.145025
0.024353 0.405708 0.147630
0.026546 0.419159 0.143669
0.038200 0.471500 0.127845
0.076635 0.516109 0.122090
0.169048 0.545641 0.131518
0.313868 0.565072 0.138085
0.441740 0.586220 0.162564
0.531075 0.597664 0.217868
0.606915 0.611871 0.249123
0.670270 0.615026 0.231622
0.722253 0.610883 0.209532
0.768271 0.603358 0.191202
0.806355 0.601145 0.185487
0.837832 0.608993 0.194991
0.858344 0.624660 0.212695
0.865431 0.625967 0.215971
0.028315 0.476938 0.166538
0.030094 0.486701 0.163575
0.039399 0.529011 0.152596
0.069684 0.568186 0.150777
0.150416 0.599140 0.174477
0.296830 0.622550 0.195602
0.465282 0.652888 0.211953
0.583111 0.678006 0.258111
0.661675 0.697538 0.326204
0.725328 0.713642 0.363422
0.772022 0.710510 0.332973
0.809973 0.706952 0.311686
0.843154 0.709670 0.301743
0.868960 0.724856 0.322287
0.884654 0.740445 0.350822
0.889159 0.740921 0.353824
0.033440 0.540858 0.186404
0.034926 0.549304 0.183936
0.043237 0.585484 0.176483
0.070646 0.620287 0.182503
0.151882 0.649217 0.236603
0.298668 0.678008 0.277726
0.494011 0.715077 0.298520
0.633814 0.744634 0.343270
0.719937 0.769149 0.400168
0.777770 0.787779 0.462722
0.823073 0.802693 0.500420
0.853380 0.802926 0.482226
0.876349 0.810177 0.479608
0.893964 0.819336 0.499588
0.904604 0.830375 0.525452
0.908125 0.830119 0.525465
0.040169 0.602576 0.208754
0.041627 0.610561 0.206796
0.050731 0.645119 0.202529
0.079999 0.675560 0.223865
0.168278 0.701011 0.303754
0.335327 0.733474 0.380068
0.530692 0.773275 0.418373
0.671393 0.804147 0.457854
0.759551 0.825274 0.498393
0.815948 0.843683 0.552812
0.855574 0.856230 0.602711
0.882466 0.867045 0.638410
0.899967 0.872564 0.641074
0.912677 0.878144 0.652768
0.918821 0.882879 0.667745
0.920680 0.881564 0.665238
0.050896 0.670949 0.236326
0.052596 0.678040 0.236112
0.063516 0.706298 0.242683
0.096581 0.731224 0.279359
0.187818 0.751494 0.368800
0.370618 0.783786 0.473272
0.553723 0.820849 0.535976
0.683085 0.848632 0.578209
0.772647 0.866325 0.611744
0.835083 0.879797 0.647914
0.872707 0.889510 0.686226
0.897192 0.896806 0.714191
0.913622 0.902187 0.731044
0.923948 0.905665 0.735757
0.927457 0.908772 0.743165
0.927742 0.908725 0.743207
0.065249 0.735267 0.272772
0.067913 0.741282 0.276657
0.083960 0.762372 0.300538
0.123189 0.780730 0.353623
0.210572 0.797863 0.438082
0.389022 0.825731 0.542972
0.572879 0.855728 0.619072
0.696016 0.876112 0.660175
0.785593 0.891321 0.692870
0.848790 0.902493 0.717125
0.884970 0.910210 0.738508
0.908269 0.914285 0.752566
0.922128 0.916462 0.762333
0.928186 0.917779 0.767318
0.930172 0.918837 0.769757
0.930371 0.919099 0.770657
0.079491 0.774163 0.308767
0.083509 0.779487 0.316508
0.107972 0.796903 0.357172
0.153514 0.812492 0.420339
0.239681 0.829615 0.496334
0.413077 0.853410 0.590491
0.591879 0.875014 0.657456
0.712137 0.890604 0.695075
0.799447 0.903402 0.718921
0.860153 0.911108 0.738085
0.892291 0.916346 0.752389
0.914466 0.919368 0.763644
0.926658 0.920770 0.771831
0.930111 0.921203 0.774726
0.930681 0.921403 0.775639
0.930753 0.921341 0.775648
0.087479 0.786546 0.327855
0.092182 0.792195 0.336738
0.120793 0.809159 0.381813
0.168501 0.824642 0.448510
0.255999 0.842378 0.519884
0.427800 0.864601 0.608457
0.597048 0.882882 0.669634
0.714258 0.896698 0.705108
0.800940 0.907599 0.727701
0.860008 0.913192 0.743390
0.892881 0.917038 0.753852
0.915382 0.919370 0.764365
0.928071 0.920969 0.772500
0.930625 0.921495 0.775497
0.930754 0.921487 0.775940
0.930755 0.921487 0.775940
0.021560 0.020780 0.021106
0.025061 0.021216 0.021572
0.053483 0.023066 0.022032
0.121615 0.025084 0.023931
0.196747 0.028087 0.028614
0.277951 0.034063 0.031554
0.354674 0.040916 0.033825
0.423928 0.045825 0.035868
0.487984 0.051904 0.038036
0.549301 0.059249 0.040620
0.606452 0.067856 0.043684
0.660381 0.079321 0.047041
0.712504 0.092715 0.051059
0.755455 0.100814 0.054728
0.775808 0.104553 0.056633
0.780856 0.105809 0.057118
0.022526 0.022692 0.022525
0.024981 0.023617 0.022976
0.056649 0.025782 0.021533
0.125876 0.032846 0.021692
0.199269 0.040599 0.025147
0.273376 0.050706 0.028222
0.343317 0.058244 0.030560
0.406791 0.064218 0.032418
0.466964 0.071194 0.034446
0.527856 0.080039 0.037121
0.586097 0.090794 0.040590
0.640632 0.101259 0.044512
0.693009 0.113469 0.048740
0.737744 0.124982 0.052486
0.759279 0.130639 0.054554
0.764735 0.132116 0.055094
0.027251 0.038128 0.029519
0.029027 0.041839 0.029456
0.060681 0.051245 0.029255
0.143712 0.075993 0.026665
0.225567 0.092032 0.028076
0.297708 0.098969 0.031356
0.363187 0.106318 0.033948
0.423846 0.113033 0.035721
0.484028 0.120737 0.038028
0.543258 0.130720 0.041255
0.598102 0.144046 0.045265
0.649430 0.161595 0.050070
0.698079 0.177191 0.054881
0.740119 0.189017 0.059045
0.762083 0.194009 0.061323
0.768278 0.194843 0.061878
0.028882 0.076277 0.056048
0.030479 0.084756 0.054224
0.062045 0.114681 0.050895
0.141433 0.139369 0.043115
0.236555 0.160809 0.040225
0.315516 0.168222 0.040225
0.385568 0.176150 0.041718
0.449269 0.184571 0.043449
0.512005 0.194028 0.046428
0.569409 0.204720 0.050214
0.622189 0.218425 0.055034
0.672487 0.238475 0.061283
0.718272 0.256866 0.067605
0.756435 0.268510 0.072466
0.776762 0.271487 0.074654
0.783052 0.270355 0.075025
0.025908 0.130417 0.084276
0.026768 0.140814 0.080793
0.051401 0.191331 0.071179
0.133251 0.230115 0.061001
0.228767 0.245648 0.061782
0.324180 0.257557 0.058809
0.401620 0.261511 0.057401
0.471757 0.267519 0.059095
0.535244 0.276303 0.061047
0.596020 0.289883 0.065217
0.647833 0.304090 0.070282
0.695221 0.318601 0.076051
0.736354 0.331036 0.081931
0.770692 0.337518 0.086509
0.788901 0.336328 0.088049
0.793837 0.331109 0.087618
0.022710 0.196332 0.109011
0.024012 0.206832 0.100423
0.046189 0.274690 0.078420
0.123531 0.325698 0.064685
0.235544 0.349707 0.069980
0.322986 0.348529 0.087809
0.409940 0.351617 0.086748
0.485033 0.354215 0.084264
0.552909 0.358574 0.083919
0.612238 0.366317 0.084298
0.663676 0.375065 0.085899
0.709892 0.388573 0.090921
0.750957 0.399066 0.096439
0.782522 0.399340 0.099984
0.800474 0.393702 0.100974
0.805142 0.387051 0.100294
0.021466 0.271643 0.122216
0.022901 0.279131 0.112751
0.041073 0.345729 0.089838
0.104458 0.400856 0.076874
0.227457 0.431223 0.079464
0.330435 0.435974 0.101950
0.414066 0.433703 0.128747
0.490055 0.432437 0.123294
0.560182 0.436124 0.117112
0.624676 0.440534 0.109287
0.675950 0.442373 0.105610
0.721207 0.445270 0.105363
0.761700 0.449793 0.109060
0.794241 0.448913 0.112718
0.812728 0.443954 0.114883
0.818338 0.438187 0.114319
0.021948 0.339526 0.140803
0.023139 0.345082 0.131125
0.037063 0.405810 0.111987
0.082743 0.458394 0.098497
0.190721 0.490605 0.104123
0.329504 0.508609 0.112517
0.422353 0.509427 0.152598
0.503609 0.515985 0.178291
0.573208 0.517513 0.167367
0.637713 0.520769 0.154113
0.693974 0.519031 0.141357
0.737956 0.511653 0.130768
0.777407 0.508105 0.129197
0.810581 0.510202 0.134719
0.832623 0.517711 0.143311
0.839900 0.518109 0.145729
0.024370 0.408413 0.159754
0.025195 0.411871 0.151402
0.035691 0.464154 0.134891
0.070664 0.512584 0.124546
0.160002 0.545113 0.133718
0.307205 0.564870 0.141526
0.439969 0.586413 0.164749
0.530766 0.597613 0.219912
0.607189 0.611603 0.251662
0.670537 0.614197 0.232671
0.722341 0.609358 0.209606
0.768679 0.601553 0.190575
0.806775 0.598930 0.184680
0.838374 0.606921 0.194294
0.858884 0.622758 0.212270
0.866046 0.624073 0.215629
0.028710 0.480528 0.180154
0.029145 0.482123 0.170724
0.037754 0.523782 0.158455
0.065284 0.565832 0.152154
0.143782 0.598498 0.176417
0.288828 0.622417 0.199353
0.462193 0.653019 0.214062
0.582156 0.678255 0.259395
0.661529 0.697949 0.327151
0.725381 0.713666 0.364712
0.772034 0.710169 0.332997
0.810215 0.706095 0.310628
0.843455 0.708486 0.300007
0.868962 0.723473 0.320566
0.884569 0.738993 0.348812
0.889198 0.739341 0.351769
0.034266 0.545646 0.198677
0.034359 0.546024 0.190334
0.042077 0.581793 0.181677
0.067213 0.618722 0.183149
0.145522 0.648674 0.235492
0.291278 0.677689 0.279400
0.488538 0.714909 0.301172
0.631882 0.744919 0.344295
0.719136 0.769340 0.400427
0.777671 0.788125 0.462830
0.823163 0.803039 0.500704
0.853514 0.802777 0.481520
0.876502 0.809846 0.478194
0.893878 0.818850 0.497848
0.904624 0.829859 0.523774
0.907870 0.829587 0.523491
0.041572 0.607888 0.220948
0.041446 0.607874 0.212761
0.049630 0.641322 0.207294
0.076408 0.674468 0.222930
0.161233 0.700316 0.300003
0.327027 0.732568 0.379508
0.524868 0.772775 0.419655
0.668339 0.804232 0.458427
0.758341 0.825520 0.498327
0.815431 0.843955 0.552364
0.855411 0.856222 0.602273
0.882805 0.867341 0.637814
0.900033 0.872628 0.640346
0.912744 0.878352 0.652266
0.918959 0.882917 0.667084
0.920541 0.881676 0.664543
0.053109 0.676591 0.248408
0.052457 0.675939 0.240883
0.062102 0.703655 0.245103
0.093301 0.730451 0.277867
0.180904 0.751248 0.364363
0.361359 0.782995 0.470075
0.547610 0.820306 0.535125
0.679855 0.848276 0.577841
0.771003 0.866382 0.611334
0.834406 0.879774 0.646922
0.872412 0.889339 0.685330
0.897297 0.896831 0.713305
0.913617 0.902187 0.730058
0.923886 0.905750 0.735146
0.927343 0.908815 0.742588
0.927706 0.908880 0.742724
0.068456 0.740471 0.285098
0.067769 0.739475 0.279558
0.082406 0.760860 0.300543
0.120457 0.780309 0.351541
0.204603 0.797461 0.433671
0.380207 0.824712 0.538320
0.566997 0.854870 0.616499
0.693038 0.875741 0.658759
0.784054 0.891246 0.691689
0.848134 0.902405 0.716054
0.884737 0.910032 0.737551
0.908080 0.914133 0.751898
0.921989 0.916433 0.761700
0.928250 0.917810 0.766645
0.930149 0.918811 0.769346
0.930300 0.919132 0.770278
0.083899 0.778607 0.322548
0.082903 0.778102 0.317142
0.105703 0.795813 0.354823
0.150562 0.812523 0.417718
0.233809 0.829144 0.492121
0.404924 0.852369 0.586092
0.586320 0.874125 0.654693
0.709364 0.890134 0.693561
0.798115 0.902973 0.717770
0.859589 0.910897 0.737062
0.892152 0.916255 0.751825
0.914388 0.919325 0.763045
0.926701 0.920656 0.771371
0.930098 0.921207 0.774402
0.930681 0.921407 0.775405
0.930752 0.921343 0.775425
0.092571 0.791060 0.341596
0.091094 0.790607 0.336355
0.117825 0.808112 0.378651
0.165356 0.824585 0.445463
0.249801 0.841901 0.516076
0.419808 0.863798 0.604400
0.591818 0.882256 0.667147
0.711309 0.896245 0.703539
0.799486 0.907218 0.726601
0.859480 0.913190 0.742756
0.892757 0.916914 0.753477
0.915283 0.919453 0.763938
0.927975 0.920972 0.772166
0.930620 0.921420 0.775404
0.930754 0.921484 0.775599
0.930755 0.921485 0.775590
0.024147 0.020534 0.023697
0.029559 0.021118 0.024725
0.049700 0.021808 0.027307
0.110741 0.022953 0.036775
0.178867 0.025438 0.046191
0.258704 0.029361 0.050935
0.346239 0.033289 0.052754
0.426388 0.037405 0.052441
0.495427 0.042133 0.052833
0.563628 0.047203 0.053417
0.628069 0.052255 0.055431
0.686697 0.057843 0.057813
0.740504 0.064297 0.061159
0.783950 0.069411 0.064747
0.805632 0.071911 0.066639
0.809602 0.073132 0.066920
0.025617 0.023496 0.028407
0.026930 0.022693 0.029264
0.050610 0.023772 0.030980
0.116676 0.026374 0.036587
0.193056 0.029708 0.042745
0.274887 0.033124 0.047686
0.357173 0.037302 0.048957
0.433505 0.041329 0.048936
0.502524 0.045767 0.049659
0.568518 0.051525 0.050893
0.629625 0.058026 0.053365
0.685899 0.064605 0.056333
0.738606 0.071768 0.060026
0.781054 0.077243 0.063660
0.802277 0.080021 0.065639
0.806515 0.081247 0.065975
0.026815 0.035214 0.039240
0.028359 0.037637 0.041753
0.048410 0.042235 0.039643
0.132212 0.049208 0.032144
0.215956 0.056402 0.033316
0.295850 0.059710 0.036608
0.371398 0.064972 0.038749
0.439012 0.070006 0.040898
0.503827 0.075640 0.042994
0.565508 0.083455 0.045891
0.622824 0.095666 0.049569
0.675116 0.107921 0.053652
0.723129 0.116975 0.057955
0.763898 0.123438 0.061814
0.785098 0.127503 0.063995
0.791077 0.128936 0.064639
0.028283 0.070530 0.069728
0.029202 0.076924 0.072559
0.040779 0.095189 0.069784
0.126373 0.121495 0.059125
0.231050 0.136277 0.047680
0.314711 0.138757 0.046003
0.385369 0.141377 0.046437
0.450166 0.146926 0.046871
0.512989 0.153272 0.048109
0.572785 0.162573 0.051236
0.627099 0.173175 0.055602
0.677191 0.186897 0.060847
0.723157 0.199453 0.066194
0.762047 0.205891 0.070363
0.783401 0.206668 0.072495
0.789755 0.205409 0.072933
0.023876 0.120293 0.112363
0.024767 0.129863 0.110932
0.034035 0.162218 0.095524
0.105532 0.210511 0.078070
0.221094 0.231798 0.079146
0.322080 0.236438 0.069953
0.400846 0.234869 0.063919
0.470456 0.236513 0.061828
0.533342 0.241114 0.061796
0.593741 0.249889 0.064497
0.645351 0.257657 0.068215
0.694124 0.269695 0.073692
0.737437 0.280096 0.079209
0.772822 0.283362 0.083472
0.792629 0.281309 0.085040
0.797821 0.275887 0.084646
0.021182 0.191938 0.135489
0.022106 0.200735 0.132742
0.030452 0.238016 0.111347
0.092618 0.304603 0.081516
0.217225 0.337850 0.084699
0.317128 0.337786 0.101170
0.407893 0.335750 0.094534
0.483863 0.332412 0.088100
0.552962 0.333249 0.086292
0.611816 0.336341 0.084696
0.663977 0.341757 0.085786
0.710623 0.350598 0.089792
0.753306 0.359093 0.094876
0.786320 0.359134 0.098744
0.804967 0.353900 0.100245
0.810094 0.346331 0.099344
0.019863 0.270467 0.153536
0.021272 0.278449 0.147354
0.029510 0.315446 0.117919
0.080034 0.387619 0.087458
0.202070 0.427075 0.088147
0.323827 0.434860 0.107969
0.411267 0.428489 0.139566
0.490420 0.423460 0.132612
0.562439 0.423248 0.122750
0.628475 0.424646 0.113823
0.679949 0.424196 0.109102
0.725315 0.424047 0.106898
0.765833 0.426079 0.110146
0.799126 0.423942 0.114097
0.818613 0.420128 0.117227
0.824669 0.415324 0.117250
0.021301 0.343449 0.172216
0.022560 0.350097 0.165907
0.029475 0.382898 0.137892
0.065427 0.448337 0.110491
0.165194 0.488640 0.112765
0.314903 0.509183 0.121221
0.420945 0.510721 0.160427
0.504647 0.514146 0.194266
0.575806 0.513159 0.179102
0.641980 0.513188 0.161109
0.698814 0.508442 0.144428
0.743326 0.499654 0.133630
0.782839 0.494850 0.131892
0.817057 0.499216 0.139938
0.839810 0.508559 0.150266
0.847102 0.508729 0.152676
0.024609 0.415421 0.195022
0.025528 0.419948 0.189060
0.030789 0.446046 0.163746
0.057365 0.504023 0.139151
0.136549 0.543490 0.143360
0.281711 0.565934 0.160491
0.433877 0.588838 0.179287
0.532356 0.599075 0.233117
0.610281 0.612711 0.267709
0.674055 0.612782 0.243360
0.726934 0.604967 0.214617
0.773002 0.595740 0.191877
0.811240 0.593583 0.187501
0.843445 0.603307 0.199179
0.863907 0.620908 0.219789
0.871043 0.622661 0.224431
0.029818 0.489240 0.216930
0.030433 0.492199 0.211075
0.034720 0.512000 0.188647
0.056057 0.561614 0.167319
0.125963 0.598291 0.187519
0.265508 0.625047 0.219185
0.451177 0.656375 0.233029
0.582465 0.682580 0.273971
0.664475 0.701733 0.337517
0.728576 0.717181 0.377305
0.775413 0.711762 0.340939
0.813689 0.705372 0.313676
0.847069 0.707611 0.301649
0.871515 0.722942 0.323661
0.886222 0.737899 0.350586
0.890848 0.738090 0.353622
0.037712 0.561805 0.241892
0.037962 0.563121 0.235105
0.040753 0.576009 0.211087
0.059886 0.618582 0.196190
0.127731 0.650949 0.238984
0.273622 0.681123 0.297819
0.473056 0.718707 0.324146
0.628861 0.750258 0.359502
0.720055 0.773192 0.409696
0.780259 0.792230 0.470788
0.826070 0.806866 0.509203
0.855915 0.804982 0.484889
0.878841 0.810988 0.480112
0.895683 0.820255 0.498959
0.904887 0.830930 0.523921
0.908064 0.830734 0.523262
0.048054 0.629313 0.266166
0.047807 0.629356 0.258851
0.048896 0.637663 0.235553
0.069413 0.676127 0.233992
0.141580 0.703961 0.297042
0.303130 0.734538 0.388060
0.507744 0.775475 0.437740
0.659467 0.808208 0.472989
0.756100 0.829161 0.507637
0.815873 0.846981 0.557927
0.857219 0.859259 0.605921
0.885114 0.870346 0.640148
0.901359 0.874715 0.640680
0.913736 0.880011 0.651974
0.919194 0.884635 0.666477
0.920651 0.883535 0.664400
0.061812 0.697493 0.294107
0.061400 0.697258 0.287810
0.062977 0.702809 0.269678
0.087618 0.733487 0.288117
0.161961 0.755661 0.360583
0.332687 0.785100 0.468558
0.529386 0.821830 0.543224
0.669760 0.850649 0.586323
0.767305 0.869069 0.616239
0.833962 0.881351 0.647283
0.873500 0.890637 0.683527
0.898626 0.897898 0.710255
0.914585 0.903191 0.726310
0.923751 0.906728 0.731827
0.927162 0.909623 0.738745
0.927582 0.909928 0.739389
0.084113 0.761065 0.340613
0.083502 0.760104 0.334887
0.085651 0.762075 0.322386
0.118138 0.785108 0.360789
0.191515 0.801693 0.431034
0.355578 0.825907 0.531419
0.550788 0.855207 0.613489
0.684667 0.876747 0.658339
0.780713 0.892468 0.689634
0.847864 0.902970 0.712125
0.885563 0.909501 0.731695
0.908631 0.913486 0.745170
0.922569 0.915750 0.754921
0.927780 0.917125 0.760066
0.929836 0.918342 0.763480
0.930070 0.918960 0.764673
0.109199 0.798130 0.388461
0.107722 0.797289 0.382212
0.108628 0.798796 0.371693
0.150638 0.818406 0.425197
0.222973 0.832675 0.489387
0.383477 0.851696 0.575993
0.571408 0.872837 0.646404
0.701908 0.889355 0.687010
0.795417 0.902516 0.711568
0.859562 0.910575 0.731541
0.893324 0.915795 0.746675
0.914876 0.918565 0.757176
0.926397 0.920055 0.764836
0.929689 0.920557 0.768640
0.930387 0.920655 0.770086
0.930424 0.920796 0.770086
0.120910 0.810166 0.409675
0.119167 0.809073 0.403184
0.119316 0.811197 0.393687
0.166150 0.830362 0.452324
0.238380 0.845216 0.514296
0.398413 0.862896 0.594421
0.577862 0.880972 0.658776
0.704064 0.895027 0.696231
0.796788 0.906438 0.719490
0.859559 0.912667 0.736326
0.893884 0.916494 0.748372
0.915761 0.918965 0.758297
0.927695 0.920084 0.766006
0.930166 0.920740 0.769789
0.930477 0.920907 0.770672
0.930546 0.920974 0.770762
0.027862 0.018175 0.042463
0.034024 0.018469 0.045719
0.061895 0.020074 0.047564
0.102090 0.021309 0.051309
0.166385 0.023610 0.066760
0.244036 0.027117 0.074524
0.332462 0.031054 0.075715
0.416795 0.035112 0.075043
0.492229 0.039118 0.073309
0.564049 0.043382 0.072544
0.632390 0.047605 0.072220
0.695731 0.051863 0.073939
0.752177 0.056196 0.076542
0.795692 0.060247 0.079312
0.816483 0.062501 0.081054
0.820850 0.063265 0.081135
0.028152 0.022394 0.052794
0.029710 0.019810 0.051271
0.059921 0.021254 0.053386
0.103825 0.022951 0.057752
0.175297 0.026274 0.068465
0.257751 0.029793 0.073063
0.343582 0.033441 0.073696
0.425572 0.037277 0.072644
0.500492 0.041199 0.070727
0.570846 0.045722 0.070306
0.636592 0.050175 0.070432
0.698038 0.054611 0.072616
0.753113 0.059178 0.075398
0.795680 0.063479 0.078235
0.816632 0.065907 0.079978
0.821031 0.066745 0.080146
0.027521 0.042043 0.072917
0.028934 0.042083 0.075712
0.044704 0.035646 0.073338
0.109786 0.038634 0.071035
0.199470 0.041945 0.067734
0.289757 0.042843 0.069932
0.372926 0.046024 0.068846
0.448588 0.049367 0.065934
0.521116 0.052835 0.064678
0.589971 0.057110 0.064669
0.650038 0.062664 0.065951
0.705498 0.068078 0.068216
0.756022 0.072974 0.071751
0.795860 0.076962 0.075244
0.815787 0.079447 0.077289
0.820821 0.080444 0.077678
0.026008 0.064181 0.096775
0.026892 0.069367 0.101180
0.037577 0.081748 0.108880
0.101570 0.094620 0.094773
0.216558 0.098941 0.074095
0.313053 0.096148 0.068289
0.395537 0.095642 0.065052
0.468479 0.098450 0.063563
0.536505 0.099839 0.062309
0.599419 0.103823 0.062802
0.655806 0.111032 0.065744
0.707628 0.119009 0.069592
0.754311 0.124148 0.073993
0.791774 0.127496 0.078129
0.812207 0.128601 0.080480
0.818376 0.127992 0.081189
0.022292 0.111549 0.136540
0.022808 0.119195 0.140904
0.030607 0.145026 0.145986
0.074499 0.180696 0.127728
0.200017 0.204926 0.121192
0.315652 0.202989 0.100692
0.405207 0.195327 0.087394
0.476982 0.189900 0.079263
0.541752 0.188892 0.073516
0.601903 0.189808 0.070514
0.655394 0.192195 0.072164
0.704450 0.195583 0.076028
0.749768 0.198865 0.080599
0.787589 0.199335 0.084710
0.809044 0.198545 0.087046
0.815812 0.195703 0.087440
0.019233 0.182266 0.172795
0.020128 0.190935 0.171663
0.027764 0.225767 0.163315
0.067003 0.277204 0.124239
0.178243 0.310871 0.123955
0.308219 0.318508 0.145314
0.407696 0.310393 0.126087
0.486159 0.299496 0.108562
0.555582 0.292324 0.095687
0.613980 0.287247 0.089377
0.666448 0.283677 0.087120
0.713557 0.280398 0.088316
0.758003 0.280888 0.092785
0.794527 0.279050 0.097414
0.816853 0.280002 0.101408
0.823483 0.276915 0.102082
0.018182 0.267113 0.188934
0.019478 0.275180 0.185762
0.027714 0.311561 0.169344
0.062689 0.369878 0.126738
0.164327 0.411437 0.116880
0.306233 0.425380 0.135795
0.403752 0.416781 0.166049
0.489242 0.407131 0.152360
0.564194 0.399087 0.134308
0.633826 0.394812 0.122481
0.685359 0.385124 0.113863
0.731346 0.376130 0.109676
0.773850 0.373477 0.112654
0.810108 0.374440 0.119473
0.832606 0.378672 0.126826
0.840319 0.378716 0.128980
0.020385 0.344781 0.208951
0.021508 0.351635 0.206108
0.029156 0.387159 0.188133
0.057356 0.446127 0.141018
0.141100 0.489856 0.128234
0.286027 0.510173 0.143223
0.415467 0.514288 0.174856
0.501437 0.510292 0.218077
