luts/3.cube
LUT_3D_SIZE 6
0.019488 0.020163 0.020654
0.072182 0.012506 0.015467
0.186152 0.013139 0.004666
0.322139 0.024155 0.002400
0.463319 0.028768 0.001957
0.536370 0.030119 0.001957
0.013907 0.104373 0.025093
0.104333 0.114325 0.030011
0.380037 0.131557 0.027787
0.614215 0.129676 0.015375
0.761826 0.123586 0.006274
0.834399 0.122476 0.004015
0.019812 0.255807 0.045230
0.140106 0.270755 0.062418
0.413898 0.320868 0.070546
0.740800 0.321747 0.068633
0.905198 0.303396 0.052354
0.974283 0.291059 0.038074
0.053892 0.412308 0.065571
0.137938 0.441556 0.084360
0.454371 0.523495 0.113404
0.776085 0.601895 0.136834
0.920233 0.602885 0.148457
0.980411 0.595953 0.144130
0.149811 0.587362 0.097676
0.273797 0.639794 0.117763
0.549844 0.736012 0.181671
0.797996 0.803214 0.226886
0.924399 0.802536 0.266146
0.974153 0.814391 0.280632
0.349879 0.749137 0.126915
0.508577 0.813244 0.149750
0.641521 0.863238 0.213898
0.811151 0.880819 0.253346
0.923751 0.870710 0.293533
0.972697 0.875613 0.302726
0.012873 0.013471 0.064861
0.105054 0.009568 0.092486
0.244235 0.007987 0.100183
0.398602 0.008275 0.078344
0.507170 0.007635 0.053226
0.538564 0.007804 0.043953
0.006203 0.103148 0.107121
0.092922 0.095802 0.110044
0.341360 0.090205 0.088224
0.565394 0.087367 0.070160
0.737044 0.082304 0.050949
0.804297 0.076620 0.039756
0.007302 0.306600 0.172663
0.070439 0.292683 0.133426
0.377843 0.316295 0.123794
0.717583 0.311376 0.123471
0.886477 0.285288 0.104402
0.967735 0.269899 0.082417
0.029505 0.487300 0.198294
0.086250 0.477681 0.169016
0.411072 0.528866 0.173654
0.765219 0.613905 0.189117
0.922545 0.600624 0.192904
0.979947 0.591048 0.183784
0.126775 0.653672 0.212235
0.247242 0.667282 0.171982
0.537037 0.752127 0.220998
0.803188 0.810716 0.253185
0.928831 0.801556 0.274853
0.976946 0.808591 0.282925
0.416905 0.803063 0.199112
0.535532 0.833587 0.194473
0.645933 0.865466 0.235184
0.826034 0.877420 0.261323
0.927796 0.857728 0.290567
0.975829 0.863603 0.299389
0.009405 0.010151 0.126105
0.090351 0.009817 0.164658
0.199119 0.010341 0.172461
0.387898 0.009831 0.175203
0.565021 0.008261 0.161889
0.622993 0.006722 0.135979
0.002669 0.090440 0.189495
0.065123 0.082982 0.211349
0.319486 0.070177 0.210513
0.555102 0.070304 0.197807
0.769216 0.054922 0.173591
0.871684 0.044562 0.142694
0.006073 0.325342 0.325578
0.055153 0.338731 0.349548
0.304668 0.310791 0.321347
0.625513 0.300345 0.290871
0.836173 0.247992 0.233547
0.937229 0.248287 0.201235
0.020739 0.586627 0.401739
0.069185 0.586966 0.400015
0.317642 0.547060 0.294046
0.690312 0.594370 0.287850
0.905109 0.592279 0.306643
0.967998 0.597911 0.305617
0.120682 0.738102 0.393461
0.208579 0.744064 0.365151
0.476331 0.764751 0.327328
0.789582 0.820584 0.348488
0.925224 0.811467 0.359156
0.973736 0.822054 0.369311
0.381818 0.823823 0.304379
0.424335 0.826622 0.309703
0.550797 0.850055 0.347896
0.831454 0.878467 0.356283
0.925827 0.866489 0.375675
0.971988 0.870855 0.379568
0.004826 0.011012 0.165193
0.063185 0.010900 0.216529
0.161580 0.010712 0.223218
0.297283 0.011510 0.231504
0.450001 0.010454 0.225546
0.570161 0.008837 0.208217
0.001389 0.072531 0.230722
0.043055 0.079760 0.298456
0.239612 0.069969 0.304345
0.509629 0.063654 0.289766
0.718579 0.052008 0.265390
0.865015 0.043439 0.236515
0.005537 0.325896 0.478657
0.044296 0.338012 0.516380
0.199600 0.331542 0.511701
0.515238 0.288369 0.449372
0.785685 0.261924 0.420999
0.905695 0.254739 0.406639
0.022921 0.634095 0.619868
0.075127 0.628659 0.641851
0.239956 0.612279 0.629722
0.595227 0.585448 0.585998
0.823896 0.559250 0.544268
0.912615 0.583601 0.559194
0.112272 0.822711 0.647065
0.155971 0.832517 0.671697
0.314535 0.818208 0.632920
0.631566 0.773155 0.524742
0.872723 0.789151 0.518269
0.948959 0.796473 0.557971
0.196651 0.875092 0.621883
0.209413 0.887105 0.676511
0.358248 0.889897 0.707286
0.709899 0.872046 0.587593
0.880830 0.884255 0.588613
0.935767 0.886286 0.655670
0.003040 0.012226 0.210878
0.050027 0.011952 0.268520
0.146561 0.011512 0.298697
0.232586 0.012233 0.293342
0.373268 0.012610 0.293059
0.576607 0.011255 0.283887
0.001036 0.062575 0.270574
0.033236 0.070763 0.370293
0.184072 0.066829 0.426487
0.383465 0.060043 0.377016
0.631562 0.052765 0.366895
0.847520 0.046614 0.350986
0.002616 0.317881 0.575974
0.036378 0.342629 0.631404
0.155561 0.367494 0.675073
0.391153 0.306018 0.641058
0.639862 0.297072 0.604817
0.773845 0.307664 0.620810
0.017724 0.643465 0.807005
0.058425 0.638409 0.824829
0.225157 0.621843 0.807713
0.516641 0.604669 0.772516
0.711425 0.585027 0.733043
0.860665 0.665902 0.767407
0.109229 0.831827 0.845483
0.157860 0.833586 0.853725
0.322553 0.814900 0.837370
0.524732 0.789211 0.802789
0.802116 0.771418 0.760844
0.908771 0.769354 0.752430
0.145631 0.894430 0.863902
0.186700 0.889340 0.867011
0.414685 0.887755 0.857972
0.605155 0.888242 0.808812
0.797161 0.876323 0.712578
0.930086 0.884370 0.721890
0.002740 0.013066 0.255159
0.047916 0.012492 0.317522
0.139841 0.012113 0.362036
0.225544 0.012525 0.359441
0.331171 0.013562 0.352744
0.549456 0.013028 0.350017
0.000891 0.060498 0.317531
0.030754 0.066724 0.396609
0.164690 0.064552 0.512420
0.361442 0.060469 0.472130
0.525891 0.053354 0.445657
0.779653 0.049393 0.448045
0.001297 0.309781 0.627810
0.032191 0.340613 0.696573
0.129662 0.391949 0.797020
0.334584 0.337715 0.767533
0.611223 0.325034 0.711729
0.706444 0.335306 0.706699
0.016650 0.658707 0.888665
0.053781 0.662145 0.914680
0.272219 0.657016 0.885435
0.627491 0.670499 0.854694
0.770538 0.667446 0.832352
0.864385 0.710274 0.839060
0.117788 0.831378 0.920496
0.166146 0.830711 0.919617
0.362297 0.805038 0.900421
0.589095 0.793524 0.882187
0.807327 0.788126 0.861022
0.883681 0.788729 0.850091
0.142330 0.895640 0.919273
0.190875 0.890611 0.916891
0.428625 0.885758 0.907993
0.598338 0.883105 0.892714
0.768531 0.880908 0.878772
0.911358 0.882431 0.872351
