luts/3.cube
LUT_3D_SIZE 16
0.019488 0.020163 0.020654
0.025050 0.020274 0.020931
0.044350 0.018114 0.020199
0.072182 0.012506 0.015467
0.100715 0.011662 0.009212
0.145389 0.013601 0.005747
0.186152 0.013139 0.004666
0.224911 0.014660 0.003702
0.272625 0.019739 0.003025
0.322139 0.024155 0.002400
0.371210 0.025795 0.002078
0.417347 0.026703 0.001957
0.463319 0.028768 0.001957
0.499148 0.030343 0.001957
0.521510 0.030132 0.001957
0.536370 0.030119 0.001957
0.019152 0.027938 0.021535
0.026306 0.028793 0.022105
0.050121 0.031302 0.021377
0.086538 0.031976 0.014826
0.129705 0.034264 0.007561
0.175121 0.032078 0.006584
0.221792 0.034571 0.004466
0.269145 0.038126 0.003326
0.316134 0.042403 0.002530
0.366991 0.045518 0.001976
0.421633 0.047407 0.002017
0.469530 0.049420 0.001896
0.514857 0.051291 0.001848
0.551331 0.052505 0.001768
0.573605 0.052069 0.001768
0.588509 0.051828 0.001806
0.017456 0.055376 0.023064
0.030358 0.057189 0.022596
0.051500 0.059938 0.022538
0.105014 0.070792 0.020866
0.172858 0.076166 0.018891
0.253013 0.080429 0.013937
0.321042 0.082575 0.011013
0.381841 0.082958 0.009150
0.442252 0.083627 0.006384
0.495890 0.085202 0.005220
0.545246 0.085914 0.003245
0.589219 0.085667 0.002600
0.632630 0.085610 0.002291
0.668747 0.085659 0.002190
0.691795 0.085728 0.002065
0.706473 0.085357 0.002061
0.013907 0.104373 0.025093
0.028937 0.106700 0.026412
0.060790 0.108841 0.029399
0.104333 0.114325 0.030011
0.186835 0.124174 0.033284
0.280608 0.129379 0.032730
0.380037 0.131557 0.027787
0.465525 0.131978 0.022450
0.546234 0.130880 0.018384
0.614215 0.129676 0.015375
0.671288 0.127180 0.012725
0.721496 0.125361 0.009145
0.761826 0.123586 0.006274
0.798731 0.123404 0.004638
0.822861 0.123243 0.004040
0.834399 0.122476 0.004015
0.012567 0.152765 0.033823
0.026714 0.156213 0.032722
0.067028 0.155216 0.040092
0.115882 0.168104 0.041092
0.185955 0.177714 0.041664
0.297083 0.184665 0.043261
0.404443 0.186464 0.041784
0.509386 0.186784 0.038764
0.597959 0.186938 0.035749
0.681370 0.184035 0.031897
0.749793 0.179262 0.026425
0.804788 0.172743 0.021599
0.844801 0.168550 0.016906
0.879691 0.165687 0.012661
0.903108 0.166085 0.011830
0.917145 0.164792 0.011069
0.014451 0.203927 0.040093
0.029213 0.207799 0.038998
0.070627 0.210608 0.043950
0.128415 0.219306 0.049299
0.197027 0.237520 0.050325
0.295209 0.248283 0.053323
0.418706 0.249698 0.055085
0.531427 0.248806 0.054274
0.632485 0.249883 0.052962
0.716038 0.248128 0.050012
0.784256 0.242549 0.045505
0.841910 0.235524 0.039501
0.890490 0.226817 0.032306
0.924554 0.222103 0.025487
0.948040 0.220168 0.021543
0.961139 0.217724 0.020278
0.019812 0.255807 0.045230
0.035049 0.258584 0.044851
0.072305 0.265700 0.049987
0.140106 0.270755 0.062418
0.210473 0.289715 0.064715
0.298369 0.307680 0.066479
0.413898 0.320868 0.070546
0.534691 0.320731 0.072100
0.645336 0.320986 0.071391
0.740800 0.321747 0.068633
0.808379 0.316820 0.064226
0.861544 0.310460 0.059031
0.905198 0.303396 0.052354
0.936519 0.297272 0.045724
0.959935 0.294720 0.040331
0.974283 0.291059 0.038074
0.028582 0.308441 0.055432
0.042783 0.311029 0.053849
0.071277 0.319732 0.058961
0.133571 0.328198 0.072823
0.220047 0.340656 0.082339
0.306395 0.364625 0.081907
0.410079 0.385882 0.084120
0.535767 0.401950 0.087275
0.653896 0.404702 0.088614
0.755162 0.408390 0.088591
0.829685 0.407122 0.086173
0.877109 0.403346 0.082426
0.913133 0.397831 0.076884
0.941674 0.393029 0.071283
0.963415 0.389812 0.067163
0.978937 0.382345 0.063438
0.039024 0.360705 0.063112
0.052355 0.363251 0.060989
0.076803 0.371096 0.062913
0.128127 0.384253 0.079208
0.221288 0.397087 0.094841
0.322961 0.422520 0.097295
0.425540 0.454552 0.096694
0.541173 0.479670 0.101069
0.663469 0.498668 0.106355
0.765667 0.505059 0.110039
0.837477 0.506187 0.111759
0.884378 0.504511 0.111831
0.917865 0.503182 0.110138
0.944518 0.501670 0.106733
0.964455 0.498383 0.103777
0.980004 0.490142 0.099962
0.053892 0.412308 0.065571
0.067797 0.414379 0.063439
0.090026 0.424004 0.068793
0.137938 0.441556 0.084360
0.226239 0.460502 0.101807
0.339363 0.486436 0.112736
0.454371 0.523495 0.113404
0.564408 0.558694 0.115926
0.677161 0.584669 0.125757
0.776085 0.601895 0.136834
0.841671 0.603702 0.144026
0.886153 0.603177 0.147391
0.920233 0.602885 0.148457
0.946448 0.603575 0.148230
0.965827 0.602518 0.147176
0.980411 0.595953 0.144130
0.073509 0.466352 0.071784
0.090966 0.468597 0.072296
0.114508 0.479328 0.077875
0.161039 0.500236 0.092605
0.244562 0.524939 0.110404
0.361730 0.554610 0.127921
0.483871 0.593241 0.133880
0.589331 0.631083 0.140097
0.690491 0.661168 0.150110
0.782004 0.681948 0.163980
0.846644 0.691255 0.178763
0.890310 0.688279 0.185109
0.923309 0.688131 0.189640
0.946941 0.688466 0.191672
0.964843 0.691655 0.193589
0.979537 0.687031 0.190474
0.102268 0.523406 0.082979
0.122289 0.526577 0.083197
0.153226 0.540603 0.088713
0.201840 0.565999 0.104724
0.285079 0.594248 0.122000
0.393523 0.627555 0.142868
0.511724 0.664887 0.157143
0.617063 0.701795 0.168480
0.708556 0.730631 0.181064
0.790319 0.749218 0.195767
0.852354 0.755294 0.210053
0.894842 0.755586 0.224272
0.923717 0.753738 0.230153
0.945826 0.757852 0.237079
0.962690 0.763129 0.242391
0.977151 0.760447 0.240420
0.149811 0.587362 0.097676
0.173964 0.592057 0.097933
0.219306 0.612345 0.104453
0.273797 0.639794 0.117763
0.350687 0.669828 0.136535
0.446003 0.702386 0.158960
0.549844 0.736012 0.181671
0.648024 0.767606 0.199749
0.730579 0.793085 0.214461
0.797996 0.803214 0.226886
0.856045 0.806012 0.237568
0.897085 0.803081 0.252416
0.924399 0.802536 0.266146
0.943768 0.808158 0.274278
0.960122 0.814465 0.280239
0.974153 0.814391 0.280632
0.234055 0.660472 0.113625
0.261639 0.666485 0.114556
0.319375 0.690073 0.121373
0.380420 0.718283 0.134606
0.443896 0.745865 0.153197
0.514837 0.772125 0.176022
0.596986 0.799382 0.201111
0.677181 0.821137 0.222264
0.748156 0.837199 0.237656
0.806117 0.842541 0.246731
0.857187 0.840184 0.253051
0.897751 0.838376 0.266997
0.924051 0.838716 0.283970
0.942590 0.840646 0.293541
0.958970 0.843857 0.297659
0.972881 0.844461 0.298469
0.313806 0.718550 0.123186
0.343504 0.726117 0.124670
0.408836 0.753093 0.133069
0.470288 0.781763 0.146262
0.522926 0.806059 0.164609
0.571228 0.824523 0.185555
0.628757 0.840323 0.211798
0.692316 0.853240 0.232825
0.754379 0.862757 0.245802
0.811530 0.865088 0.252353
0.861232 0.859131 0.258799
0.899656 0.857816 0.274296
0.924282 0.858696 0.291956
0.942353 0.860030 0.299546
0.958375 0.861628 0.302575
0.972697 0.861673 0.302598
0.349879 0.749137 0.126915
0.380517 0.757237 0.128576
0.447444 0.784276 0.136624
0.508577 0.813244 0.149750
0.556310 0.834902 0.167555
0.596915 0.852012 0.189753
0.641521 0.863238 0.213898
0.695719 0.873437 0.235400
0.753776 0.880019 0.248609
0.811151 0.880819 0.253346
0.861783 0.873837 0.259078
0.898884 0.869963 0.275366
0.923751 0.870710 0.293533
0.941230 0.872395 0.301983
0.956760 0.873952 0.302697
0.972697 0.875613 0.302726
0.019152 0.019998 0.025887
0.025809 0.019856 0.027450
0.047392 0.017333 0.031421
0.078530 0.011626 0.029324
0.107489 0.009734 0.024942
0.152248 0.010787 0.023042
0.192871 0.010877 0.019325
0.232417 0.012376 0.017520
0.280789 0.015915 0.015799
0.330961 0.018439 0.015001
0.374646 0.019282 0.013564
0.412454 0.021018 0.012961
0.453118 0.023019 0.012798
0.485257 0.022900 0.012750
0.506511 0.021526 0.012745
0.521831 0.021625 0.012667
0.018577 0.028563 0.028160
0.026106 0.028105 0.028645
0.048721 0.024963 0.027387
0.080436 0.020952 0.021400
0.115639 0.020091 0.016432
0.161530 0.020436 0.012890
0.205984 0.021761 0.010661
0.248294 0.023811 0.009362
0.297194 0.027616 0.008631
0.347348 0.031418 0.007690
0.396124 0.033690 0.007056
0.440691 0.034924 0.006809
0.484702 0.036114 0.006765
0.518449 0.036983 0.006753
0.540363 0.036531 0.006744
0.555511 0.036496 0.006753
0.015992 0.056691 0.035920
0.024006 0.056293 0.031236
0.050119 0.057938 0.033400
0.103895 0.065138 0.029960
0.168549 0.069233 0.025692
0.242412 0.071881 0.020596
0.307381 0.073863 0.017079
0.366092 0.074766 0.014625
0.425895 0.076088 0.011645
0.480052 0.078125 0.010157
0.531629 0.079131 0.008684
0.576531 0.079359 0.007883
0.619316 0.079550 0.007282
0.653974 0.079856 0.007074
0.676163 0.079685 0.006858
0.690474 0.079263 0.006854
0.011391 0.105477 0.046341
0.019221 0.105852 0.036030
0.056215 0.106813 0.037696
0.103678 0.113308 0.037111
0.185478 0.121085 0.039776
0.278064 0.125362 0.038743
0.375271 0.127089 0.033826
0.457846 0.127234 0.028461
0.536872 0.125960 0.024073
0.604452 0.124890 0.020985
0.662664 0.122784 0.018034
0.713781 0.120990 0.014180
0.753578 0.119299 0.011209
0.787770 0.118828 0.009850
0.811299 0.118671 0.009169
0.823366 0.117863 0.009051
0.009803 0.156721 0.057279
0.017364 0.156169 0.043690
0.057978 0.156465 0.047423
0.111809 0.166011 0.049252
0.184101 0.176488 0.049220
0.294218 0.182306 0.050554
0.400171 0.183541 0.048645
0.504731 0.183186 0.045157
0.592720 0.183067 0.041814
0.675594 0.180103 0.038086
0.742679 0.175508 0.032829
0.798822 0.169225 0.027667
0.840387 0.165024 0.022544
0.875721 0.162178 0.017894
0.899769 0.162480 0.016749
0.913703 0.161219 0.015923
0.011315 0.209881 0.065356
0.019248 0.207714 0.049647
0.060003 0.211449 0.050294
0.122150 0.217580 0.056945
0.192949 0.236067 0.057336
0.291992 0.247481 0.059898
0.415889 0.247763 0.061449
0.528258 0.246497 0.060706
0.629394 0.247249 0.059418
0.712285 0.245553 0.056723
0.780641 0.239833 0.051969
0.839054 0.232534 0.045477
0.888245 0.223889 0.038077
0.922685 0.219105 0.031073
0.946182 0.217478 0.027219
0.959343 0.215169 0.025967
0.015388 0.263043 0.066218
0.024617 0.259530 0.053500
0.061943 0.266477 0.055344
0.130996 0.270560 0.067914
0.205412 0.288455 0.071210
0.294691 0.306862 0.072822
0.411083 0.320387 0.077066
0.532307 0.319489 0.078551
0.643714 0.319453 0.077770
0.739330 0.320008 0.075047
0.806570 0.315096 0.070655
0.859972 0.308302 0.065203
0.903854 0.300406 0.058142
0.935726 0.293956 0.051054
0.959377 0.291427 0.045471
0.973915 0.287827 0.043224
0.024474 0.317138 0.078262
0.033235 0.312599 0.064012
0.062914 0.320696 0.065435
0.123437 0.328856 0.078119
0.213075 0.339987 0.088952
0.302118 0.363672 0.088739
0.406584 0.385523 0.090651
0.533440 0.401939 0.093910
0.651896 0.404186 0.095186
0.754194 0.407469 0.095052
0.828708 0.405615 0.092305
0.876275 0.401278 0.088223
0.912412 0.395018 0.082371
0.941307 0.389534 0.076369
0.963175 0.386064 0.071988
0.978894 0.378673 0.068247
0.035389 0.369671 0.086470
0.043283 0.365158 0.072468
0.068897 0.372616 0.070482
0.118828 0.384891 0.084725
0.212234 0.397239 0.100854
0.317578 0.421741 0.104265
0.422009 0.454120 0.103426
0.538494 0.479725 0.107412
0.662015 0.498767 0.112585
0.764704 0.504648 0.116138
0.837005 0.505237 0.117723
0.884219 0.502924 0.117345
0.917890 0.500832 0.115181
0.944509 0.498643 0.111335
0.964654 0.495109 0.108207
0.980334 0.486867 0.104382
0.049434 0.421154 0.089811
0.057531 0.416282 0.074432
0.082699 0.424946 0.075056
0.129479 0.441596 0.089430
0.217277 0.460568 0.106943
0.332833 0.485880 0.119108
0.450456 0.522993 0.119788
0.561606 0.558351 0.121994
0.675746 0.584901 0.131519
0.775427 0.601919 0.142460
0.841450 0.603253 0.149404
0.886459 0.602272 0.152464
0.920473 0.601345 0.153129
0.946439 0.601692 0.152571
0.965760 0.600485 0.151442
0.980477 0.593691 0.148317
0.067909 0.473789 0.093901
0.077184 0.470237 0.079616
0.107511 0.480198 0.083981
0.153692 0.499959 0.097485
0.237341 0.524625 0.115046
0.355208 0.554311 0.133177
0.479309 0.592682 0.139784
0.586838 0.630932 0.145837
0.689127 0.661177 0.155499
0.781426 0.682169 0.169116
0.846785 0.691370 0.183701
0.890295 0.687743 0.189813
0.923664 0.687356 0.193951
0.947161 0.687526 0.195892
0.964942 0.690599 0.197794
0.979550 0.685983 0.194553
0.093676 0.531210 0.102078
0.107408 0.527608 0.090091
0.146163 0.541116 0.094830
0.195944 0.565243 0.109052
0.279167 0.593753 0.126533
0.388366 0.626948 0.147673
0.507972 0.664549 0.162448
0.614985 0.701801 0.173714
0.707510 0.730888 0.186069
0.789691 0.749371 0.200503
0.852621 0.755377 0.214642
0.895146 0.755468 0.228704
0.923902 0.753285 0.234491
0.946081 0.757342 0.241487
0.962850 0.762664 0.246797
0.977331 0.759952 0.244758
0.143080 0.594744 0.114485
0.158392 0.591830 0.104601
0.212121 0.611334 0.109639
0.269845 0.638838 0.122179
0.346993 0.669435 0.140777
0.442570 0.701971 0.163256
0.547267 0.735824 0.186196
0.646563 0.767457 0.204404
0.729765 0.793249 0.218934
0.797793 0.803266 0.231235
0.856183 0.805741 0.241884
0.897629 0.802509 0.256764
0.924218 0.802041 0.270575
0.943889 0.807738 0.278864
0.960256 0.813924 0.284946
0.974338 0.814144 0.285396
0.233481 0.666283 0.128974
0.246658 0.665299 0.120509
0.313231 0.688631 0.126320
0.378146 0.717640 0.138876
0.442255 0.745312 0.157106
0.512768 0.771595 0.179695
0.595353 0.798842 0.205019
0.676099 0.820902 0.226400
0.747334 0.836986 0.241963
0.806023 0.842436 0.251105
0.857342 0.839830 0.257522
0.897841 0.837943 0.271593
0.924155 0.838215 0.288831
0.942612 0.840179 0.298551
0.958746 0.843410 0.302865
0.973053 0.844325 0.303548
0.317796 0.723861 0.138092
0.328720 0.723697 0.130220
0.402583 0.750765 0.137422
0.468594 0.781158 0.150502
0.521959 0.805544 0.168506
0.569973 0.824045 0.189350
0.627679 0.839932 0.215609
0.691566 0.853062 0.236944
0.753703 0.862579 0.250167
0.811420 0.865035 0.256909
0.861466 0.859032 0.263527
0.899771 0.857404 0.279179
0.924302 0.858335 0.297104
0.942341 0.860018 0.304913
0.958430 0.861396 0.307996
0.972398 0.861261 0.307968
0.354744 0.754547 0.141810
0.365279 0.754691 0.133982
0.440975 0.782161 0.140908
0.506588 0.812564 0.154090
0.555713 0.834660 0.171606
0.596235 0.851641 0.193515
0.640745 0.863003 0.217870
0.695119 0.873179 0.239542
0.753170 0.879963 0.253062
0.811026 0.880926 0.257949
0.861773 0.873586 0.263849
0.898991 0.869922 0.280231
0.923739 0.870549 0.298709
0.941157 0.872394 0.307424
0.956760 0.873926 0.308197
0.972697 0.875639 0.308198
0.016887 0.018827 0.039666
0.029126 0.018386 0.043639
0.051408 0.015687 0.049659
0.099695 0.010043 0.062542
0.147474 0.008187 0.068229
0.189502 0.008061 0.066339
0.228784 0.007867 0.059478
0.271231 0.008618 0.051614
0.316439 0.011152 0.046034
0.361293 0.012433 0.039774
0.404263 0.012147 0.036328
0.439909 0.012256 0.032312
0.466513 0.013037 0.028249
0.485008 0.012458 0.027416
0.499386 0.012481 0.027160
0.510066 0.012568 0.026717
0.015493 0.032826 0.045475
0.023814 0.025955 0.044997
0.052903 0.022486 0.052120
0.102141 0.017674 0.061414
0.151133 0.016514 0.063214
0.196720 0.015282 0.060369
0.239275 0.016312 0.053978
0.284407 0.017519 0.046707
0.333159 0.019441 0.041391
0.380677 0.020599 0.036430
0.425881 0.020988 0.032703
0.464399 0.020609 0.028652
0.493202 0.020709 0.024918
0.511432 0.019697 0.024188
0.524849 0.019188 0.024010
0.536131 0.019221 0.023492
0.013259 0.057324 0.055342
0.020497 0.057557 0.056292
0.048150 0.053679 0.057972
0.100817 0.047253 0.051842
0.154578 0.045808 0.045516
0.214167 0.043545 0.040746
0.269933 0.046027 0.035009
0.326402 0.048957 0.031567
0.384075 0.051255 0.028173
0.441820 0.052776 0.025892
0.496943 0.054569 0.022747
0.541738 0.055449 0.020772
0.579790 0.055030 0.019414
0.607574 0.053787 0.018462
0.622234 0.052468 0.018153
0.636048 0.052144 0.018067
0.008368 0.106983 0.078651
0.015095 0.107881 0.075387
0.039612 0.105538 0.064752
0.099503 0.106538 0.064698
0.181858 0.110231 0.060390
0.269122 0.111393 0.056361
0.355434 0.112318 0.051369
0.431850 0.112287 0.045913
0.507218 0.110953 0.040568
0.579215 0.109872 0.035862
0.640182 0.108706 0.032377
0.692854 0.107358 0.028786
0.733618 0.105842 0.024688
0.767512 0.104675 0.022013
0.788627 0.104465 0.021167
0.802603 0.103825 0.020737
0.006771 0.160993 0.098159
0.012819 0.162521 0.092608
0.033646 0.161323 0.072756
0.097293 0.160566 0.073352
0.178740 0.172171 0.070904
0.285664 0.175237 0.071228
0.388210 0.175220 0.068326
0.487845 0.173899 0.063483
0.573848 0.172388 0.058770
0.655629 0.168757 0.054234
0.721545 0.164100 0.049613
0.781327 0.158621 0.043799
0.827902 0.154270 0.037369
0.864900 0.151524 0.031458
0.889410 0.151120 0.029246
0.903013 0.149969 0.028330
0.007026 0.224292 0.111665
0.013154 0.223717 0.104488
0.033910 0.218934 0.080199
0.098482 0.216939 0.079794
0.180535 0.230978 0.079374
0.281917 0.244523 0.079587
0.404994 0.242558 0.080004
0.515196 0.240146 0.078978
0.616373 0.239679 0.077422
0.698640 0.237587 0.074422
0.767166 0.231478 0.069977
0.826434 0.223612 0.063089
0.877565 0.215050 0.054751
0.915446 0.210359 0.046579
0.940772 0.208511 0.041837
0.954401 0.206710 0.040476
0.010628 0.283877 0.116089
0.016953 0.281423 0.107402
0.038446 0.273100 0.080269
0.100773 0.274861 0.082044
0.188861 0.285756 0.089437
0.281871 0.304415 0.090215
0.399366 0.319106 0.094160
0.523646 0.316189 0.095695
0.636110 0.315552 0.095435
0.732098 0.316332 0.093674
0.799393 0.311806 0.089867
0.853730 0.303816 0.083730
0.899055 0.294023 0.074947
0.932576 0.286183 0.066408
0.957251 0.282792 0.059897
0.972241 0.278871 0.057300
0.015960 0.340183 0.122037
0.022919 0.337203 0.114451
0.044999 0.328578 0.091158
0.094864 0.333944 0.092335
0.189653 0.340699 0.104992
0.288443 0.361776 0.106905
0.395267 0.384462 0.108341
0.523824 0.403194 0.112429
0.644231 0.404180 0.114473
0.748849 0.406653 0.114101
0.824606 0.404663 0.111024
0.872689 0.398535 0.106277
0.909769 0.389623 0.099229
0.939652 0.381146 0.091551
0.962157 0.376476 0.085915
0.977849 0.369695 0.081970
0.025130 0.397343 0.133046
0.032327 0.393679 0.125823
0.053033 0.383700 0.102493
0.094261 0.392070 0.104592
0.181637 0.402395 0.116447
0.297625 0.421898 0.124657
0.410462 0.453947 0.123488
0.529279 0.481662 0.126068
0.655738 0.501677 0.130961
0.760599 0.506037 0.134864
0.835077 0.505571 0.136272
0.882871 0.501450 0.134430
0.917572 0.496299 0.129967
0.944633 0.491849 0.124840
0.964897 0.486804 0.120881
0.980637 0.478229 0.116896
0.039060 0.452448 0.140109
0.046058 0.448214 0.132194
0.065020 0.436602 0.107664
0.102924 0.448567 0.109195
0.186620 0.465433 0.121962
0.308350 0.487974 0.137268
0.436225 0.523847 0.139626
0.552874 0.560256 0.141057
0.670287 0.588352 0.149105
0.772963 0.605205 0.158827
0.841162 0.604575 0.165154
0.887390 0.601375 0.167262
0.921520 0.598644 0.166160
0.947032 0.597612 0.163968
0.965630 0.596296 0.162512
0.980288 0.589166 0.159371
0.055836 0.503909 0.144095
0.063343 0.500373 0.136527
0.084463 0.491966 0.113658
0.127595 0.505685 0.113707
0.211511 0.528498 0.128642
0.331171 0.557171 0.148107
0.462421 0.594467 0.158318
0.578966 0.633826 0.163565
0.684344 0.664274 0.171636
0.780613 0.686435 0.183928
0.847708 0.693937 0.196780
0.892094 0.688257 0.201368
0.924822 0.686157 0.203709
0.947826 0.685955 0.204550
0.965123 0.689729 0.206330
0.979922 0.685122 0.203316
0.081037 0.560909 0.154808
0.089771 0.557704 0.145734
0.116337 0.551811 0.117217
0.176843 0.570397 0.123884
0.260706 0.597658 0.139602
0.371467 0.629613 0.160920
0.495546 0.667783 0.178017
0.608594 0.705015 0.189475
0.705114 0.735090 0.199844
0.789846 0.752476 0.212291
0.854396 0.758009 0.224423
0.897199 0.757162 0.236798
0.925355 0.753386 0.241242
0.946920 0.756759 0.247261
0.963418 0.762189 0.252309
0.977626 0.759659 0.250581
0.130744 0.623309 0.155573
0.140320 0.620548 0.144901
0.186762 0.616589 0.128473
0.260956 0.643701 0.136497
0.341105 0.674275 0.152875
0.437104 0.706164 0.174953
0.543308 0.740439 0.198132
0.644286 0.771697 0.215934
0.728960 0.796485 0.228535
0.799217 0.804751 0.238430
0.859336 0.805347 0.247389
0.900079 0.801458 0.261070
0.925798 0.800784 0.273964
0.944750 0.806211 0.282120
0.961266 0.812178 0.288223
0.975156 0.812359 0.288876
0.239575 0.691874 0.160023
0.252430 0.690515 0.155795
0.297397 0.691754 0.143367
0.380159 0.722525 0.151643
0.447017 0.750196 0.167563
0.515164 0.775562 0.188626
0.595866 0.801470 0.213135
0.677864 0.823833 0.233913
0.748674 0.838712 0.247453
0.808485 0.842396 0.254839
0.861740 0.837959 0.260806
0.900990 0.834360 0.274038
0.925760 0.834374 0.291253
0.943653 0.836766 0.300432
0.959552 0.840332 0.305488
0.973632 0.841213 0.306497
0.343410 0.748263 0.167585
0.353774 0.747814 0.163452
0.393177 0.753062 0.152460
0.475544 0.785835 0.162696
0.530423 0.809609 0.178023
0.572974 0.825548 0.196770
0.629349 0.840759 0.221366
0.694652 0.853754 0.242097
0.756711 0.862774 0.254391
0.814959 0.863373 0.260511
0.865769 0.856633 0.267446
0.902294 0.854377 0.282787
0.925458 0.855040 0.299851
0.942990 0.856954 0.308586
0.959173 0.858848 0.312098
0.973200 0.858645 0.312144
0.386263 0.779808 0.169754
0.395770 0.779168 0.165753
0.433498 0.784783 0.156004
0.513777 0.817261 0.166412
0.565050 0.839324 0.181697
0.599777 0.852824 0.200804
0.643608 0.863828 0.223614
0.699508 0.873701 0.244443
0.756713 0.880148 0.257090
0.814926 0.879064 0.261621
0.864792 0.869980 0.268240
0.901483 0.866992 0.284635
0.924382 0.867264 0.301967
0.941653 0.869738 0.311386
0.957393 0.871477 0.313037
0.972996 0.873043 0.313171
0.012873 0.013471 0.064861
0.028253 0.013090 0.072628
0.065784 0.011257 0.086262
0.105054 0.009568 0.092486
0.152333 0.008771 0.102339
0.194553 0.008551 0.104452
0.244235 0.007987 0.100183
0.294907 0.007635 0.092969
0.347605 0.008230 0.085720
0.398602 0.008275 0.078344
0.448721 0.007604 0.070189
0.482873 0.007281 0.060773
0.507170 0.007635 0.053226
0.522825 0.007131 0.046076
0.530741 0.007566 0.044759
0.538564 0.007804 0.043953
0.012100 0.028004 0.073026
0.020179 0.019215 0.071989
0.064256 0.016889 0.087723
0.107805 0.014876 0.095026
0.162272 0.014172 0.103605
0.211808 0.013818 0.104828
0.261413 0.013948 0.099509
0.312643 0.014026 0.091754
0.367047 0.014642 0.084477
0.419271 0.014795 0.076950
0.468637 0.014741 0.069122
0.504053 0.014090 0.060100
0.531266 0.013807 0.052214
0.546241 0.012975 0.045013
0.553614 0.013270 0.043553
0.561730 0.013518 0.042722
0.008837 0.063529 0.088426
0.015763 0.061193 0.089357
0.045022 0.045429 0.090851
0.110587 0.037887 0.100534
0.177961 0.037655 0.102988
0.242532 0.035605 0.099578
0.298704 0.036559 0.093311
0.356201 0.038278 0.086043
0.417714 0.038781 0.078837
0.478576 0.038285 0.071507
0.534644 0.037324 0.064982
0.579267 0.036288 0.055999
0.615597 0.033640 0.048324
0.634471 0.031209 0.041362
0.641373 0.029801 0.039554
0.649190 0.029744 0.038771
0.006203 0.103148 0.107121
0.012586 0.105099 0.108187
0.034928 0.104766 0.110372
0.092922 0.095802 0.110044
0.176561 0.093458 0.102100
0.260825 0.091053 0.095130
0.341360 0.090205 0.088224
0.414561 0.091197 0.082730
0.490063 0.089511 0.076636
0.565394 0.087367 0.070160
0.633340 0.086192 0.064449
0.693875 0.084802 0.057545
0.737044 0.082304 0.050949
0.770912 0.078878 0.044059
0.791519 0.077169 0.040469
0.804297 0.076620 0.039756
0.005301 0.161563 0.136556
0.010909 0.164087 0.135466
0.029177 0.166212 0.130435
0.075717 0.159313 0.120765
0.168375 0.162571 0.114415
0.272837 0.164161 0.109194
0.371230 0.162699 0.104486
0.463658 0.161427 0.099194
0.548482 0.158617 0.092332
0.629511 0.152944 0.085093
0.699136 0.146600 0.078636
0.760951 0.141332 0.072245
0.813348 0.137018 0.064485
0.854057 0.134711 0.056095
0.882463 0.133604 0.050595
0.897263 0.132833 0.049246
0.005737 0.231100 0.158548
0.011224 0.232788 0.155704
0.027299 0.235102 0.145687
0.068327 0.227701 0.130910
0.157419 0.224650 0.124074
0.266035 0.238773 0.117916
0.384273 0.237150 0.116981
0.492314 0.234572 0.113773
0.593252 0.232423 0.109302
0.676975 0.228187 0.103844
0.745528 0.220062 0.098301
0.804464 0.210872 0.091773
0.858338 0.202454 0.082759
0.900635 0.197569 0.073106
0.932123 0.196751 0.065803
0.948373 0.194898 0.063253
0.007302 0.306600 0.172663
0.013141 0.306148 0.168135
0.030322 0.301981 0.152530
0.070439 0.292683 0.133426
0.157761 0.287840 0.127427
0.261986 0.301077 0.124097
0.377843 0.316295 0.123794
0.504387 0.312917 0.124454
0.618701 0.311395 0.123878
0.717583 0.311376 0.123471
0.785321 0.306409 0.119524
0.839301 0.296808 0.113576
0.886477 0.285288 0.104402
0.923924 0.276844 0.093797
0.950990 0.273670 0.086197
0.967735 0.269899 0.082417
0.012119 0.366921 0.179038
0.017885 0.365435 0.174174
0.034765 0.360399 0.157636
0.074728 0.352491 0.136555
0.157183 0.349388 0.129471
0.268799 0.362038 0.134374
0.376917 0.383020 0.134245
0.502897 0.404080 0.138666
