luts/4.cube
LUT_3D_SIZE 16
0.023558 0.022770 0.022061
0.031802 0.022911 0.021964
0.056033 0.022902 0.021665
0.114609 0.022950 0.020316
0.175351 0.028809 0.019896
0.243574 0.043208 0.027428
0.311824 0.063590 0.037756
0.383379 0.081148 0.047760
0.458168 0.096425 0.058068
0.530877 0.110377 0.067167
0.604641 0.120040 0.075502
0.664979 0.125816 0.082796
0.714676 0.129339 0.091233
0.756192 0.133710 0.097228
0.785212 0.129475 0.099596
0.804624 0.124299 0.098162
0.024289 0.028520 0.021604
0.032066 0.028892 0.021809
0.057434 0.032428 0.021672
0.118256 0.036281 0.020868
0.175156 0.049268 0.021828
0.246053 0.065965 0.031247
0.321012 0.083973 0.041924
0.389057 0.102277 0.050473
0.456949 0.118698 0.059196
0.532836 0.132386 0.068800
0.608029 0.142468 0.077438
0.669757 0.149260 0.085721
0.720520 0.155944 0.092331
0.758541 0.160199 0.096161
0.787142 0.155237 0.097055
0.806293 0.150224 0.095848
0.027627 0.042259 0.020411
0.039636 0.043931 0.020760
0.058874 0.045428 0.021546
0.122131 0.060763 0.024181
0.187393 0.081514 0.029575
0.269124 0.103418 0.040853
0.346500 0.121720 0.051418
0.415383 0.137671 0.059869
0.485183 0.153256 0.068874
0.562905 0.169045 0.079504
0.633530 0.180529 0.088281
0.692625 0.190574 0.095964
0.735492 0.199150 0.101002
0.768619 0.200730 0.105004
0.793448 0.194570 0.106628
0.811294 0.190300 0.105813
0.036912 0.070474 0.019515
0.050999 0.075441 0.020523
0.080618 0.084845 0.023534
0.123986 0.094720 0.029136
0.200624 0.120280 0.040021
0.291558 0.144236 0.052434
0.369469 0.163396 0.063780
0.441149 0.180113 0.072476
0.514331 0.196499 0.080805
0.590354 0.213799 0.092347
0.654880 0.226590 0.101788
0.707527 0.236597 0.109127
0.749356 0.244058 0.114273
0.781976 0.245601 0.117979
0.807741 0.242249 0.119182
0.826845 0.240732 0.119110
0.037232 0.115201 0.029327
0.049538 0.122606 0.031889
0.082223 0.137276 0.036577
0.138876 0.152852 0.043315
0.211866 0.164451 0.052203
0.307340 0.192038 0.064675
0.385358 0.211736 0.076095
0.458940 0.229668 0.086375
0.536235 0.248294 0.095728
0.613214 0.264456 0.106976
0.676518 0.275195 0.115716
0.726134 0.284223 0.122475
0.762387 0.290884 0.127626
0.792387 0.296629 0.131665
0.817325 0.302300 0.134174
0.836688 0.304771 0.134925
0.033854 0.165080 0.047273
0.048343 0.173837 0.048351
0.080494 0.193220 0.054695
0.140827 0.214046 0.060327
0.229102 0.233176 0.070221
0.316292 0.246857 0.078537
0.397946 0.268951 0.089475
0.474327 0.286790 0.100433
0.553604 0.305209 0.112074
0.631230 0.319427 0.123374
0.693384 0.327363 0.131667
0.742493 0.336782 0.138661
0.776833 0.346411 0.144135
0.805243 0.358784 0.148843
0.829895 0.378343 0.156227
0.849825 0.389168 0.159992
0.039878 0.208382 0.067595
0.056567 0.217439 0.069955
0.084673 0.249620 0.077599
0.137813 0.279544 0.079163
0.231754 0.305471 0.087901
0.328744 0.321611 0.098353
0.408562 0.330533 0.106416
0.490576 0.349244 0.118685
0.572115 0.364884 0.130371
0.648949 0.376660 0.141844
0.709698 0.383938 0.150709
0.755361 0.397548 0.159588
0.790828 0.415434 0.168862
0.819928 0.440560 0.178744
0.845935 0.476803 0.193369
0.867316 0.498587 0.201936
0.049061 0.247027 0.093759
0.066263 0.256022 0.096435
0.091441 0.297771 0.105102
0.136319 0.340638 0.105492
0.225174 0.374045 0.111339
0.334648 0.397897 0.123006
0.426390 0.410124 0.132025
0.508695 0.418560 0.143190
0.593183 0.433604 0.156258
0.668881 0.445663 0.168676
0.729855 0.454701 0.179071
0.772484 0.474605 0.190408
0.807911 0.504099 0.205123
0.838352 0.547193 0.223211
0.865133 0.590170 0.242794
0.888199 0.618296 0.256752
0.059303 0.292889 0.123932
0.076566 0.300745 0.127208
0.099217 0.337395 0.137430
0.138279 0.392250 0.140180
0.217870 0.438846 0.141730
0.326566 0.472192 0.150303
0.437935 0.497418 0.162969
0.533492 0.509278 0.175391
0.620120 0.519597 0.191042
0.694395 0.535733 0.207967
0.752661 0.550242 0.222353
0.794069 0.574669 0.236790
0.827887 0.610329 0.255651
0.858927 0.657521 0.279697
0.886318 0.697683 0.301510
0.909453 0.722206 0.318544
0.071725 0.345624 0.158327
0.088978 0.352578 0.161472
0.109500 0.380449 0.172603
0.141948 0.445380 0.177600
0.212488 0.508318 0.173095
0.322176 0.555912 0.178632
0.444012 0.593421 0.195337
0.559583 0.619892 0.217634
0.651522 0.625002 0.236044
0.727219 0.639954 0.258674
0.777371 0.659518 0.276834
0.815363 0.683011 0.293654
0.847383 0.714555 0.313917
0.879471 0.751993 0.340725
0.905550 0.780158 0.363975
0.928628 0.798442 0.384019
0.086523 0.405216 0.194963
0.104232 0.412018 0.198110
0.124927 0.439463 0.209908
0.158871 0.512850 0.218786
0.216149 0.585484 0.208095
0.321871 0.640941 0.208730
0.451358 0.685730 0.227613
0.581233 0.722074 0.257857
0.690293 0.743315 0.290484
0.759990 0.744420 0.314733
0.802667 0.755771 0.335232
0.835110 0.770833 0.351530
0.865135 0.791813 0.370438
0.895456 0.818162 0.398505
0.922879 0.840766 0.431646
0.945919 0.855461 0.457721
0.107566 0.483273 0.238034
0.125605 0.489591 0.241148
0.147743 0.520809 0.253258
0.182669 0.598009 0.262608
0.228858 0.677839 0.245578
0.333072 0.736456 0.244120
0.471071 0.776441 0.266681
0.605181 0.803046 0.301284
0.715348 0.819819 0.339808
0.787244 0.828256 0.370249
0.828212 0.830736 0.390817
0.852690 0.833277 0.405254
0.879418 0.844496 0.424398
0.906212 0.862489 0.458635
0.930823 0.877381 0.499942
0.951252 0.887139 0.528737
0.133878 0.579163 0.283350
0.153023 0.587241 0.286116
0.176897 0.619243 0.298329
0.213396 0.696787 0.303807
0.255883 0.776260 0.280533
0.359746 0.828183 0.281187
0.506565 0.852692 0.313281
0.640870 0.863810 0.350537
0.745084 0.871871 0.392938
0.812832 0.878424 0.429663
0.851738 0.882725 0.451797
0.873496 0.882298 0.468129
0.891153 0.882980 0.483571
0.913597 0.891783 0.521966
0.935707 0.902507 0.570080
0.954356 0.909174 0.596871
0.174642 0.701891 0.343001
0.195350 0.711212 0.346130
0.222455 0.746298 0.357263
0.252890 0.802900 0.353846
0.287073 0.857195 0.314342
0.396136 0.890749 0.321526
0.557851 0.900975 0.379687
0.692543 0.904533 0.432565
0.782335 0.909044 0.477257
0.836552 0.913223 0.514541
0.867037 0.914849 0.536931
0.888894 0.915603 0.551208
0.903483 0.913546 0.563378
0.916871 0.912060 0.576808
0.937735 0.920706 0.615805
0.955216 0.925294 0.631445
0.217900 0.812565 0.406040
0.238754 0.819078 0.410980
0.265119 0.846508 0.425905
0.288875 0.879359 0.412581
0.321706 0.910074 0.354272
0.437585 0.926740 0.373646
0.605895 0.927969 0.460687
0.735477 0.930673 0.526147
0.811617 0.934342 0.561982
0.854920 0.938675 0.588282
0.882452 0.938444 0.607107
0.898960 0.938114 0.614193
0.911959 0.936299 0.622914
0.925048 0.935244 0.630698
0.938214 0.935173 0.635394
0.955286 0.939147 0.639903
0.237234 0.863990 0.441720
0.259345 0.870862 0.448173
0.284666 0.889674 0.466690
0.303443 0.908349 0.447270
0.344817 0.931921 0.399536
0.464488 0.945761 0.422694
0.630511 0.946694 0.515763
0.759966 0.950265 0.577261
0.828189 0.953080 0.598877
0.864048 0.956850 0.612107
0.888538 0.956338 0.621068
0.902863 0.955107 0.625080
0.916076 0.953466 0.635382
0.928876 0.952514 0.639769
0.942062 0.952371 0.640206
0.955286 0.952371 0.640246
0.023793 0.022768 0.027574
0.031338 0.022779 0.027529
0.055315 0.022608 0.030583
0.115413 0.022601 0.032183
0.180417 0.028860 0.033917
0.256229 0.042341 0.043699
0.336042 0.061653 0.056438
0.418949 0.079042 0.069731
0.503557 0.094037 0.082871
0.581723 0.106842 0.094464
0.654051 0.115687 0.105012
0.710902 0.119892 0.113958
0.756388 0.122524 0.123734
0.788927 0.123624 0.133425
0.802614 0.115930 0.143378
0.815997 0.110942 0.145654
0.024355 0.028445 0.027366
0.031412 0.028975 0.027478
0.059035 0.028084 0.026659
0.117766 0.027712 0.024484
0.178152 0.034675 0.024575
0.248991 0.049029 0.033006
0.320908 0.069108 0.044133
0.393736 0.087132 0.054795
0.469740 0.102734 0.065984
0.544319 0.116584 0.076319
0.618252 0.126476 0.085764
0.679292 0.133132 0.094090
0.728415 0.137803 0.102883
0.765086 0.140707 0.111060
0.790437 0.136330 0.116671
0.809366 0.131621 0.117026
0.027434 0.042110 0.029879
0.032625 0.043117 0.024763
0.058092 0.045336 0.025825
0.121411 0.057429 0.028315
0.187816 0.076391 0.032913
0.267674 0.097006 0.043915
0.344172 0.114491 0.054897
0.413125 0.130529 0.063633
0.483460 0.146423 0.072904
0.561693 0.161710 0.083735
0.634068 0.172734 0.092972
0.693213 0.181451 0.101320
0.737774 0.188151 0.107180
0.772776 0.188678 0.111834
0.799233 0.182093 0.114326
0.818094 0.177400 0.114367
0.035654 0.069938 0.033472
0.040666 0.071703 0.024413
0.074902 0.083285 0.027607
0.122358 0.094311 0.033760
0.199742 0.118113 0.044031
0.290752 0.141200 0.056289
0.369341 0.159537 0.067669
0.440991 0.175385 0.076499
0.514016 0.191317 0.085381
0.591126 0.208321 0.097304
0.656643 0.220483 0.107015
0.710057 0.230000 0.114829
0.752097 0.236913 0.120462
0.784831 0.237718 0.124902
0.810293 0.233832 0.127221
0.829439 0.231774 0.127691
0.033807 0.113740 0.048189
0.040394 0.116672 0.035401
0.074529 0.134583 0.041264
0.133784 0.151879 0.047827
0.210216 0.163983 0.057146
0.306397 0.190243 0.069702
0.384909 0.208897 0.081183
0.458384 0.226056 0.091501
0.536176 0.244182 0.100874
0.614018 0.260305 0.112401
0.677437 0.270821 0.121623
0.726773 0.279201 0.128969
0.763648 0.285453 0.134643
0.794388 0.290670 0.139271
0.819701 0.295464 0.142364
0.838974 0.297228 0.143326
0.031142 0.161659 0.067685
0.038480 0.166166 0.054442
0.072554 0.189824 0.060790
0.133193 0.212199 0.066181
0.224415 0.232308 0.075966
0.314928 0.246219 0.084402
0.397235 0.267199 0.095236
0.473263 0.284173 0.106196
0.552524 0.302034 0.117994
0.630948 0.316083 0.129638
0.693874 0.323968 0.138378
0.743073 0.333080 0.145719
0.778000 0.342202 0.151205
0.806185 0.354011 0.156067
0.830468 0.372939 0.163826
0.850399 0.383243 0.167793
0.039372 0.204421 0.090847
0.046050 0.209792 0.076217
0.078308 0.243820 0.084378
0.129759 0.276942 0.086542
0.224768 0.304111 0.093990
0.325341 0.320942 0.104703
0.407021 0.329778 0.112756
0.488973 0.347858 0.125013
0.570765 0.363073 0.136826
0.648188 0.374548 0.148569
0.709592 0.381533 0.157847
0.755681 0.394784 0.167220
0.791483 0.411993 0.176458
0.820518 0.436394 0.186421
0.846285 0.471920 0.200643
0.867414 0.493439 0.209125
0.049096 0.245858 0.116498
0.056260 0.249382 0.103205
0.086397 0.288933 0.112103
0.129455 0.336944 0.114058
0.217043 0.372192 0.118077
0.329405 0.397148 0.129870
0.423168 0.409760 0.139057
0.506488 0.417873 0.150318
0.591510 0.432414 0.163478
0.667890 0.444048 0.176029
0.729383 0.452672 0.186567
0.772551 0.472253 0.198312
0.808213 0.501074 0.212997
0.838317 0.543042 0.230455
0.864852 0.586338 0.249750
0.887556 0.614136 0.263416
0.059993 0.293735 0.147044
0.067461 0.295762 0.134608
0.095180 0.328861 0.144827
0.132149 0.386832 0.149781
0.210223 0.436566 0.150394
0.319960 0.471007 0.158390
0.433233 0.496842 0.170824
0.530665 0.509212 0.183442
0.618086 0.518851 0.199194
0.693271 0.534483 0.216068
0.751997 0.548470 0.230399
0.793890 0.572654 0.244850
0.827696 0.607913 0.263254
0.858542 0.654628 0.286690
0.885916 0.695422 0.308595
0.909070 0.720084 0.325860
0.072651 0.347470 0.181926
0.080688 0.348790 0.170182
0.106098 0.374367 0.181050
0.138188 0.438661 0.188966
0.204701 0.504771 0.183779
0.314828 0.554342 0.188089
0.438072 0.592468 0.204099
0.555663 0.619639 0.226130
0.649509 0.624990 0.244581
0.726092 0.639587 0.267259
0.776758 0.658537 0.285098
0.815024 0.681536 0.301671
0.847138 0.713283 0.321629
0.879149 0.750438 0.348021
0.905232 0.778827 0.371192
0.928339 0.797355 0.391151
0.087573 0.407866 0.218624
0.096348 0.408781 0.207695
0.121804 0.434306 0.219039
0.155530 0.505156 0.231230
0.209189 0.581256 0.219989
0.314389 0.639172 0.218500
0.445181 0.684956 0.236439
0.577085 0.721738 0.266172
0.688029 0.743335 0.298629
0.758958 0.744372 0.322956
0.802364 0.755643 0.343472
0.834896 0.770352 0.359463
0.865074 0.791341 0.378274
0.895345 0.817669 0.405948
0.922715 0.840347 0.438671
0.945779 0.855140 0.464544
0.108512 0.486656 0.260717
0.117632 0.487001 0.250318
0.144264 0.514484 0.262176
0.179341 0.588927 0.274404
0.223894 0.673776 0.257958
0.325645 0.734809 0.253502
0.464877 0.775978 0.275177
0.601219 0.803014 0.309456
0.713293 0.819727 0.347773
0.786356 0.828216 0.378194
0.828061 0.830884 0.398929
0.852667 0.833336 0.413206
0.879449 0.844479 0.432016
0.906189 0.862438 0.465717
0.930736 0.877289 0.506626
0.951181 0.887094 0.535317
0.135224 0.583362 0.305779
0.144675 0.583740 0.295342
0.173357 0.613877 0.306751
0.210310 0.687722 0.315332
0.252125 0.772638 0.293157
0.352006 0.827070 0.289242
0.500593 0.852698 0.320987
0.637487 0.863825 0.358320
0.743549 0.871909 0.400607
0.812284 0.878433 0.437357
0.851544 0.882806 0.459215
0.873477 0.882374 0.475357
0.891208 0.883054 0.490753
0.913657 0.891860 0.528758
0.935752 0.902533 0.576807
0.954458 0.909200 0.603599
0.176306 0.704259 0.365994
0.185798 0.705366 0.355230
0.218477 0.740101 0.366346
0.251197 0.797443 0.366958
0.283642 0.854075 0.326090
0.388954 0.890176 0.328219
0.552079 0.900930 0.385536
0.689874 0.904557 0.439459
0.781246 0.909005 0.483974
0.836195 0.913241 0.521151
0.866861 0.914788 0.543001
0.888744 0.915506 0.557090
0.903482 0.913510 0.569557
0.916962 0.912083 0.583242
0.937790 0.920710 0.622280
0.955217 0.925267 0.638132
0.219929 0.814642 0.430382
0.229490 0.815638 0.419126
0.262157 0.842788 0.435321
0.287423 0.876059 0.425741
0.319170 0.908433 0.366899
0.431110 0.926364 0.378448
0.601218 0.927892 0.464577
0.733360 0.930558 0.531509
0.810901 0.934273 0.567749
0.854497 0.938610 0.594132
0.882390 0.938478 0.613341
0.898806 0.938025 0.620462
0.911843 0.936238 0.629232
0.924991 0.935232 0.637494
0.938185 0.935161 0.642366
0.955286 0.939074 0.646997
0.240047 0.866941 0.466929
0.249568 0.867652 0.455317
0.281215 0.886484 0.474679
0.302416 0.906523 0.461144
0.341676 0.930563 0.411419
0.458349 0.945501 0.427712
0.625814 0.946622 0.519554
0.757659 0.950158 0.582629
0.827490 0.953023 0.604935
0.863796 0.956797 0.618327
0.888366 0.956277 0.627528
0.902712 0.955059 0.631646
0.916016 0.953512 0.642185
0.928851 0.952464 0.646915
0.942047 0.952370 0.647544
0.955286 0.952313 0.647565
0.024951 0.022886 0.040081
0.035955 0.022749 0.039986
0.053561 0.022231 0.040203
0.107941 0.020243 0.048253
0.175800 0.023499 0.059642
0.266112 0.034528 0.076417
0.354216 0.049709 0.090529
0.431784 0.065466 0.104099
0.507959 0.080123 0.119457
0.588143 0.092818 0.132716
0.660828 0.102524 0.146311
0.718696 0.108874 0.162206
0.756242 0.108410 0.178527
0.777270 0.103379 0.193528
0.783008 0.095408 0.206246
0.792545 0.091099 0.206660
0.025783 0.031504 0.040425
0.032197 0.028627 0.041801
0.055824 0.027208 0.041891
0.111289 0.024888 0.048217
0.181699 0.029926 0.057132
0.269686 0.042434 0.071505
0.354348 0.058978 0.084965
0.432279 0.075575 0.098056
0.511649 0.090602 0.112491
0.591786 0.103369 0.126134
0.663824 0.113236 0.139782
0.721723 0.119432 0.153546
0.761868 0.120376 0.168151
0.785221 0.116826 0.181070
0.794022 0.110213 0.194873
0.805313 0.106712 0.196126
0.027441 0.041943 0.040751
0.032080 0.042710 0.041272
0.054419 0.044975 0.042278
0.119598 0.045634 0.042948
0.190741 0.054079 0.040898
0.272258 0.067836 0.050217
0.353010 0.083762 0.060396
0.424938 0.099989 0.069553
0.497049 0.113711 0.079456
0.569732 0.124998 0.089184
0.640012 0.133772 0.097742
0.698184 0.140520 0.104977
0.742857 0.144559 0.112405
0.773130 0.144858 0.120821
0.794411 0.139003 0.126536
0.812703 0.134145 0.126235
0.032434 0.068954 0.052169
0.037006 0.070361 0.050214
0.053184 0.075654 0.039971
0.114723 0.092759 0.049037
0.202087 0.110726 0.055054
0.296385 0.130432 0.064192
0.372761 0.146318 0.073833
0.442484 0.160025 0.080872
0.515708 0.174729 0.089234
0.594002 0.190597 0.099919
0.660997 0.201280 0.108562
0.714431 0.209884 0.115772
0.753951 0.215772 0.120316
0.785702 0.215061 0.124191
0.809546 0.209489 0.126203
0.827779 0.206638 0.126246
0.029530 0.110100 0.072505
0.034732 0.112151 0.069594
0.046407 0.121484 0.050303
0.114197 0.149064 0.056458
0.206322 0.163077 0.066372
0.306609 0.185316 0.077146
0.387379 0.201007 0.087213
0.461925 0.216149 0.096290
0.539883 0.232823 0.104571
0.617540 0.248447 0.115525
0.680060 0.258712 0.124362
0.727691 0.266389 0.131237
0.765163 0.271817 0.136297
0.795741 0.275295 0.140252
0.820572 0.277327 0.142324
0.839433 0.277728 0.142980
0.029388 0.155047 0.095254
0.034906 0.157610 0.091750
0.044528 0.169292 0.066033
0.107774 0.205381 0.075694
0.209182 0.230327 0.083148
0.312438 0.245466 0.091846
0.397546 0.263276 0.101303
0.474037 0.278050 0.111287
0.553727 0.294654 0.122267
0.633582 0.308312 0.133279
0.696316 0.315837 0.141488
0.744540 0.323679 0.148111
0.778723 0.331430 0.152828
0.806267 0.341877 0.156969
0.829870 0.358027 0.163011
0.849565 0.366250 0.166497
0.038494 0.198201 0.119938
0.044851 0.201335 0.116387
0.052336 0.212673 0.086580
0.106735 0.266230 0.096246
0.202780 0.300219 0.099357
0.317035 0.320347 0.110477
0.405474 0.329074 0.118199
0.488405 0.345196 0.129581
0.570606 0.358949 0.140769
0.648695 0.369566 0.152176
0.710248 0.375967 0.161114
0.756425 0.388016 0.169838
0.791831 0.403555 0.177694
0.820527 0.426132 0.186302
0.845540 0.459099 0.199218
0.866270 0.478715 0.207114
0.049057 0.244383 0.146123
0.056236 0.246982 0.142395
0.061906 0.253084 0.111740
0.110113 0.321099 0.122481
0.193045 0.366045 0.122590
0.316031 0.395830 0.134309
0.417403 0.409603 0.143609
0.504704 0.417580 0.154852
0.590545 0.430386 0.167322
0.667671 0.440708 0.179156
0.729413 0.448039 0.188960
0.772461 0.466539 0.200255
0.808078 0.493937 0.214036
0.837698 0.533680 0.230268
0.863800 0.576329 0.248675
0.886083 0.603149 0.261614
0.061234 0.295328 0.178378
0.068917 0.297506 0.174342
0.072451 0.299162 0.142268
0.115706 0.363828 0.155927
0.187614 0.427674 0.155974
0.302857 0.467896 0.162379
0.423998 0.496123 0.174634
0.526528 0.509598 0.187599
0.616722 0.518581 0.203403
0.692684 0.532565 0.219496
0.751716 0.545419 0.233161
0.793712 0.568376 0.246655
0.827447 0.602616 0.264363
0.857950 0.648338 0.286896
0.885010 0.689398 0.308443
0.908045 0.713950 0.325576
0.074898 0.351705 0.215078
0.083152 0.353416 0.210991
0.085110 0.351804 0.177205
0.124483 0.409356 0.193498
0.184246 0.491252 0.191518
0.296112 0.549149 0.192013
0.425225 0.590131 0.207066
0.548993 0.619799 0.229495
0.646840 0.625211 0.248009
0.725472 0.639623 0.270993
0.776435 0.657237 0.288237
0.814782 0.679085 0.304217
0.846806 0.710609 0.323595
0.878620 0.747126 0.349374
0.904594 0.775235 0.372163
0.927693 0.794140 0.391749
0.091036 0.415729 0.252859
0.099824 0.416881 0.248726
0.100428 0.411760 0.214144
0.140873 0.471213 0.233035
0.193761 0.566104 0.230852
0.293815 0.631869 0.222173
0.429804 0.681515 0.238306
0.567743 0.720394 0.267948
0.683750 0.743490 0.301446
0.757532 0.744604 0.326364
0.802192 0.755715 0.347186
0.834759 0.769625 0.362665
0.864985 0.790123 0.381117
0.895263 0.816408 0.408409
0.922399 0.838714 0.440427
0.945639 0.853864 0.465914
0.110782 0.493778 0.293462
0.119987 0.494807 0.289460
0.121916 0.490139 0.256720
0.164232 0.553247 0.276199
0.212525 0.655473 0.271434
0.303283 0.727264 0.256667
0.447772 0.773417 0.276255
0.590858 0.802411 0.310817
0.708404 0.819413 0.350051
0.784285 0.828306 0.381302
0.827675 0.831086 0.402630
0.852680 0.833430 0.416982
0.879507 0.844250 0.435402
0.906219 0.862087 0.468616
0.930683 0.876783 0.508928
0.951179 0.886648 0.537384
0.139425 0.592770 0.341150
0.149077 0.594384 0.336731
0.149596 0.587712 0.301920
0.194769 0.653150 0.319350
0.242031 0.754350 0.307756
0.329455 0.821147 0.291477
0.482018 0.852098 0.321077
0.626920 0.863635 0.359500
0.738703 0.871861 0.402436
0.810452 0.878368 0.440504
0.850850 0.882915 0.462690
0.873369 0.882531 0.478993
0.891321 0.883200 0.494471
0.913772 0.891844 0.532065
0.935826 0.902372 0.579664
0.954594 0.909031 0.606918
0.183329 0.715841 0.403797
0.192795 0.716671 0.399588
0.191531 0.709361 0.362410
0.239362 0.773545 0.376234
0.273268 0.841503 0.342073
0.365892 0.886790 0.329323
0.530340 0.900788 0.380690
0.679509 0.904568 0.439915
0.776747 0.908825 0.485240
0.834768 0.913287 0.523914
0.866111 0.914770 0.545792
0.888449 0.915510 0.559988
0.903423 0.913557 0.572694
0.917077 0.912202 0.586816
0.937880 0.920714 0.625793
0.955304 0.925197 0.642033
0.230522 0.826463 0.478850
0.239799 0.827115 0.473281
0.235873 0.818842 0.428071
0.278398 0.862243 0.440627
0.308603 0.901793 0.386535
0.406158 0.924691 0.373630
0.581786 0.927832 0.457769
0.724883 0.930305 0.531171
0.807404 0.934061 0.569326
0.852755 0.938417 0.596321
0.881585 0.938529 0.616047
0.898401 0.937943 0.623574
0.911597 0.936217 0.632435
0.924909 0.935227 0.641204
0.938198 0.935171 0.646430
0.955309 0.939006 0.651576
0.250097 0.873696 0.515976
0.259004 0.873382 0.509716
0.256905 0.871371 0.465530
0.295341 0.898661 0.479188
0.328664 0.924948 0.428720
0.434498 0.944013 0.423745
0.606180 0.946603 0.511776
0.748456 0.949847 0.582212
0.824319 0.952826 0.607355
0.862441 0.956693 0.621280
0.887680 0.956297 0.630994
0.902286 0.955037 0.635282
0.915786 0.953530 0.646321
0.928692 0.952456 0.651584
0.941984 0.952332 0.652449
0.955299 0.952305 0.652625
0.028775 0.022296 0.062488
0.041132 0.021675 0.062780
0.063403 0.020114 0.063707
0.096136 0.017775 0.066826
0.156014 0.017476 0.085389
0.242154 0.026979 0.105952
0.330673 0.039078 0.121752
0.412054 0.052567 0.136971
0.488690 0.065784 0.158328
0.562904 0.077879 0.178772
0.633276 0.088277 0.197077
0.693044 0.096243 0.218090
0.724192 0.093108 0.234482
0.733160 0.083782 0.242568
0.736071 0.075132 0.244714
0.742104 0.070553 0.241913
0.029661 0.032307 0.065820
0.034352 0.025728 0.067626
0.062055 0.024147 0.067391
0.097706 0.021690 0.069511
0.160406 0.022570 0.086824
0.250722 0.033525 0.106857
0.340578 0.046449 0.121830
0.419551 0.060699 0.136566
0.492711 0.074410 0.156496
0.566800 0.086652 0.175463
0.637019 0.097028 0.192748
0.696614 0.104746 0.211868
0.730002 0.102829 0.228067
0.742756 0.094918 0.237148
0.747899 0.087653 0.241418
0.754904 0.084222 0.238886
0.029589 0.047553 0.070407
0.033732 0.046595 0.071337
0.053043 0.041472 0.074813
0.100541 0.039952 0.077879
0.178679 0.041056 0.091517
0.281549 0.055454 0.104954
0.368105 0.067740 0.116994
0.442035 0.080752 0.128760
0.513465 0.092964 0.143781
0.590203 0.103446 0.159123
0.659364 0.111926 0.174327
0.716311 0.117756 0.189782
0.751735 0.116354 0.205364
0.768119 0.108979 0.216481
0.773999 0.101419 0.226061
0.782637 0.098001 0.225179
0.028430 0.067333 0.076858
0.032533 0.068569 0.077373
0.045877 0.073804 0.079799
0.095123 0.087713 0.083216
0.191022 0.096803 0.088435
0.298040 0.111000 0.095847
0.386958 0.123620 0.102723
0.464307 0.133910 0.109482
0.542707 0.144132 0.118634
0.620475 0.152127 0.128941
0.684224 0.157122 0.137067
0.736635 0.160952 0.142746
0.773417 0.161498 0.145760
0.794863 0.155858 0.149862
0.807491 0.146577 0.153967
0.823070 0.141995 0.151713
0.024664 0.105554 0.099611
0.029486 0.107350 0.098826
0.039564 0.114068 0.095273
0.078554 0.139356 0.096677
0.184505 0.157360 0.099921
0.299411 0.174643 0.104780
0.391923 0.186415 0.112623
0.470850 0.196156 0.118975
0.553310 0.209399 0.124288
0.633421 0.222576 0.132332
0.696621 0.231091 0.139251
0.741772 0.236473 0.144388
0.777582 0.238870 0.147322
0.806780 0.237568 0.149086
0.828730 0.234547 0.148464
0.845787 0.234125 0.147473
0.028125 0.149628 0.122870
0.033532 0.151511 0.122125
0.041336 0.157048 0.116471
0.068598 0.187408 0.111194
0.168132 0.223577 0.112644
0.297889 0.243138 0.117940
0.395050 0.255159 0.122812
0.476798 0.264968 0.129508
0.560411 0.278445 0.137734
0.645292 0.291187 0.146847
0.707943 0.297411 0.153513
0.753689 0.301465 0.158201
0.785875 0.306456 0.161776
0.812576 0.314811 0.164928
0.835188 0.326147 0.167593
0.852984 0.330589 0.168307
0.037567 0.193497 0.148743
0.043865 0.195771 0.147979
0.050470 0.200767 0.140520
0.072372 0.233074 0.124962
0.151818 0.288748 0.126745
0.291985 0.319428 0.132418
0.397070 0.326373 0.136459
0.485312 0.337975 0.144879
0.570471 0.349131 0.154825
0.651442 0.358149 0.165740
0.716051 0.364040 0.173885
0.761894 0.373931 0.180882
0.796697 0.386118 0.185741
0.824211 0.405740 0.190923
0.846632 0.434051 0.200255
0.865739 0.449012 0.205003
0.048783 0.243194 0.176653
0.055793 0.245082 0.175184
0.061434 0.248991 0.165662
0.080165 0.275262 0.142997
0.144982 0.351734 0.145404
0.281835 0.393356 0.150854
0.401029 0.409974 0.159015
0.496490 0.415431 0.168132
