luts/4.cube
LUT_3D_SIZE 6
0.023558 0.022770 0.022061
0.114609 0.022950 0.020316
0.311824 0.063590 0.037756
0.530877 0.110377 0.067167
0.714676 0.129339 0.091233
0.804624 0.124299 0.098162
0.036912 0.070474 0.019515
0.123986 0.094720 0.029136
0.369469 0.163396 0.063780
0.590354 0.213799 0.092347
0.749356 0.244058 0.114273
0.826845 0.240732 0.119110
0.039878 0.208382 0.067595
0.137813 0.279544 0.079163
0.408562 0.330533 0.106416
0.648949 0.376660 0.141844
0.790828 0.415434 0.168862
0.867316 0.498587 0.201936
0.071725 0.345624 0.158327
0.141948 0.445380 0.177600
0.444012 0.593421 0.195337
0.727219 0.639954 0.258674
0.847383 0.714555 0.313917
0.928628 0.798442 0.384019
0.133878 0.579163 0.283350
0.213396 0.696787 0.303807
0.506565 0.852692 0.313281
0.812832 0.878424 0.429663
0.891153 0.882980 0.483571
0.954356 0.909174 0.596871
0.237234 0.863990 0.441720
0.303443 0.908349 0.447270
0.630511 0.946694 0.515763
0.864048 0.956850 0.612107
0.916076 0.953466 0.635382
0.955286 0.952371 0.640246
0.028775 0.022296 0.062488
0.096136 0.017775 0.066826
0.330673 0.039078 0.121752
0.562904 0.077879 0.178772
0.724192 0.093108 0.234482
0.742104 0.070553 0.241913
0.028430 0.067333 0.076858
0.095123 0.087713 0.083216
0.386958 0.123620 0.102723
0.620475 0.152127 0.128941
0.773417 0.161498 0.145760
0.823070 0.141995 0.151713
0.037567 0.193497 0.148743
0.072372 0.233074 0.124962
0.397070 0.326373 0.136459
0.651442 0.358149 0.165740
0.796697 0.386118 0.185741
0.865739 0.449012 0.205003
0.076782 0.355796 0.247767
0.098984 0.366558 0.202580
0.395012 0.587221 0.219757
0.722692 0.640323 0.282653
0.847128 0.706255 0.330991
0.927086 0.788604 0.393263
0.143223 0.600992 0.377122
0.161196 0.600886 0.319307
0.442331 0.851836 0.322149
0.806150 0.878742 0.446997
0.891790 0.883797 0.500905
0.955058 0.908920 0.609700
0.257214 0.870981 0.564484
0.265951 0.876069 0.480382
0.562635 0.946963 0.489102
0.859849 0.956572 0.621647
0.915395 0.953717 0.647996
0.955395 0.952384 0.655115
0.016998 0.007562 0.150110
0.061855 0.004694 0.159436
0.223378 0.020577 0.196038
0.428658 0.042246 0.261642
0.559800 0.053220 0.287898
0.570310 0.043608 0.236106
0.011137 0.065637 0.182179
0.058041 0.074098 0.232377
0.297661 0.083487 0.261848
0.487087 0.086302 0.282398
0.605197 0.082229 0.290212
0.594055 0.066544 0.237191
0.036271 0.187157 0.224578
0.065937 0.207414 0.240412
0.318609 0.311441 0.303784
0.597546 0.326868 0.310200
0.802115 0.333320 0.303810
0.872988 0.319958 0.263546
0.081782 0.368958 0.339840
0.105801 0.381088 0.341097
0.289764 0.575613 0.352602
0.667066 0.617876 0.353683
0.845899 0.657910 0.388140
0.925408 0.739653 0.428243
0.149850 0.602008 0.486311
0.174112 0.615332 0.480668
0.297356 0.810767 0.461401
0.775890 0.886387 0.537759
0.896047 0.889486 0.566765
0.958906 0.910247 0.618298
0.274148 0.866296 0.690378
0.293903 0.869117 0.679040
0.331931 0.907380 0.574575
0.843747 0.955628 0.625744
0.913785 0.955413 0.632011
0.957669 0.954644 0.637191
0.005025 0.004817 0.221044
0.045124 0.004508 0.244069
0.162268 0.014055 0.252023
0.336790 0.031071 0.298391
0.426696 0.035483 0.280394
0.489952 0.033946 0.263205
0.009596 0.056689 0.252735
0.039678 0.050925 0.288455
0.190066 0.053125 0.329310
0.348471 0.054472 0.298488
0.430510 0.055872 0.275911
0.462811 0.050383 0.246543
0.037495 0.188400 0.304466
0.062793 0.194227 0.314694
0.230485 0.282056 0.430132
0.476524 0.273309 0.427946
0.642046 0.252537 0.406789
0.714735 0.228617 0.389295
0.085545 0.375547 0.419776
0.107291 0.380814 0.427685
0.229846 0.498875 0.533844
0.564430 0.576417 0.564181
0.792848 0.576545 0.522592
0.903816 0.623209 0.549419
0.149808 0.584228 0.606551
0.172563 0.591052 0.611576
0.311150 0.753434 0.725161
0.676818 0.861589 0.674814
0.872541 0.863132 0.656056
0.956509 0.900412 0.725484
0.273178 0.848170 0.769800
0.293718 0.849836 0.767265
0.355967 0.883034 0.787742
0.722033 0.945320 0.769505
0.908068 0.955537 0.748007
0.955967 0.953449 0.744385
0.006350 0.006542 0.302035
0.042968 0.004638 0.308046
0.123599 0.009013 0.296252
0.314169 0.026335 0.334588
0.363089 0.026790 0.298375
0.467857 0.032252 0.321974
0.006163 0.047993 0.312984
0.031122 0.032429 0.318418
0.110608 0.034387 0.327645
0.286333 0.044920 0.315567
0.349895 0.046188 0.287634
0.446582 0.048701 0.313206
0.036669 0.186648 0.360631
0.057734 0.181276 0.362766
0.159050 0.248676 0.503980
0.382254 0.230162 0.523466
0.527660 0.185987 0.485722
0.585594 0.161641 0.475524
0.092244 0.390493 0.523011
0.115599 0.397492 0.541020
0.197618 0.463303 0.685813
0.473145 0.523261 0.766578
0.695724 0.522306 0.693918
0.850496 0.601864 0.764383
0.160573 0.596329 0.694796
0.183251 0.602389 0.701859
0.297269 0.722771 0.801339
0.549902 0.779790 0.830732
0.817472 0.823151 0.811310
0.934833 0.844091 0.817654
0.257701 0.819730 0.813780
0.278014 0.820642 0.813381
0.336047 0.855241 0.829604
0.638806 0.918075 0.879335
0.881771 0.950471 0.875481
0.952410 0.950922 0.866195
0.004136 0.004136 0.370369
0.046393 0.004305 0.364839
0.122951 0.007123 0.339717
0.331313 0.027716 0.382815
0.364916 0.026457 0.358008
0.445282 0.029421 0.368046
0.003981 0.046642 0.373297
0.026627 0.026627 0.372302
0.093759 0.026146 0.340640
0.269728 0.040319 0.341516
0.333304 0.041928 0.339559
0.429067 0.046446 0.365794
0.043471 0.211279 0.454806
0.060332 0.194068 0.449298
0.125559 0.213555 0.553499
0.326841 0.184395 0.636617
0.500393 0.170871 0.565355
0.532316 0.141610 0.526440
0.131877 0.501329 0.731609
0.152452 0.499343 0.743206
0.198611 0.483020 0.783678
0.488615 0.557492 0.888934
0.757938 0.588499 0.833871
0.849921 0.629483 0.838572
0.227105 0.730255 0.833776
0.247214 0.731120 0.834935
0.316284 0.775533 0.862884
0.569873 0.818365 0.917590
0.836120 0.842478 0.922986
0.923946 0.846592 0.919375
0.254575 0.816342 0.854023
0.275292 0.817609 0.854577
0.334516 0.854484 0.873347
0.623158 0.913943 0.928754
0.832067 0.934478 0.938900
0.949329 0.949342 0.943962
