luts/5.cube
LUT_3D_SIZE 6
0.045100 0.033800 0.040700
0.109421 0.039855 0.040080
0.249614 0.069981 0.064753
0.475848 0.104964 0.119724
0.552300 0.118114 0.181245
0.580605 0.125874 0.193436
0.035374 0.074466 0.037037
0.110295 0.107366 0.056417
0.289351 0.150372 0.089483
0.503139 0.180422 0.132360
0.710982 0.213429 0.199088
0.739137 0.238046 0.208329
0.067329 0.211207 0.077444
0.127152 0.255002 0.089267
0.303272 0.285177 0.125958
0.451596 0.313699 0.157082
0.639214 0.362646 0.208398
0.750516 0.440689 0.270658
0.115345 0.369922 0.124060
0.142479 0.404815 0.129758
0.316695 0.417964 0.162476
0.491280 0.477483 0.212422
0.663851 0.549549 0.288976
0.821118 0.692647 0.490300
0.176553 0.564563 0.176429
0.202283 0.623780 0.196534
0.384005 0.680894 0.260241
0.616823 0.742161 0.397309
0.818778 0.816100 0.604919
0.902800 0.894463 0.794334
0.265865 0.784530 0.304855
0.337019 0.824769 0.469543
0.630358 0.885016 0.685904
0.841888 0.892835 0.794285
0.908411 0.904700 0.814035
0.909200 0.904700 0.815468
0.047116 0.038420 0.064002
0.092322 0.035546 0.070279
0.265209 0.066966 0.122923
0.460288 0.105340 0.185122
0.529036 0.120651 0.225012
0.604748 0.140447 0.241052
0.036550 0.071445 0.077949
0.100530 0.088868 0.091864
0.380422 0.113697 0.120598
0.552696 0.135690 0.175782
0.603503 0.140895 0.215757
0.628442 0.145784 0.213946
0.071440 0.198079 0.124877
0.081294 0.239624 0.102477
0.305376 0.284824 0.132087
0.481250 0.309108 0.169299
0.681018 0.353375 0.221307
0.757832 0.413934 0.267871
0.121576 0.371430 0.166178
0.122773 0.380474 0.136957
0.294817 0.424378 0.163367
0.493023 0.479480 0.217001
0.673322 0.547897 0.296198
0.817615 0.679604 0.478181
0.194253 0.617614 0.209780
0.187990 0.588686 0.188924
0.352369 0.689693 0.259281
0.612601 0.745151 0.405210
0.820303 0.817897 0.609223
0.901787 0.892949 0.792107
0.322383 0.806017 0.478028
0.284545 0.795850 0.347558
0.576774 0.882103 0.656304
0.835155 0.893374 0.791814
0.907337 0.903641 0.812290
0.908836 0.904170 0.814866
0.051502 0.044556 0.163383
0.102416 0.044510 0.165018
0.233273 0.065123 0.180866
0.445285 0.105910 0.240479
0.512984 0.120888 0.273869
0.629318 0.160489 0.317046
0.054197 0.086773 0.200306
0.101708 0.095605 0.260466
0.299673 0.092273 0.238165
0.491670 0.122846 0.269730
0.530346 0.130129 0.286894
0.662302 0.180278 0.325334
0.079259 0.185626 0.217868
0.090044 0.209731 0.231122
0.324902 0.318011 0.307764
0.644266 0.319860 0.339009
0.819620 0.347860 0.364727
0.824800 0.387224 0.354434
0.136571 0.372135 0.265684
0.141500 0.381479 0.259088
0.227973 0.504367 0.209615
0.500072 0.496567 0.241445
0.765393 0.573980 0.373017
0.817706 0.656134 0.479913
0.226843 0.653851 0.318281
0.230922 0.661626 0.307833
0.270333 0.753463 0.321254
0.661213 0.818824 0.555668
0.849780 0.846814 0.670026
0.896479 0.886436 0.772444
0.364116 0.798466 0.591856
0.365390 0.799977 0.583341
0.371240 0.827956 0.554635
0.805073 0.893576 0.768276
0.899065 0.892939 0.783546
0.901086 0.893999 0.786924
0.064219 0.056669 0.283966
0.092627 0.054111 0.276140
0.224266 0.071363 0.250814
0.438770 0.111604 0.299692
0.507892 0.129336 0.344399
0.628526 0.184261 0.415853
0.071023 0.085840 0.389799
0.091424 0.081838 0.400297
0.232036 0.077937 0.297792
0.466823 0.124047 0.338279
0.523093 0.138953 0.368043
0.654202 0.208330 0.436604
0.094003 0.182374 0.352504
0.100062 0.189729 0.370302
0.304952 0.288155 0.544918
0.586779 0.242699 0.504173
0.721854 0.315009 0.525065
0.769358 0.439601 0.584430
0.151530 0.375108 0.375403
0.158026 0.382638 0.385138
0.213881 0.474680 0.476631
0.568502 0.564684 0.556711
0.797512 0.596780 0.584916
0.812430 0.655437 0.635306
0.286188 0.685213 0.512489
0.295141 0.692911 0.518350
0.375959 0.776502 0.606121
0.648474 0.830142 0.648245
0.824570 0.821521 0.658081
0.903115 0.892852 0.813915
0.407925 0.792557 0.689422
0.409508 0.792016 0.685320
0.447115 0.819024 0.703226
0.755513 0.890351 0.801031
0.907496 0.903877 0.824959
0.908823 0.904423 0.826380
0.075097 0.062821 0.405807
0.087932 0.066448 0.441673
0.204051 0.078114 0.384579
0.450143 0.124044 0.391231
0.505413 0.137880 0.424311
0.618467 0.209520 0.519901
0.086218 0.074912 0.506616
0.091810 0.074330 0.501353
0.180434 0.082870 0.457313
0.460635 0.132840 0.424217
0.514446 0.148296 0.453228
0.645351 0.240972 0.544916
0.103119 0.155504 0.549653
0.107366 0.151204 0.569609
0.221777 0.231103 0.682467
0.506295 0.179222 0.552865
0.677324 0.369188 0.657961
0.739462 0.516282 0.723564
0.180425 0.388603 0.568792
0.185466 0.388167 0.580001
0.249606 0.488701 0.680228
0.648575 0.654260 0.781210
0.781129 0.662740 0.772522
0.836873 0.790102 0.833476
0.342470 0.697184 0.661928
0.353182 0.702086 0.672853
0.463705 0.768855 0.765817
0.656726 0.803171 0.798153
0.854399 0.855489 0.851565
0.891343 0.872383 0.868724
0.471655 0.796330 0.790767
0.476496 0.797327 0.791421
0.546507 0.821087 0.817820
0.814667 0.892804 0.889008
0.917595 0.928289 0.917901
0.919605 0.915754 0.890323
0.089421 0.069471 0.494002
0.092321 0.070332 0.521357
0.189978 0.086021 0.492807
0.471960 0.134644 0.464325
0.533932 0.165334 0.510499
0.606818 0.213334 0.555515
0.095840 0.079792 0.550392
0.098303 0.075390 0.535378
0.160194 0.086578 0.523211
0.478681 0.141754 0.476214
0.556023 0.188683 0.536611
0.628885 0.244488 0.579946
0.111268 0.144089 0.626952
0.114392 0.137825 0.623029
0.182223 0.219031 0.693914
0.585741 0.305794 0.656718
0.729407 0.507248 0.726792
0.738790 0.528244 0.733861
0.227658 0.469615 0.662988
0.230540 0.466588 0.662984
0.468356 0.682520 0.787128
0.778591 0.801694 0.841939
0.836670 0.787488 0.834303
0.850103 0.811922 0.848615
0.459141 0.781118 0.787512
0.463528 0.782047 0.788331
0.581561 0.827541 0.828973
0.812356 0.886931 0.886888
0.936606 0.936854 0.935193
0.924699 0.922680 0.924699
0.475266 0.797702 0.795400
0.480188 0.798593 0.796231
0.556089 0.824226 0.822155
0.812488 0.893110 0.889332
0.907835 0.923574 0.923494
0.948998 0.948998 0.948993
