luts/5.cube
LUT_3D_SIZE 16
0.045100 0.033800 0.040700
0.047846 0.034619 0.040452
0.061253 0.036449 0.039980
0.109421 0.039855 0.040080
0.160610 0.045446 0.044754
0.210084 0.060186 0.055405
0.249614 0.069981 0.064753
0.302137 0.079518 0.077703
0.378776 0.091933 0.096080
0.475848 0.104964 0.119724
0.527052 0.113778 0.145648
0.545896 0.116591 0.168355
0.552300 0.118114 0.181245
0.554747 0.121428 0.193923
0.576242 0.125424 0.193946
0.580605 0.125874 0.193436
0.044103 0.035859 0.040160
0.047123 0.037007 0.040687
0.061917 0.040506 0.040949
0.113660 0.047119 0.042212
0.157689 0.059766 0.047285
0.204991 0.074288 0.057248
0.255245 0.082203 0.068252
0.314059 0.091320 0.079974
0.401035 0.103509 0.097088
0.496777 0.115964 0.123488
0.558286 0.124218 0.152360
0.578383 0.128320 0.174482
0.584256 0.130421 0.189325
0.574436 0.129004 0.197924
0.596013 0.133215 0.197243
0.603538 0.135111 0.196746
0.041009 0.044521 0.038539
0.045905 0.047391 0.039503
0.059788 0.050566 0.041625
0.114297 0.070727 0.048365
0.164210 0.088843 0.056538
0.219630 0.102475 0.066529
0.276907 0.110139 0.077553
0.338531 0.120336 0.089654
0.429419 0.131921 0.106288
0.521497 0.140444 0.127314
0.586842 0.147507 0.152783
0.634345 0.153895 0.176523
0.661412 0.160478 0.196281
0.670175 0.162324 0.205446
0.692894 0.168413 0.202133
0.699864 0.170494 0.201144
0.035374 0.074466 0.037037
0.040812 0.080994 0.038286
0.067129 0.093862 0.045410
0.110295 0.107366 0.056417
0.170273 0.129064 0.067728
0.231809 0.142480 0.078775
0.289351 0.150372 0.089483
0.346404 0.159990 0.100986
0.422265 0.172078 0.116557
0.503139 0.180422 0.132360
0.575305 0.191604 0.151830
0.646629 0.203825 0.175791
0.710982 0.213429 0.199088
0.729742 0.222800 0.210883
0.736409 0.234091 0.210050
0.739137 0.238046 0.208329
0.042783 0.114587 0.049464
0.046964 0.121805 0.052507
0.072192 0.141700 0.059048
0.118985 0.159143 0.067913
0.174681 0.171224 0.077812
0.237932 0.186759 0.091552
0.294386 0.196672 0.102729
0.345273 0.205356 0.113231
0.406509 0.216825 0.126139
0.473161 0.226446 0.139877
0.541989 0.239429 0.155602
0.618056 0.254823 0.175324
0.697121 0.269605 0.198185
0.743135 0.285652 0.212990
0.750558 0.298524 0.218214
0.751383 0.302717 0.219133
0.051686 0.158491 0.064931
0.056702 0.168023 0.066596
0.077882 0.191431 0.070998
0.122315 0.205853 0.078506
0.182163 0.216547 0.089722
0.240623 0.229078 0.103065
0.297233 0.241488 0.114454
0.349264 0.250413 0.125008
0.396371 0.259703 0.134551
0.455324 0.269699 0.146793
0.514098 0.283382 0.161250
0.586041 0.298358 0.178753
0.665009 0.319898 0.201426
0.719755 0.342831 0.222113
0.743106 0.362944 0.236833
0.747297 0.370253 0.240943
0.067329 0.211207 0.077444
0.072323 0.220963 0.078992
0.088247 0.244438 0.082130
0.127152 0.255002 0.089267
0.183577 0.259882 0.098958
0.245557 0.272314 0.112547
0.303272 0.285177 0.125958
0.356051 0.296332 0.137360
0.404435 0.305735 0.147506
0.451596 0.313699 0.157082
0.506527 0.324082 0.169881
0.566860 0.338953 0.185937
0.639214 0.362646 0.208398
0.711657 0.401654 0.240772
0.742971 0.430828 0.263773
0.750516 0.440689 0.270658
0.083945 0.267236 0.092087
0.089138 0.275869 0.093352
0.098430 0.295089 0.095633
0.129005 0.309215 0.101313
0.183207 0.309302 0.110591
0.247598 0.314670 0.122457
0.310378 0.328066 0.137893
0.366386 0.341123 0.151311
0.415906 0.355903 0.163689
0.459811 0.363117 0.173079
0.506861 0.370203 0.183538
0.559925 0.384489 0.198381
0.629223 0.413389 0.222639
0.710834 0.465438 0.265982
0.764968 0.507201 0.307165
0.772643 0.518921 0.318442
0.100655 0.323141 0.110367
0.105311 0.330002 0.110751
0.111067 0.340302 0.111971
0.133166 0.358661 0.115878
0.181213 0.364116 0.123681
0.247169 0.364362 0.135306
0.311979 0.370642 0.148811
0.374013 0.385639 0.164972
0.428032 0.404777 0.179469
0.470364 0.416232 0.190424
0.511364 0.423849 0.200637
0.561716 0.440914 0.216321
0.635570 0.475654 0.246398
0.737511 0.541378 0.313784
0.789058 0.587870 0.372334
0.797439 0.601643 0.389347
0.115345 0.369922 0.124060
0.119461 0.373715 0.124308
0.123562 0.385349 0.124609
0.142479 0.404815 0.129758
0.185809 0.413197 0.137871
0.249591 0.410925 0.147983
0.316695 0.417964 0.162476
0.379349 0.433120 0.177802
0.438398 0.454999 0.194867
0.491280 0.477483 0.212422
0.528599 0.486852 0.222941
0.580814 0.506493 0.242562
0.663851 0.549549 0.288976
0.767824 0.621188 0.384583
0.815951 0.674719 0.468551
0.821118 0.692647 0.490300
0.130838 0.419915 0.134501
0.135178 0.423449 0.135011
0.138674 0.434806 0.137786
0.153221 0.456448 0.144044
0.191948 0.467583 0.153152
0.252874 0.456801 0.160041
0.325641 0.464020 0.175855
0.391758 0.482324 0.193156
0.450943 0.505997 0.210744
0.504563 0.533894 0.232946
0.562942 0.561159 0.259267
0.625141 0.587711 0.290607
0.712992 0.637605 0.361512
0.810096 0.710948 0.495657
0.844174 0.767821 0.588741
0.851650 0.786409 0.617110
0.150584 0.481823 0.151070
0.155413 0.485755 0.152476
0.159636 0.499138 0.157382
0.170592 0.523204 0.163862
0.207574 0.543812 0.175037
0.268445 0.533788 0.183381
0.343815 0.537318 0.199379
0.412364 0.555514 0.219258
0.474950 0.578527 0.242118
0.536171 0.607864 0.269506
0.608474 0.645145 0.317609
0.674927 0.676049 0.366232
0.767442 0.730595 0.472453
0.845563 0.798540 0.620973
0.874846 0.842633 0.703358
0.882459 0.856589 0.727566
0.176553 0.564563 0.176429
0.182930 0.572105 0.178787
0.190691 0.596832 0.187364
0.202283 0.623780 0.196534
0.236446 0.653998 0.210736
0.305026 0.669100 0.231537
0.384005 0.680894 0.260241
0.460142 0.687240 0.295129
0.541057 0.714946 0.348472
0.616823 0.742161 0.397309
0.692527 0.770174 0.466036
0.762979 0.794265 0.539899
0.818778 0.816100 0.604919
0.880517 0.865652 0.734261
0.899074 0.887888 0.782414
0.902800 0.894463 0.794334
0.219136 0.688003 0.221503
0.226673 0.695995 0.225761
0.237667 0.722848 0.241149
0.254273 0.752260 0.271738
0.283730 0.800784 0.302467
0.360448 0.826007 0.369843
0.478811 0.841826 0.458714
0.606902 0.853913 0.569497
0.711364 0.867012 0.664963
0.772476 0.871873 0.702778
0.817605 0.870440 0.719645
0.855151 0.878731 0.739343
0.885814 0.890494 0.771631
0.901585 0.897612 0.794088
0.908104 0.903351 0.811086
0.908907 0.904406 0.813630
0.255208 0.769222 0.278802
0.263825 0.774947 0.289119
0.282690 0.793067 0.339049
0.313992 0.812814 0.412890
0.361597 0.842270 0.474968
0.477448 0.873131 0.575119
0.605542 0.883050 0.657138
0.715945 0.888463 0.728404
0.789569 0.894072 0.771606
0.831203 0.891436 0.784482
0.862097 0.888815 0.781747
0.887477 0.895561 0.791035
0.904674 0.903145 0.809425
0.908720 0.904666 0.814371
0.909160 0.904670 0.815430
0.909200 0.904700 0.815536
0.265865 0.784530 0.304855
0.275417 0.790322 0.317419
0.300570 0.806235 0.384175
0.337019 0.824769 0.469543
0.387288 0.849801 0.521259
0.507455 0.876828 0.617764
0.630358 0.885016 0.685904
0.736228 0.890058 0.750924
0.807556 0.897987 0.791121
0.841888 0.892835 0.794285
0.867815 0.889362 0.782700
0.894113 0.898395 0.797452
0.908411 0.904700 0.814035
0.909200 0.904700 0.815410
0.909200 0.904700 0.815488
0.909200 0.904700 0.815468
0.045115 0.033967 0.041615
0.047340 0.034311 0.041521
0.060580 0.035804 0.042042
0.110326 0.039077 0.043653
0.165018 0.044010 0.049212
0.225706 0.057860 0.062129
0.282471 0.068988 0.076669
0.337772 0.080761 0.095011
0.403720 0.094579 0.117476
0.474664 0.106708 0.142643
0.522495 0.114634 0.166671
0.547545 0.118736 0.186846
0.548565 0.119117 0.197005
0.556397 0.123219 0.204589
0.576851 0.126939 0.205134
0.580605 0.127280 0.205206
0.043940 0.035797 0.041350
0.046962 0.036688 0.041865
0.063851 0.038379 0.041584
0.112664 0.042224 0.041980
0.162416 0.049220 0.047003
0.215244 0.063677 0.058465
0.259372 0.073743 0.069525
0.315559 0.083915 0.083663
0.389785 0.096797 0.103248
0.481903 0.109567 0.128297
0.535738 0.118660 0.154443
0.555816 0.122249 0.176911
0.560601 0.123792 0.189925
0.560633 0.125962 0.200186
0.584478 0.131121 0.201201
0.590168 0.132287 0.201249
0.040544 0.043990 0.041242
0.042994 0.045596 0.040351
0.059497 0.049831 0.043242
0.115253 0.066197 0.049962
0.166886 0.083251 0.057368
0.222159 0.096939 0.067421
0.279538 0.104781 0.079421
0.340210 0.114672 0.092027
0.430827 0.125890 0.108634
0.524049 0.135092 0.130959
0.590338 0.142351 0.158453
0.629425 0.148809 0.182842
0.648588 0.154607 0.202329
0.654409 0.156488 0.210360
0.678186 0.162548 0.207883
0.686210 0.164894 0.207502
0.034854 0.073174 0.043373
0.037125 0.075745 0.039881
0.062063 0.091079 0.046865
0.109775 0.106131 0.058971
0.170645 0.126304 0.068933
0.232193 0.138913 0.079631
0.290855 0.146460 0.090461
0.349980 0.156108 0.102572
0.429523 0.168201 0.118996
0.514500 0.176213 0.135708
0.585822 0.186380 0.156204
0.655812 0.197822 0.181867
0.711346 0.207326 0.204974
0.727397 0.216012 0.216035
0.736957 0.227486 0.214254
0.739904 0.231575 0.212970
0.042818 0.112157 0.059866
0.044703 0.115765 0.053398
0.065933 0.138099 0.060495
0.115111 0.158447 0.069350
0.173862 0.170733 0.079357
0.238449 0.185266 0.093236
0.296317 0.194556 0.104712
0.348287 0.202772 0.115385
0.411970 0.214403 0.129013
0.480747 0.224065 0.143285
0.551251 0.236391 0.159459
0.627036 0.251318 0.179909
0.705289 0.265203 0.203106
0.747735 0.281051 0.217687
0.753848 0.294210 0.222693
0.754597 0.298455 0.223541
0.052376 0.155298 0.073280
0.054325 0.160095 0.068808
0.072189 0.187611 0.073283
0.117114 0.206637 0.080434
0.179873 0.216494 0.091515
0.240917 0.228800 0.105252
0.298387 0.240481 0.116821
0.351353 0.249271 0.127798
0.399907 0.258774 0.138034
0.461241 0.268646 0.150857
0.521868 0.282139 0.165797
0.593866 0.296867 0.183326
0.672248 0.318083 0.205742
0.725993 0.340781 0.226534
0.746150 0.360292 0.240625
0.749661 0.367216 0.244550
0.067847 0.209312 0.085689
0.070291 0.213531 0.081343
0.083640 0.241402 0.084394
0.121810 0.256189 0.091161
0.180323 0.260185 0.100796
0.244224 0.271893 0.114486
0.303231 0.284691 0.128256
0.356169 0.295286 0.139675
0.405541 0.305037 0.150259
0.453861 0.313263 0.160196
0.510466 0.323692 0.173490
0.571841 0.338254 0.189835
0.644674 0.361757 0.212694
0.717513 0.400819 0.245552
0.745584 0.429031 0.267738
0.752926 0.438635 0.274545
0.083912 0.267148 0.097964
0.087207 0.269917 0.095869
0.096020 0.291772 0.098267
0.123972 0.310171 0.103009
0.179590 0.310585 0.112730
0.245080 0.314382 0.124279
0.308947 0.327633 0.139898
0.365960 0.340739 0.153777
0.416514 0.355593 0.166534
0.461524 0.363166 0.176297
0.509452 0.370100 0.186956
0.563657 0.384044 0.202075
0.633726 0.412710 0.226782
0.714060 0.464560 0.270373
0.766073 0.505848 0.310845
0.773440 0.517506 0.321932
0.100993 0.321754 0.117458
0.104093 0.324787 0.114504
0.109831 0.338943 0.115602
0.129513 0.357688 0.118960
0.176933 0.366389 0.126261
0.243885 0.365226 0.137727
0.310360 0.370918 0.151279
0.373386 0.385678 0.167669
0.428300 0.404920 0.182558
0.471866 0.416529 0.193929
0.513570 0.424183 0.204455
0.563750 0.440703 0.219901
0.637896 0.475353 0.250299
0.740053 0.541080 0.317584
0.789249 0.586666 0.374955
0.797537 0.600339 0.391809
0.116023 0.369716 0.131694
0.119129 0.371450 0.128962
0.122869 0.383751 0.129438
0.139375 0.403871 0.133468
0.180963 0.416580 0.141022
0.245750 0.412527 0.150796
0.314967 0.418879 0.165494
0.378222 0.433235 0.180804
0.437726 0.454713 0.197743
0.491434 0.477550 0.215618
0.529371 0.486940 0.226344
0.581975 0.506561 0.246317
0.665162 0.549292 0.292793
0.768319 0.620380 0.387484
0.815555 0.673476 0.469678
0.820699 0.691223 0.491240
0.132139 0.422500 0.142534
0.135053 0.422405 0.139621
0.138423 0.433925 0.142043
0.150561 0.456124 0.147468
0.187683 0.470935 0.156593
0.249288 0.459072 0.163338
0.323185 0.464681 0.178897
0.390331 0.482504 0.196288
0.449980 0.505665 0.213684
0.504085 0.533671 0.236041
0.562948 0.561234 0.262532
0.625269 0.587588 0.293803
0.713324 0.637345 0.364761
0.810414 0.710376 0.497929
0.843963 0.767191 0.589714
0.851488 0.785782 0.617915
0.151589 0.486629 0.156495
0.155151 0.485441 0.155923
0.159355 0.498927 0.161027
0.169094 0.522361 0.167446
0.203924 0.545653 0.178345
0.265145 0.536696 0.187141
0.341179 0.538361 0.202686
0.410878 0.556454 0.222839
0.474005 0.578803 0.245489
0.535579 0.607940 0.272764
0.608133 0.645339 0.320773
0.674997 0.676275 0.369489
0.767536 0.730603 0.474973
0.845737 0.798560 0.622684
0.874775 0.842515 0.704453
0.882371 0.856431 0.728615
0.178637 0.571835 0.183126
0.182412 0.570512 0.182368
0.190353 0.595558 0.191045
0.201336 0.623059 0.200389
0.233065 0.655317 0.214428
0.300964 0.671436 0.234980
0.381290 0.683167 0.263896
0.458804 0.689117 0.299771
0.539778 0.715697 0.352106
0.616199 0.742270 0.400472
0.691983 0.770174 0.468147
0.762749 0.794367 0.541762
0.818835 0.816154 0.606723
0.880275 0.865548 0.735089
0.898900 0.887704 0.783237
0.902671 0.894224 0.795137
0.222095 0.695749 0.230403
0.225487 0.693330 0.228761
0.236790 0.720732 0.244163
0.253571 0.750155 0.275723
0.282338 0.798526 0.306923
0.356901 0.825911 0.372459
0.475418 0.841921 0.460727
0.604956 0.854274 0.571118
0.709943 0.866954 0.665713
0.771458 0.871833 0.703296
0.816540 0.870022 0.719014
0.854762 0.878387 0.739512
0.885587 0.890169 0.771928
0.901284 0.897181 0.794428
0.908019 0.903211 0.811918
0.908905 0.904332 0.814532
0.259424 0.773710 0.294187
0.262536 0.772642 0.290517
0.281457 0.791137 0.339713
0.312702 0.811543 0.414368
0.358482 0.840563 0.475189
0.471862 0.872070 0.573218
0.600646 0.882844 0.655563
0.712969 0.888304 0.727564
0.787949 0.893854 0.771341
0.830350 0.891283 0.784615
0.861708 0.888612 0.782343
0.887225 0.895395 0.791771
0.904579 0.903024 0.810213
0.908717 0.904590 0.815285
0.909160 0.904663 0.816412
0.909200 0.904700 0.816576
0.270693 0.788526 0.322745
0.273566 0.787865 0.317248
0.298315 0.804439 0.381943
0.334745 0.823294 0.469062
0.383798 0.848437 0.522004
0.501835 0.875916 0.616070
0.625805 0.884767 0.684934
0.733491 0.889812 0.750394
0.806190 0.897819 0.791077
0.841253 0.892786 0.794951
0.867546 0.889221 0.783585
0.893903 0.898185 0.798313
0.908333 0.904626 0.814940
0.909200 0.904700 0.816553
0.909200 0.904700 0.816651
0.909200 0.904700 0.816576
0.045399 0.034924 0.045726
0.048403 0.034899 0.045672
0.058589 0.035231 0.046132
0.103105 0.037585 0.054546
0.156644 0.044099 0.068125
0.217450 0.056891 0.085294
0.278536 0.068183 0.101413
0.340208 0.080081 0.119275
0.406389 0.093592 0.141124
0.470140 0.107121 0.165942
0.521155 0.116492 0.188063
0.544847 0.120275 0.204330
0.538997 0.119900 0.210427
0.554961 0.124584 0.216842
0.578208 0.128974 0.220199
0.590836 0.132110 0.220726
0.043514 0.037857 0.046435
0.047426 0.037611 0.048299
0.060875 0.037435 0.048468
0.107075 0.039965 0.055006
0.164027 0.047002 0.065762
0.229196 0.060865 0.082220
0.291852 0.072598 0.098602
0.350661 0.084217 0.116790
0.414654 0.097767 0.139301
0.478281 0.110965 0.163804
0.527155 0.119989 0.186032
0.551006 0.124161 0.203180
0.545057 0.123808 0.209761
0.559246 0.128529 0.216989
0.589242 0.136091 0.220713
0.601246 0.139415 0.221095
0.040417 0.044179 0.046565
0.042717 0.045215 0.047521
0.058247 0.047987 0.050364
0.116632 0.051074 0.051585
0.174452 0.059456 0.053204
0.236722 0.073508 0.066339
0.292440 0.082487 0.080827
0.353386 0.092396 0.096166
0.421677 0.104346 0.115595
0.497323 0.115268 0.140651
0.549967 0.122931 0.164918
0.568960 0.126469 0.184769
0.568452 0.126771 0.196063
0.565920 0.127649 0.203785
0.591157 0.133203 0.204154
0.596746 0.134424 0.204101
0.034899 0.071729 0.056595
0.036617 0.073166 0.055123
0.041002 0.079399 0.047400
0.107057 0.100722 0.066967
0.179022 0.116695 0.072396
0.245196 0.125962 0.080319
0.305310 0.132706 0.092100
0.366683 0.141918 0.104550
0.451396 0.152580 0.120961
0.541345 0.159526 0.139264
0.605826 0.167395 0.162278
0.663628 0.175880 0.188762
0.695564 0.184381 0.208661
0.705336 0.190275 0.216961
0.721416 0.200256 0.212436
0.726084 0.203792 0.211672
0.043673 0.108711 0.077203
0.045434 0.110892 0.074798
0.046558 0.119732 0.061341
0.099740 0.155626 0.070480
0.171907 0.169181 0.079781
0.240812 0.180273 0.093221
0.301844 0.187497 0.104453
0.357626 0.194694 0.115373
0.427857 0.205819 0.130209
0.500359 0.214815 0.145081
0.573031 0.225458 0.161745
0.646031 0.239881 0.183686
0.719303 0.251370 0.206617
0.751743 0.265631 0.219144
0.753984 0.277945 0.221805
0.754933 0.282007 0.221953
0.054507 0.150644 0.090499
0.056486 0.153456 0.087670
0.056536 0.164280 0.073523
0.098206 0.204827 0.081039
0.170867 0.217294 0.091130
0.241319 0.228529 0.105988
0.301634 0.237915 0.117641
0.356195 0.245671 0.128743
0.407130 0.254708 0.139386
0.472770 0.264369 0.152860
0.534725 0.277281 0.167893
0.607735 0.290894 0.185559
0.684082 0.311257 0.207277
0.733975 0.331877 0.226344
0.749550 0.349799 0.238607
0.751608 0.355706 0.241604
0.069804 0.204705 0.102536
0.072275 0.207954 0.100385
0.071918 0.217705 0.084533
0.104127 0.256229 0.089807
0.168435 0.261566 0.099894
0.239838 0.271165 0.113767
0.303575 0.284293 0.128623
0.357282 0.293397 0.139807
0.408187 0.302754 0.150693
0.458142 0.310690 0.160910
0.517074 0.320985 0.174652
0.579784 0.335141 0.191080
0.652562 0.358098 0.213708
0.723552 0.395568 0.245508
0.747382 0.421379 0.265625
0.754180 0.430257 0.271874
0.085757 0.263919 0.115542
0.088466 0.267230 0.112045
0.088473 0.273940 0.097617
0.109799 0.307828 0.101304
0.166296 0.313082 0.111079
0.237427 0.314202 0.122829
0.305719 0.327121 0.139043
0.365614 0.340449 0.153755
0.417185 0.354579 0.166545
0.463431 0.361890 0.176389
0.512389 0.368233 0.187020
0.568137 0.381770 0.202412
0.638414 0.409773 0.227165
0.716942 0.460256 0.269803
0.765761 0.499935 0.308347
0.772596 0.510972 0.318561
0.102636 0.320109 0.131370
0.105721 0.322739 0.128805
0.104927 0.327096 0.116025
0.119473 0.350302 0.118656
0.163545 0.368314 0.124699
0.234399 0.366693 0.136552
0.305558 0.370852 0.150218
0.371531 0.385493 0.167285
0.428631 0.405191 0.182843
0.473212 0.416222 0.194287
0.515505 0.423247 0.204801
0.565969 0.439031 0.220040
0.640538 0.473094 0.250398
0.742133 0.538168 0.316521
0.788721 0.582126 0.371746
0.796640 0.595201 0.387866
0.118430 0.371120 0.145916
0.121621 0.372654 0.143802
0.119754 0.372952 0.130333
0.130640 0.396337 0.132326
0.168695 0.416935 0.140110
0.234722 0.414996 0.149547
0.308931 0.419412 0.164512
0.374912 0.432914 0.180205
0.436604 0.454506 0.197523
0.491654 0.477780 0.215796
0.530040 0.486501 0.226455
0.582962 0.505616 0.246529
0.666038 0.547615 0.292533
0.768679 0.617801 0.385511
0.814509 0.669678 0.465397
0.819475 0.686725 0.486074
0.135148 0.426726 0.156946
0.138486 0.427674 0.154736
0.135761 0.424380 0.140993
0.144050 0.447641 0.145817
0.176338 0.470893 0.155062
0.238035 0.464323 0.162895
0.315285 0.463973 0.177126
0.386224 0.481812 0.195499
0.448055 0.505141 0.213130
0.503018 0.533308 0.235676
0.563175 0.561489 0.262734
0.625454 0.587050 0.293688
0.713494 0.636242 0.364431
0.810451 0.708516 0.496316
0.843108 0.764625 0.586036
0.850409 0.782701 0.613381
0.155498 0.496406 0.167976
0.159034 0.496877 0.166283
0.155885 0.488103 0.156884
0.164373 0.513090 0.165300
0.192709 0.543891 0.175946
0.253980 0.542404 0.186722
0.332233 0.537740 0.200609
0.406473 0.556898 0.222126
0.471165 0.578585 0.244796
0.533710 0.607354 0.272127
0.607550 0.645520 0.320780
0.675394 0.676821 0.370076
0.767621 0.730304 0.474708
0.845787 0.798103 0.621866
0.874339 0.841535 0.702468
0.881779 0.855145 0.726069
0.186050 0.595325 0.194216
0.189947 0.595250 0.193445
0.183769 0.575061 0.183922
0.196865 0.614196 0.197602
0.221837 0.650280 0.211206
0.288110 0.672962 0.232005
0.371768 0.684170 0.261283
0.453038 0.690969 0.298522
0.535290 0.715042 0.350344
0.614079 0.742196 0.400160
0.690433 0.770030 0.466877
0.762083 0.794397 0.541082
0.818778 0.816187 0.606361
0.880074 0.865274 0.734268
0.898675 0.887408 0.782468
0.902387 0.893798 0.794181
0.235276 0.723822 0.254282
0.238555 0.721941 0.252411
0.227512 0.698445 0.231609
0.247621 0.739502 0.265707
0.273801 0.788828 0.300870
0.341766 0.823912 0.363350
0.461503 0.841243 0.452258
0.596267 0.854591 0.565223
0.705607 0.866896 0.663248
0.769232 0.872242 0.702629
0.814927 0.869683 0.717199
0.854094 0.878019 0.738040
0.885297 0.889876 0.770934
0.901032 0.896887 0.793615
0.907837 0.902997 0.811288
0.908750 0.904148 0.813951
0.281987 0.790098 0.356534
0.284579 0.788658 0.352079
0.265455 0.776046 0.297974
0.301933 0.804073 0.391768
0.345499 0.833099 0.460808
0.451844 0.867583 0.557472
0.584369 0.881900 0.644728
0.703049 0.887707 0.720726
0.783275 0.893551 0.768046
0.828140 0.891331 0.783178
0.860345 0.888227 0.781032
0.886601 0.895081 0.790666
0.904271 0.902800 0.809386
0.908621 0.904439 0.814786
0.909094 0.904554 0.815966
0.909146 0.904593 0.816126
0.296494 0.801217 0.397568
0.299007 0.800060 0.391617
0.277138 0.791329 0.326823
0.321905 0.816278 0.441526
0.370144 0.842392 0.510387
0.480797 0.871829 0.600428
0.610025 0.883920 0.675597
0.723413 0.889162 0.743647
0.801390 0.897368 0.787712
0.839210 0.892969 0.793978
0.866385 0.888960 0.782719
0.893177 0.897756 0.797104
0.908036 0.904338 0.814184
0.909143 0.904588 0.816107
0.909143 0.904585 0.816200
0.909141 0.904582 0.816147
0.047116 0.038420 0.064002
0.050287 0.037716 0.064827
0.064907 0.035910 0.066326
0.092322 0.035546 0.070279
0.144482 0.044602 0.088872
0.204018 0.056099 0.107578
0.265209 0.066966 0.122923
0.330699 0.079619 0.140674
0.398476 0.092674 0.162889
0.460288 0.105340 0.185122
0.511515 0.115207 0.204620
0.536098 0.119837 0.218069
0.529036 0.120651 0.225012
0.547573 0.126258 0.234175
0.590194 0.136785 0.239725
0.604748 0.140447 0.241052
0.045487 0.042440 0.068678
0.049518 0.040697 0.071081
0.064853 0.038264 0.071385
0.094814 0.037719 0.073674
0.149256 0.047145 0.090810
0.213329 0.060145 0.110440
0.275749 0.071654 0.126098
0.338288 0.083422 0.142800
0.403376 0.095757 0.163907
0.463944 0.108090 0.185672
0.515028 0.118082 0.204804
0.540668 0.123384 0.218872
0.532762 0.124149 0.225582
0.552706 0.130643 0.235509
0.599249 0.143266 0.241072
0.614992 0.147697 0.242359
0.040516 0.053892 0.072526
0.043238 0.053651 0.074216
0.059408 0.050383 0.082270
0.101813 0.047643 0.084540
0.170344 0.055558 0.095364
0.252777 0.071056 0.112225
0.316096 0.081946 0.128117
0.369391 0.090842 0.142798
0.426884 0.101159 0.162851
0.483123 0.112607 0.183745
0.530283 0.121747 0.202504
0.551945 0.126116 0.216790
0.541495 0.125533 0.221770
0.560430 0.131560 0.230668
0.602631 0.142986 0.234733
0.616883 0.147148 0.235327
0.036550 0.071445 0.077949
0.038361 0.072679 0.078547
0.042587 0.078023 0.081603
0.100530 0.088868 0.091864
0.197963 0.100105 0.098596
0.295382 0.105816 0.105893
0.380422 0.113697 0.120598
0.433299 0.122154 0.136436
0.494676 0.127629 0.154224
0.552696 0.135690 0.175782
0.597655 0.141226 0.198250
0.609691 0.142527 0.206775
0.603503 0.140895 0.215757
0.603426 0.140521 0.217409
0.626098 0.145581 0.215215
0.628442 0.145784 0.213946
0.045803 0.105278 0.098926
0.047454 0.106993 0.098098
0.048584 0.113047 0.094647
0.072260 0.142254 0.097154
0.170141 0.162935 0.102540
0.262114 0.169444 0.109322
0.336423 0.174673 0.119757
0.403462 0.181092 0.131579
0.481368 0.191392 0.146861
0.561597 0.196957 0.161431
0.632130 0.203677 0.179201
0.699103 0.214418 0.205355
0.742083 0.220814 0.223780
0.750062 0.231411 0.227322
0.755129 0.243228 0.222919
0.755256 0.246528 0.221485
0.056766 0.144358 0.112238
0.058933 0.146909 0.111526
0.059946 0.154241 0.106051
0.071752 0.190151 0.098660
0.146443 0.225931 0.099833
0.241638 0.230686 0.111220
0.314025 0.234879 0.123548
0.378130 0.240454 0.136285
0.439765 0.249272 0.148664
0.516878 0.257887 0.163555
0.582898 0.267763 0.178368
0.654333 0.278643 0.197004
0.721355 0.295079 0.217245
0.756951 0.313235 0.231217
0.760408 0.328637 0.237536
0.759671 0.332571 0.238293
0.071440 0.198079 0.124877
0.074174 0.201037 0.123524
0.075029 0.208208 0.116303
0.081294 0.239624 0.102477
0.137277 0.270244 0.104898
0.228511 0.275076 0.116169
0.305376 0.284824 0.132087
0.365217 0.291208 0.144224
0.424066 0.301424 0.157375
0.481250 0.309108 0.169299
0.546779 0.317567 0.183150
0.611924 0.330749 0.199693
0.681018 0.353375 0.221307
0.738688 0.385755 0.248092
0.754254 0.407186 0.263882
0.757832 0.413934 0.267871
0.088522 0.259290 0.141082
0.091402 0.261918 0.139169
0.091403 0.267640 0.129545
0.094585 0.290180 0.107145
0.135715 0.322429 0.109824
0.220552 0.320344 0.122862
0.298724 0.327932 0.138374
0.365062 0.340118 0.154702
