luts/6.cube
LUT_3D_SIZE 6
-0.094093 -0.092818 -0.093388
0.090267 -0.092692 -0.093756
0.288338 -0.066002 -0.083387
0.513329 -0.022649 -0.056786
0.743041 -0.002320 -0.032589
0.878820 -0.008722 -0.029559
-0.086382 0.067488 -0.095075
0.094616 0.076501 -0.091276
0.316222 0.123062 -0.070226
0.545483 0.169777 -0.043117
0.760508 0.211366 -0.018331
0.893289 0.217041 -0.014356
-0.082327 0.218417 -0.064377
0.101160 0.247349 -0.055563
0.349812 0.291104 -0.035867
0.594821 0.346360 -0.001920
0.792302 0.415715 0.034152
0.928651 0.492530 0.065059
-0.056155 0.373517 0.009543
0.123113 0.416206 0.023400
0.390824 0.538157 0.036412
0.649402 0.572803 0.082833
0.837921 0.702983 0.171416
0.976991 0.765818 0.231722
0.012468 0.661962 0.141969
0.204728 0.728533 0.153896
0.509243 0.839208 0.175422
0.762526 0.851359 0.276754
0.861570 0.851015 0.318453
0.988837 0.886312 0.393512
0.083453 0.911597 0.249761
0.268803 0.940339 0.256554
0.606885 0.969848 0.332646
0.805361 0.976368 0.389370
0.895172 0.973206 0.405220
0.988996 0.973097 0.405519
-0.091209 -0.092299 0.064155
0.083400 -0.094362 0.065332
0.315716 -0.077640 0.101030
0.550809 -0.041468 0.143985
0.744208 -0.034671 0.206771
0.838621 -0.049363 0.220441
-0.089130 0.066857 0.068593
0.082611 0.074136 0.070576
0.331787 0.092107 0.078617
0.562045 0.114455 0.091729
0.769844 0.125045 0.107411
0.897583 0.136690 0.150660
-0.084661 0.208624 0.116175
0.060641 0.225838 0.082939
0.347177 0.289329 0.097764
0.597154 0.335723 0.123795
0.794253 0.393307 0.148987
0.928062 0.453987 0.193072
-0.053483 0.377721 0.193956
0.079157 0.381287 0.140948
0.366665 0.534818 0.157723
0.647427 0.572495 0.199376
0.837789 0.696942 0.274434
0.975810 0.759348 0.347911
0.021613 0.678195 0.330037
0.141415 0.671683 0.257136
0.470059 0.838740 0.271222
0.758952 0.851539 0.370641
0.861906 0.851314 0.408994
0.989369 0.885708 0.488794
0.097957 0.915322 0.454093
0.207507 0.918650 0.358759
0.563696 0.969311 0.401935
0.800287 0.976569 0.472320
0.893744 0.973310 0.488998
0.989159 0.973188 0.501816
-0.094958 -0.103064 0.181856
0.070046 -0.106414 0.185155
0.233221 -0.094526 0.210320
0.454779 -0.074218 0.273312
0.597051 -0.069850 0.294195
0.699496 -0.074143 0.278941
-0.102735 0.066600 0.200132
0.060655 0.062201 0.221381
0.276418 0.064591 0.244830
0.481496 0.067965 0.280379
0.614772 0.062498 0.290759
0.723571 0.081540 0.278430
-0.087043 0.200322 0.226561
0.054997 0.207423 0.231895
0.293172 0.278417 0.273585
0.568338 0.291266 0.282223
0.811374 0.285956 0.272033
0.922863 0.319666 0.276165
-0.049061 0.387269 0.318343
0.082914 0.391655 0.315183
0.253808 0.520529 0.304970
0.615992 0.561540 0.304644
0.839016 0.654033 0.351081
0.969002 0.716831 0.429324
0.033142 0.687037 0.487618
0.156057 0.691752 0.476988
0.266509 0.790886 0.393208
0.737975 0.856722 0.461582
0.865947 0.855911 0.481976
0.990402 0.882419 0.556375
0.112673 0.910993 0.615758
0.227726 0.912779 0.602471
0.312378 0.945049 0.473171
0.775702 0.977045 0.508711
0.887491 0.975911 0.510099
0.990518 0.974487 0.558023
-0.107711 -0.106232 0.290129
0.064398 -0.106946 0.300939
0.202727 -0.098846 0.313436
0.379642 -0.084714 0.346928
0.523275 -0.080459 0.351346
0.645208 -0.080625 0.361864
-0.105395 0.068653 0.309331
0.044548 0.046557 0.324756
0.212286 0.046321 0.345773
0.380958 0.050122 0.345460
0.517904 0.050126 0.344140
0.610939 0.067194 0.341831
-0.084491 0.212937 0.345528
0.053926 0.211894 0.350872
0.226765 0.257065 0.430555
0.478087 0.248295 0.428645
0.665282 0.210594 0.420374
0.811992 0.257493 0.450064
-0.045956 0.392614 0.423863
0.085036 0.395293 0.426605
0.218352 0.472648 0.493880
0.537213 0.533015 0.522036
0.810663 0.538639 0.487050
0.947342 0.587103 0.533700
0.043483 0.688036 0.634857
0.165494 0.691267 0.634073
0.286458 0.759190 0.681066
0.637305 0.847813 0.636255
0.860910 0.850214 0.619842
0.986956 0.867229 0.685277
0.109068 0.894511 0.728633
0.225190 0.895795 0.724645
0.324820 0.923970 0.726539
0.689143 0.970537 0.698276
0.874700 0.975407 0.671478
0.987824 0.972022 0.718440
-0.106232 -0.104185 0.430184
0.073683 -0.105630 0.432420
0.197465 -0.101645 0.421136
0.394998 -0.086003 0.450177
0.483786 -0.086485 0.424319
0.626418 -0.082761 0.461470
-0.106884 0.074208 0.435229
0.037003 0.035687 0.443047
0.184181 0.035408 0.429785
0.376371 0.044841 0.437226
0.471179 0.043967 0.416258
0.590932 0.065336 0.445936
-0.079296 0.242107 0.476015
0.053818 0.230355 0.475455
0.169832 0.221423 0.543825
0.424893 0.202633 0.567043
0.554311 0.165208 0.515454
0.729351 0.215204 0.587023
-0.028384 0.456026 0.617413
0.100854 0.457142 0.623626
0.199156 0.469088 0.685889
0.456763 0.491258 0.776415
0.748412 0.506264 0.724518
0.908255 0.577978 0.772046
0.053204 0.697648 0.746219
0.174071 0.699982 0.748384
0.283588 0.755470 0.791334
0.528131 0.792635 0.823386
0.823849 0.815910 0.807378
0.973139 0.827391 0.812990
0.096700 0.875531 0.815654
0.213791 0.876015 0.814307
0.303450 0.902934 0.820756
0.632951 0.953790 0.852673
0.849546 0.972955 0.837763
0.986600 0.971903 0.839225
-0.107803 -0.105872 0.552040
0.082418 -0.105641 0.548148
0.216155 -0.101863 0.529554
0.404873 -0.088261 0.550290
0.513263 -0.085275 0.545243
0.616087 -0.084161 0.550557
-0.107936 0.080931 0.553970
0.045910 0.045013 0.550959
0.182580 0.044609 0.526991
0.374810 0.052582 0.530427
0.497406 0.049789 0.540394
0.582983 0.064555 0.539314
-0.070820 0.276714 0.625395
0.071997 0.260203 0.622470
0.162998 0.210927 0.644311
0.404235 0.198639 0.715970
0.594775 0.201690 0.682249
0.709348 0.211849 0.693057
0.005007 0.550709 0.828624
0.128760 0.545866 0.832932
0.236542 0.524164 0.860363
0.472891 0.517388 0.921896
0.775200 0.557668 0.879960
0.912072 0.602477 0.891126
0.086896 0.775384 0.896346
0.203073 0.773710 0.896769
0.333147 0.803081 0.921181
0.568297 0.812705 0.948967
0.827860 0.823949 0.953718
0.966246 0.825500 0.948964
0.095931 0.874859 0.902065
0.213298 0.875296 0.902342
0.288654 0.896110 0.911867
0.609798 0.949807 0.958695
0.822560 0.963568 0.965001
0.986239 0.972453 0.968063
