luts/6.cube
LUT_3D_SIZE 16
-0.094093 -0.092818 -0.093388
-0.079653 -0.092818 -0.093388
0.035134 -0.092552 -0.093388
0.090267 -0.092692 -0.093756
0.152577 -0.090282 -0.095148
0.219231 -0.082068 -0.091591
0.288338 -0.066002 -0.083387
0.360802 -0.049685 -0.074571
0.438627 -0.035415 -0.065168
0.513329 -0.022649 -0.056786
0.594781 -0.012923 -0.048644
0.671685 -0.007148 -0.040539
0.743041 -0.002320 -0.032589
0.802816 -0.004367 -0.028506
0.848772 -0.008629 -0.029494
0.878820 -0.008722 -0.029559
-0.094093 -0.078628 -0.093388
-0.079653 -0.078628 -0.093388
0.035134 -0.082824 -0.093388
0.090267 -0.086444 -0.093756
0.152577 -0.083880 -0.095148
0.219231 -0.075044 -0.091591
0.288338 -0.058452 -0.083388
0.360802 -0.041749 -0.074571
0.438627 -0.027150 -0.065168
0.513329 -0.014208 -0.056786
0.594781 -0.004193 -0.048644
0.671685 0.002271 -0.040539
0.743041 0.008343 -0.032589
0.802816 0.008036 -0.028506
0.848772 0.005194 -0.029494
0.878820 0.004729 -0.029559
-0.093074 0.031686 -0.093722
-0.083189 0.031686 -0.093722
0.035260 0.032108 -0.093404
0.090266 -0.050034 -0.093756
0.152577 -0.046039 -0.095148
0.219231 -0.030897 -0.091591
0.288338 -0.007415 -0.083388
0.360802 0.016362 -0.074572
0.438627 0.039706 -0.065168
0.513329 0.062289 -0.056786
0.595728 0.101313 -0.047976
0.674681 0.118077 -0.039110
0.745386 0.133969 -0.032644
0.805200 0.141690 -0.028773
0.851160 0.144539 -0.028295
0.881142 0.142589 -0.028604
-0.086382 0.067488 -0.095075
-0.080081 0.067488 -0.095075
-0.043305 0.067488 -0.095075
0.094616 0.076501 -0.091276
0.159235 0.084613 -0.088130
0.236059 0.103915 -0.080242
0.316222 0.123062 -0.070226
0.391009 0.139287 -0.061741
0.466188 0.154434 -0.053248
0.545483 0.169777 -0.043117
0.623791 0.183680 -0.033504
0.697745 0.198925 -0.024648
0.760508 0.211366 -0.018331
0.817118 0.215201 -0.014921
0.863523 0.219236 -0.013927
0.893289 0.217041 -0.014356
-0.081509 0.112589 -0.091730
-0.075066 0.112589 -0.091730
-0.036931 0.112589 -0.091730
0.095352 0.128694 -0.086225
0.167535 0.138601 -0.078274
0.252085 0.158246 -0.069003
0.333230 0.176835 -0.058456
0.409662 0.194161 -0.048697
0.488528 0.212419 -0.040667
0.566759 0.228840 -0.030320
0.641176 0.243728 -0.020183
0.709228 0.258523 -0.011664
0.770422 0.271738 -0.005234
0.826022 0.285623 -0.000821
0.872578 0.294984 0.001291
0.902557 0.291759 0.000628
-0.084137 0.165533 -0.079654
-0.076988 0.165533 -0.079654
-0.032067 0.165533 -0.079654
0.097347 0.185386 -0.073134
0.177585 0.200934 -0.064870
0.260669 0.212266 -0.057437
0.343570 0.233436 -0.047600
0.420427 0.251614 -0.037783
0.501274 0.271681 -0.026967
0.581774 0.287926 -0.016224
0.656164 0.300732 -0.006846
0.723555 0.317358 0.002118
0.781198 0.336881 0.009013
0.836412 0.366998 0.019551
0.883956 0.387338 0.026203
0.913749 0.381971 0.024432
-0.082327 0.218417 -0.064377
-0.074545 0.218417 -0.064377
-0.021912 0.218417 -0.064377
0.101160 0.247349 -0.055563
0.180644 0.268624 -0.052159
0.274747 0.283590 -0.042090
0.349812 0.291104 -0.035867
0.431040 0.312118 -0.024832
0.514688 0.331737 -0.013195
0.594821 0.346360 -0.001920
0.667633 0.358883 0.008351
0.733476 0.381912 0.020603
0.792302 0.415715 0.034152
0.849511 0.466083 0.054504
0.899029 0.499395 0.067921
0.928651 0.492530 0.065059
-0.075219 0.265895 -0.044159
-0.066961 0.265895 -0.044159
-0.006515 0.265895 -0.044159
0.107493 0.310658 -0.033917
0.181227 0.338994 -0.034711
0.285575 0.359407 -0.022533
0.368295 0.367668 -0.015987
0.441969 0.374183 -0.007646
0.528681 0.394037 0.005334
0.608440 0.408338 0.017022
0.682151 0.423536 0.029265
0.745536 0.458742 0.047283
0.806644 0.514356 0.072412
0.865364 0.574749 0.099945
0.916167 0.611397 0.119670
0.945854 0.604677 0.116089
-0.066417 0.317498 -0.019051
-0.057770 0.317498 -0.019051
0.012145 0.317498 -0.019051
0.116129 0.365906 -0.006564
0.184997 0.406752 -0.006792
0.285399 0.433210 0.000754
0.383280 0.450404 0.009419
0.467553 0.459436 0.018881
0.545538 0.466364 0.029524
0.626382 0.484435 0.045539
0.698756 0.507964 0.063491
0.761341 0.551862 0.087202
0.822884 0.617328 0.121970
0.881343 0.670023 0.152286
0.932264 0.701644 0.175431
0.962152 0.695830 0.171217
-0.056155 0.373517 0.009543
-0.047300 0.373517 0.009543
0.032873 0.373517 0.009543
0.123113 0.416206 0.023400
0.186568 0.473062 0.022959
0.284380 0.511244 0.025056
0.390824 0.538157 0.036412
0.490441 0.556589 0.051941
0.575080 0.561987 0.065583
0.649402 0.572803 0.082833
0.716469 0.603234 0.106493
0.776844 0.647568 0.134703
0.837921 0.702983 0.171416
0.896127 0.745289 0.208391
0.947091 0.771478 0.237356
0.976991 0.765818 0.231722
-0.042929 0.439414 0.043003
-0.033796 0.439414 0.043003
0.074344 0.441368 0.044024
0.138000 0.485427 0.059299
0.198435 0.554458 0.057951
0.291216 0.600916 0.053401
0.405403 0.636241 0.067198
0.520280 0.665001 0.091309
0.617879 0.679964 0.117122
0.686600 0.681855 0.137008
0.734929 0.691356 0.153739
0.790688 0.725656 0.182055
0.848883 0.766907 0.218579
0.905782 0.800537 0.265725
0.954205 0.820978 0.300335
0.985301 0.817064 0.294816
-0.020693 0.534031 0.087768
-0.011003 0.534031 0.087768
0.103471 0.537565 0.089625
0.165321 0.592438 0.105328
0.222022 0.667084 0.096708
0.317537 0.716540 0.091701
0.444389 0.746532 0.111936
0.563906 0.764699 0.142589
0.659805 0.775861 0.175372
0.726196 0.781615 0.199700
0.769600 0.782987 0.215755
0.802670 0.784751 0.227386
0.856914 0.814045 0.267684
0.910479 0.841320 0.325435
0.956751 0.858194 0.361723
0.987756 0.854321 0.355419
0.012468 0.661962 0.141969
0.023133 0.661962 0.141969
0.142956 0.669512 0.144191
0.204728 0.728533 0.153896
0.260541 0.793627 0.133330
0.366946 0.827695 0.134452
0.509243 0.839208 0.175422
0.626342 0.843651 0.212684
0.709900 0.848320 0.252321
0.762526 0.851359 0.276754
0.802504 0.853091 0.294008
0.833425 0.852418 0.306870
0.861570 0.851015 0.318453
0.912860 0.875021 0.374599
0.957609 0.889999 0.396420
0.988837 0.886312 0.393512
0.060532 0.807350 0.208258
0.072307 0.807350 0.208258
0.195540 0.817857 0.215658
0.250732 0.856097 0.217595
0.298213 0.886357 0.165583
0.423898 0.899779 0.192790
0.580876 0.900238 0.273190
0.684081 0.902431 0.317155
0.747827 0.906070 0.346561
0.793271 0.907561 0.367791
0.827444 0.907173 0.378859
0.856169 0.905991 0.384606
0.884699 0.904841 0.392365
0.913618 0.905042 0.398403
0.957723 0.919655 0.405088
0.988979 0.915773 0.404498
0.082038 0.885055 0.247212
0.094811 0.885055 0.247212
0.220724 0.895709 0.259479
0.269223 0.915914 0.253124
0.328322 0.936299 0.209616
0.463670 0.944844 0.251428
0.614832 0.945417 0.333558
0.713007 0.948262 0.367686
0.768035 0.951260 0.380286
0.808811 0.951668 0.389272
0.840008 0.950681 0.392667
0.869572 0.949381 0.401655
0.898776 0.948678 0.405203
0.928309 0.948599 0.405490
0.957723 0.948599 0.405525
0.988996 0.944438 0.405524
0.083453 0.911597 0.249761
0.095854 0.911597 0.249761
0.220313 0.921259 0.261205
0.268803 0.940339 0.256554
0.325959 0.959905 0.214737
0.455126 0.969420 0.248784
0.606885 0.969848 0.332646
0.708467 0.972725 0.369141
0.764630 0.975493 0.380937
0.805361 0.976368 0.389370
0.837107 0.975292 0.392594
0.866294 0.973940 0.401154
0.895172 0.973206 0.405220
0.924401 0.973097 0.405522
0.953535 0.973097 0.405520
0.988996 0.973097 0.405519
-0.094093 -0.092818 -0.079191
-0.079653 -0.092818 -0.079191
0.035134 -0.092552 -0.083653
0.090267 -0.092692 -0.087503
0.152577 -0.090282 -0.088717
0.219231 -0.082068 -0.084505
0.288338 -0.066002 -0.075714
0.360802 -0.049685 -0.066448
0.438627 -0.035415 -0.056665
0.513329 -0.022649 -0.048063
0.594781 -0.012923 -0.039605
0.671685 -0.007148 -0.030809
0.743041 -0.002320 -0.021604
0.802816 -0.004367 -0.015805
0.848772 -0.008629 -0.015385
0.878820 -0.008722 -0.015830
-0.094093 -0.078628 -0.079191
-0.079653 -0.078628 -0.079191
0.035134 -0.078365 -0.079191
0.090267 -0.078504 -0.079554
0.152577 -0.076126 -0.080928
0.219231 -0.068018 -0.077417
0.288338 -0.052161 -0.069321
0.360802 -0.036056 -0.060620
0.438627 -0.021972 -0.051339
0.513329 -0.009361 -0.043054
0.594781 0.000238 -0.035019
0.671685 0.005937 -0.027021
0.743041 0.010694 -0.019183
0.802816 0.008680 -0.015145
0.848772 0.004472 -0.016123
0.878820 0.004378 -0.016189
-0.093074 0.031686 -0.083984
-0.078649 0.031686 -0.079521
0.035260 0.032108 -0.079206
0.090266 -0.039645 -0.079554
0.152577 -0.032284 -0.080928
0.219231 -0.013969 -0.077417
0.288338 0.015064 -0.069321
0.362406 0.065329 -0.059840
0.437656 0.085857 -0.050933
0.514059 0.100275 -0.042261
0.596667 0.112445 -0.033792
0.675334 0.123940 -0.025086
0.745851 0.137206 -0.018918
0.805262 0.142390 -0.015283
0.851115 0.143860 -0.015058
0.881119 0.142245 -0.015306
-0.086382 0.067488 -0.088814
-0.072045 0.067488 -0.080856
-0.032815 0.067488 -0.080856
0.094616 0.076501 -0.077107
0.159521 0.087575 -0.073605
0.237149 0.107302 -0.065541
0.317697 0.126352 -0.055685
0.392191 0.142289 -0.047285
0.467417 0.157293 -0.038993
0.546482 0.172496 -0.028991
0.624416 0.186202 -0.019521
0.698046 0.200821 -0.010911
0.760723 0.212423 -0.004861
0.817171 0.215480 -0.001682
0.863462 0.218936 -0.000818
0.893257 0.216886 -0.001215
-0.081509 0.112589 -0.085319
-0.067237 0.112589 -0.077555
-0.023077 0.112589 -0.077555
0.098917 0.129409 -0.071772
0.167535 0.138601 -0.064274
0.252381 0.159453 -0.054871
0.333645 0.178301 -0.044409
0.409976 0.195844 -0.034768
0.488897 0.214084 -0.026751
0.567203 0.230446 -0.016560
0.641602 0.245120 -0.006623
0.709534 0.259606 0.001699
0.770538 0.272443 0.007960
0.826043 0.285813 0.012218
0.872556 0.294774 0.014217
0.902546 0.291653 0.013583
-0.084137 0.165533 -0.072647
-0.069830 0.165533 -0.065637
-0.014842 0.165533 -0.065637
0.101139 0.186442 -0.058860
0.179409 0.201195 -0.050844
0.260669 0.212266 -0.043708
0.343679 0.234109 -0.033866
0.420597 0.252516 -0.024128
0.501510 0.272698 -0.013401
0.581992 0.288924 -0.002786
0.656338 0.301658 0.006457
0.723681 0.318170 0.015283
0.781286 0.337462 0.022046
0.836430 0.367129 0.032322
0.883928 0.387125 0.038775
0.913739 0.381890 0.037077
-0.082327 0.218417 -0.056839
-0.068045 0.218417 -0.050547
0.001260 0.218417 -0.050547
0.104363 0.248596 -0.041437
0.182957 0.269143 -0.038313
0.275792 0.283730 -0.028455
0.349812 0.291104 -0.022408
0.431105 0.312519 -0.011425
0.514809 0.332304 0.000094
0.594970 0.347013 0.011250
0.667791 0.359562 0.021426
0.733571 0.382548 0.033510
0.792375 0.416220 0.046881
0.849519 0.466141 0.066805
0.899012 0.499279 0.079975
0.928644 0.492484 0.077178
-0.075219 0.265895 -0.036265
-0.061032 0.265895 -0.030593
0.043045 0.268002 -0.029964
0.111002 0.312376 -0.020701
0.184443 0.339690 -0.020879
0.287143 0.359682 -0.009076
0.368814 0.367713 -0.002751
0.441969 0.374183 0.005438
0.528743 0.394315 0.018336
0.608538 0.408779 0.029928
0.682253 0.424004 0.042025
0.745643 0.459338 0.059895
0.806705 0.514752 0.084636
0.865379 0.574846 0.111675
0.916146 0.611270 0.131031
0.945843 0.604612 0.127529
-0.066417 0.317498 -0.010924
-0.052348 0.317498 -0.005820
0.057419 0.320708 -0.004378
0.119000 0.368284 0.006480
0.187692 0.407594 0.006408
0.287165 0.433568 0.013875
0.384141 0.450530 0.022360
0.467882 0.459463 0.031658
0.545538 0.466364 0.042123
0.626443 0.484696 0.058040
0.698828 0.508342 0.075813
0.761411 0.552313 0.099265
0.822931 0.617620 0.133520
0.881358 0.670109 0.163343
0.932245 0.701543 0.186056
0.962144 0.695787 0.181946
-0.056155 0.373517 0.017720
-0.042224 0.373517 0.022411
0.069188 0.376901 0.024042
0.125347 0.419211 0.036178
0.189083 0.474319 0.035555
0.286225 0.511761 0.037885
0.391985 0.538425 0.049116
0.491097 0.556679 0.064352
0.575330 0.562008 0.077767
0.649402 0.572803 0.094746
0.716507 0.603418 0.118188
0.776877 0.647754 0.146046
0.837947 0.703123 0.182260
0.896134 0.745324 0.218695
0.947082 0.771440 0.247217
0.976986 0.765797 0.241673
-0.042929 0.439414 0.051245
-0.029175 0.439414 0.055434
0.083986 0.443295 0.057399
0.140168 0.488717 0.071871
0.200289 0.555751 0.069790
0.293026 0.601548 0.065838
0.406750 0.636616 0.079564
0.521004 0.665159 0.103313
0.618293 0.679998 0.128688
0.686725 0.681869 0.148253
0.734929 0.691356 0.164728
0.790703 0.725736 0.192727
0.848894 0.766974 0.228776
0.905785 0.800555 0.275279
0.954209 0.821032 0.309496
0.985300 0.817053 0.303951
-0.020693 0.534031 0.096292
-0.007229 0.534031 0.099614
0.108450 0.538530 0.101988
0.167061 0.595088 0.117232
0.223135 0.668273 0.107886
0.319179 0.717057 0.103674
0.445596 0.746739 0.123727
0.564565 0.764769 0.153921
0.660131 0.775899 0.186200
0.726342 0.781619 0.210143
0.769651 0.782989 0.225955
0.802670 0.784751 0.237415
0.856919 0.814071 0.277222
0.910477 0.841302 0.334161
0.956750 0.858176 0.369973
0.987755 0.854311 0.363763
0.012468 0.661962 0.151096
0.025483 0.661962 0.153107
0.145683 0.671298 0.155875
0.205651 0.729731 0.164862
0.261325 0.794188 0.144321
0.368021 0.827863 0.145921
0.510013 0.839241 0.186349
0.626756 0.843672 0.223071
0.710046 0.848328 0.262099
0.762604 0.851364 0.286176
0.802542 0.853089 0.303188
0.833442 0.852417 0.315875
0.861570 0.851015 0.327300
0.912860 0.875025 0.382717
0.957609 0.889991 0.404248
0.988837 0.886307 0.401379
0.060532 0.807350 0.218030
0.072912 0.807350 0.218533
0.196112 0.818181 0.226052
0.250936 0.856275 0.227687
0.298357 0.886419 0.176282
0.424135 0.899794 0.203348
0.581075 0.900240 0.282720
0.684161 0.902435 0.326052
0.747874 0.906073 0.355062
0.793302 0.907561 0.376007
0.827455 0.907173 0.386918
0.856179 0.905990 0.392592
0.884702 0.904841 0.400253
0.913618 0.905042 0.406211
0.957723 0.919652 0.412806
0.988979 0.915770 0.412223
0.082038 0.885055 0.257527
0.094128 0.885055 0.256983
0.220185 0.895506 0.268838
0.269058 0.915840 0.262925
0.327970 0.936265 0.219816
0.463348 0.944846 0.260953
0.614697 0.945413 0.342150
0.712935 0.948261 0.375878
0.767986 0.951256 0.388316
0.808788 0.951669 0.397192
0.839993 0.950682 0.400543
0.869557 0.949381 0.409415
0.898769 0.948678 0.412918
0.928305 0.948599 0.413201
0.957723 0.948599 0.413239
0.988996 0.944436 0.413237
0.083453 0.911597 0.259756
0.095529 0.911597 0.259495
0.220043 0.921166 0.270662
0.268728 0.940307 0.266248
0.325861 0.959879 0.224974
0.454906 0.969421 0.258400
0.606890 0.969848 0.341306
0.708422 0.972724 0.377317
0.764605 0.975491 0.388961
0.805358 0.976368 0.397290
0.837099 0.975293 0.400472
0.866285 0.973941 0.408921
0.895168 0.973206 0.412937
0.924397 0.973097 0.413234
0.953533 0.973097 0.413231
0.988996 0.973097 0.413233
-0.093755 -0.092752 0.030933
-0.083864 -0.092752 0.030933
0.034468 -0.092739 0.030880
0.090267 -0.092692 -0.051056
0.152577 -0.090283 -0.050706
0.219231 -0.082068 -0.039969
0.288338 -0.066002 -0.023844
0.360802 -0.049685 -0.006957
0.438627 -0.035415 0.012113
0.513329 -0.022649 0.030990
0.610389 -0.014508 0.071486
0.696560 -0.010985 0.091831
0.772774 -0.009315 0.111815
0.812849 -0.019538 0.137737
0.850730 -0.025798 0.148186
0.881248 -0.025287 0.145873
-0.093755 -0.083022 0.030933
-0.079321 -0.078563 0.030933
0.034468 -0.078551 0.030880
0.090266 -0.078504 -0.040658
0.152577 -0.076126 -0.036889
0.219231 -0.068018 -0.022892
0.288338 -0.052161 -0.000998
0.369509 -0.036503 0.043070
0.458280 -0.022890 0.060142
0.539064 -0.011160 0.072129
0.623307 -0.002558 0.084410
0.702513 0.001210 0.098812
0.773392 0.002874 0.115809
0.812609 -0.006539 0.138722
0.850977 -0.012242 0.147266
0.881375 -0.011854 0.145407
-0.093059 0.031577 0.030753
-0.078634 0.031577 0.030753
0.034393 0.032328 0.030872
0.095385 0.029282 0.028365
0.156920 0.030172 0.024441
0.224438 0.037041 0.027404
0.297421 0.049937 0.034851
0.371635 0.064444 0.042960
0.449248 0.077423 0.051728
0.525473 0.088579 0.060158
0.606617 0.097457 0.068419
0.683604 0.103892 0.076381
0.752797 0.108392 0.084655
0.806933 0.105740 0.091849
0.852538 0.102634 0.092803
0.883570 0.105690 0.098433
-0.086382 0.067488 -0.052324
-0.072045 0.067488 -0.041913
0.034936 0.069001 0.024744
0.092227 0.076052 0.028368
0.160829 0.091562 0.030801
0.241482 0.110014 0.037338
0.321002 0.127209 0.046081
0.394579 0.141549 0.053434
0.469953 0.155294 0.060865
0.549488 0.169663 0.070098
0.627984 0.182034 0.078909
0.701074 0.194259 0.086930
0.763061 0.202691 0.092590
0.818463 0.202606 0.096335
0.864342 0.203668 0.097717
0.895372 0.201461 0.100994
-0.081509 0.112589 -0.047428
-0.067237 0.112589 -0.033656
0.035715 0.114378 0.027599
0.102031 0.130281 0.031327
0.166198 0.138203 0.037617
0.252601 0.160355 0.046394
0.334803 0.178553 0.055761
0.411580 0.195061 0.064627
0.490314 0.212374 0.072037
0.569284 0.228214 0.081573
0.643776 0.242057 0.090950
0.711084 0.255101 0.099013
0.772035 0.266109 0.105230
0.827689 0.276685 0.109582
0.874038 0.283559 0.111943
0.904681 0.280198 0.114536
-0.084137 0.165533 -0.028599
-0.069830 0.165533 -0.011708
0.033478 0.167114 0.037479
0.102404 0.187051 0.044134
0.178658 0.201116 0.050338
0.259187 0.211859 0.056804
0.343657 0.233847 0.065852
0.420726 0.251700 0.074803
0.501691 0.271168 0.084633
0.583021 0.287110 0.094570
0.657551 0.299419 0.103443
0.724701 0.314851 0.111818
0.782298 0.332747 0.118007
0.836640 0.360110 0.127686
0.883971 0.377724 0.133727
0.914057 0.373007 0.135231
-0.082327 0.218417 -0.005885
-0.068045 0.218417 0.016554
0.036536 0.219364 0.052693
0.104434 0.248481 0.060403
0.181250 0.269037 0.062748
0.274457 0.283487 0.071085
0.348983 0.290443 0.076359
0.430475 0.311916 0.086622
0.514153 0.331238 0.097368
0.594701 0.345639 0.107894
0.668231 0.357943 0.117673
0.734188 0.380234 0.129067
0.792805 0.412198 0.141234
0.849569 0.460197 0.159299
0.898506 0.491443 0.171119
0.928293 0.484576 0.170739
-0.075219 0.265895 0.021530
-0.061046 0.265484 0.070545
0.043699 0.267891 0.071307
0.110189 0.311462 0.079624
0.182496 0.339155 0.079156
0.284461 0.359385 0.089093
0.366923 0.367423 0.094960
0.440386 0.373745 0.102336
0.527617 0.393896 0.114555
0.608063 0.408159 0.125460
0.682240 0.423002 0.136913
0.745893 0.457484 0.153621
0.807007 0.511507 0.176194
0.864947 0.570252 0.200662
0.915422 0.606173 0.218616
0.944991 0.599343 0.216809
-0.066417 0.317498 0.054855
-0.052075 0.317733 0.100573
0.052477 0.319908 0.095016
0.117278 0.366330 0.104940
0.184535 0.406739 0.104811
0.283985 0.433237 0.111092
0.381568 0.450343 0.118678
0.466068 0.459407 0.127399
0.543982 0.465775 0.137052
0.625702 0.484030 0.151890
0.698514 0.507483 0.168415
0.761362 0.550894 0.189881
0.822551 0.615047 0.220919
0.880948 0.667406 0.248699
0.931796 0.698903 0.270092
0.961696 0.693085 0.267139
-0.056155 0.373517 0.091734
-0.041765 0.374253 0.129480
0.062467 0.376001 0.121878
0.123822 0.416548 0.133390
0.186102 0.472772 0.133167
0.282391 0.511168 0.134713
0.388369 0.537970 0.144504
0.488359 0.556481 0.158075
0.573919 0.562048 0.170427
0.648367 0.572498 0.186012
0.716124 0.602831 0.207620
0.776743 0.646822 0.233287
0.837795 0.702084 0.266708
0.895846 0.743944 0.300037
0.946728 0.770023 0.326425
0.976639 0.764359 0.321430
-0.042572 0.440221 0.151731
-0.028492 0.440883 0.162974
0.075374 0.442230 0.153262
0.138130 0.485172 0.167176
0.196632 0.553540 0.165924
0.288396 0.600600 0.160949
0.402966 0.636392 0.172846
0.518247 0.665037 0.194226
0.616584 0.680020 0.217336
0.685965 0.681841 0.235391
0.734655 0.691214 0.250619
0.790631 0.725508 0.276503
0.848897 0.766658 0.309875
0.905684 0.800030 0.352331
0.954116 0.820444 0.383329
0.985196 0.816436 0.378232
-0.020097 0.536014 0.201844
-0.006483 0.536473 0.207496
0.096542 0.537384 0.194487
0.163490 0.588459 0.209324
0.219904 0.665132 0.202457
0.313452 0.716118 0.195880
0.440988 0.746605 0.213671
0.561678 0.764807 0.241142
0.658660 0.775863 0.270644
0.725820 0.781664 0.292723
0.769524 0.783122 0.307411
0.802673 0.784808 0.317908
0.857000 0.814078 0.354496
0.910495 0.841127 0.406446
0.956787 0.857909 0.438911
0.987811 0.853921 0.433110
0.013951 0.664904 0.259793
0.027217 0.665405 0.262672
0.128603 0.666432 0.244609
0.201369 0.722736 0.255565
0.256203 0.790709 0.237287
0.359461 0.827321 0.233394
0.504867 0.839311 0.271059
0.624191 0.843697 0.304978
0.709172 0.848471 0.340913
0.762235 0.851391 0.362774
0.802352 0.853121 0.378150
0.833376 0.852425 0.389641
0.861692 0.851168 0.400502
0.912918 0.875047 0.450803
0.957671 0.889828 0.470410
0.988895 0.886076 0.467748
0.064072 0.810616 0.333322
0.076544 0.810761 0.334141
0.172804 0.810506 0.306604
0.245168 0.850318 0.315497
0.293746 0.884178 0.268518
0.414793 0.899238 0.283849
0.574447 0.900126 0.355980
0.681609 0.902345 0.397678
0.746732 0.905949 0.424612
0.792739 0.907566 0.444100
0.827058 0.907052 0.454166
0.855960 0.905895 0.459374
0.884605 0.904839 0.466873
0.913604 0.905042 0.472516
0.957722 0.919502 0.478695
0.988979 0.915560 0.478133
0.087519 0.889247 0.376862
0.099417 0.889170 0.376077
0.192609 0.888866 0.342171
0.263366 0.912751 0.349712
0.320502 0.934237 0.306898
0.451019 0.944986 0.332528
0.607910 0.945177 0.410358
0.710272 0.948175 0.443497
0.766788 0.951101 0.455128
0.807954 0.951640 0.463598
0.839457 0.950639 0.466818
0.869278 0.949427 0.475256
0.898555 0.948639 0.478826
0.928213 0.948574 0.479218
0.957723 0.948543 0.479215
0.988996 0.944320 0.479210
0.088421 0.915171 0.376744
0.100377 0.915145 0.376350
0.193863 0.915459 0.344339
0.263625 0.937469 0.352588
0.319206 0.957940 0.311902
0.443058 0.969505 0.330582
0.600306 0.969598 0.409800
0.705782 0.972658 0.444921
0.763359 0.975372 0.455885
0.804487 0.976331 0.463755
0.836523 0.975249 0.466874
0.866017 0.973964 0.474738
0.894904 0.973153 0.478868
0.924237 0.973095 0.479205
0.953461 0.973081 0.479201
0.988996 0.973040 0.479194
-0.091209 -0.092299 0.064155
-0.084879 -0.092299 0.064155
-0.047939 -0.092299 0.064155
0.083400 -0.094362 0.065332
0.146776 -0.094743 0.070672
0.226825 -0.088054 0.085373
0.315716 -0.077640 0.101030
0.397599 -0.065199 0.114353
0.472567 -0.052645 0.130007
0.550809 -0.041468 0.143985
0.629896 -0.032350 0.160314
0.700576 -0.027063 0.184281
0.744208 -0.034671 0.206771
0.775460 -0.044916 0.219540
0.807903 -0.049833 0.222062
0.838621 -0.049363 0.220441
-0.091209 -0.086054 0.064155
-0.076808 -0.078116 0.064155
-0.037403 -0.078116 0.064155
0.083400 -0.080153 0.065332
0.145995 -0.080777 0.072859
0.226309 -0.074393 0.088343
0.316136 -0.064251 0.104053
0.396605 -0.052007 0.116873
0.471548 -0.039618 0.132529
0.549467 -0.028578 0.146773
0.628556 -0.019476 0.163076
0.699575 -0.014134 0.186535
0.743422 -0.021581 0.207977
0.775261 -0.031420 0.219751
0.808117 -0.036114 0.221855
0.838734 -0.035692 0.220335
-0.091209 -0.049656 0.064155
-0.076808 -0.039272 0.064155
0.035884 0.031038 0.068740
0.086551 0.027096 0.069169
0.149012 0.024494 0.078804
0.232259 0.030873 0.091978
0.320671 0.040235 0.106140
0.399836 0.051374 0.117335
0.474988 0.062915 0.131466
0.553352 0.072896 0.144900
0.632128 0.081333 0.160162
0.704171 0.086769 0.180281
0.752048 0.081846 0.199113
0.787935 0.074796 0.211740
0.823043 0.072240 0.213233
0.855053 0.076513 0.212258
-0.089130 0.066857 0.068593
-0.074756 0.066857 0.068593
0.031862 0.068421 0.069331
0.082611 0.074136 0.070576
0.159185 0.077211 0.072352
0.246595 0.085068 0.074025
0.331787 0.092107 0.078617
0.410513 0.099977 0.081785
0.485895 0.108452 0.086031
0.562045 0.114455 0.091729
0.637426 0.119233 0.096811
0.710129 0.124440 0.101875
0.769844 0.125045 0.107411
0.814871 0.117673 0.113669
0.858760 0.113598 0.112921
0.897583 0.136690 0.150660
-0.088164 0.109965 0.076569
-0.074097 0.109860 0.078966
0.029989 0.111648 0.082795
0.074099 0.123864 0.072627
0.156716 0.135614 0.076452
0.253483 0.151089 0.078779
0.340911 0.164603 0.083717
0.418629 0.176329 0.088367
0.497276 0.189512 0.091945
0.576602 0.203265 0.098851
0.650977 0.214393 0.105682
0.716415 0.224345 0.111146
0.776672 0.230602 0.114698
0.830559 0.233630 0.116279
0.875536 0.237579 0.116724
0.914654 0.235448 0.145566
-0.089527 0.159593 0.095125
-0.075418 0.159323 0.097858
0.028732 0.160624 0.100640
0.062567 0.175193 0.075460
0.154202 0.198403 0.079346
0.253910 0.210744 0.084784
0.345090 0.227482 0.090278
0.424744 0.241049 0.096324
0.506540 0.257415 0.103220
0.589675 0.271532 0.110980
0.663488 0.282291 0.117931
0.727944 0.293704 0.123892
0.784036 0.308203 0.128297
0.837354 0.328920 0.133381
0.883402 0.341849 0.136513
0.918705 0.337381 0.162689
-0.084661 0.208624 0.116175
-0.070426 0.208243 0.118853
0.033913 0.209844 0.120786
0.060641 0.225838 0.082939
0.148920 0.263311 0.087761
0.258560 0.282253 0.093610
0.347177 0.289329 0.097764
