luts/7.cube
LUT_3D_SIZE 16
0.024100 0.027800 0.024700
0.025993 0.027876 0.025533
0.032943 0.027685 0.026872
0.062696 0.025827 0.027394
0.106056 0.024907 0.024840
0.164957 0.029013 0.024023
0.243611 0.039250 0.024881
0.325699 0.044860 0.026454
0.411112 0.050315 0.028079
0.498390 0.055008 0.029799
0.588943 0.056518 0.032818
0.691170 0.054748 0.036922
0.801683 0.052134 0.042020
0.858371 0.049657 0.045611
0.867129 0.049200 0.046210
0.872771 0.049200 0.046299
0.024851 0.029226 0.025526
0.027540 0.029700 0.026586
0.036307 0.030603 0.028240
0.071513 0.029934 0.027374
0.127443 0.036604 0.023127
0.195476 0.043921 0.022692
0.271200 0.049928 0.024763
0.354002 0.056180 0.025682
0.440856 0.061151 0.027146
0.528930 0.063917 0.029431
0.618361 0.064490 0.032571
0.716475 0.063045 0.036822
0.821991 0.060067 0.042110
0.878377 0.058296 0.046319
0.887158 0.058523 0.047359
0.892094 0.057453 0.047316
0.026762 0.033983 0.027045
0.031187 0.035700 0.028160
0.041028 0.037242 0.029406
0.093062 0.050101 0.028591
0.166564 0.064811 0.026223
0.252715 0.074790 0.025714
0.343336 0.080843 0.026082
0.429122 0.087934 0.027767
0.516812 0.090639 0.028649
0.600104 0.092257 0.030700
0.684521 0.092599 0.032972
0.775241 0.092890 0.036917
0.867223 0.090807 0.043576
0.908688 0.093493 0.050481
0.916970 0.094100 0.051890
0.920564 0.091017 0.051481
0.032976 0.054624 0.029391
0.038529 0.061303 0.027857
0.069599 0.072491 0.028455
0.126907 0.088410 0.031378
0.210895 0.111295 0.034734
0.308697 0.124602 0.034988
0.408207 0.133600 0.034497
0.498600 0.142651 0.034236
0.585777 0.144578 0.033662
0.667335 0.141511 0.035368
0.747439 0.136552 0.038530
0.835957 0.132489 0.040996
0.911622 0.133270 0.048131
0.942033 0.142806 0.057883
0.946303 0.146952 0.061080
0.951820 0.140355 0.059537
0.041226 0.092715 0.041664
0.048208 0.105516 0.040803
0.083915 0.123638 0.039570
0.152252 0.148045 0.042296
0.247233 0.175485 0.048818
0.356311 0.195531 0.049474
0.458644 0.209262 0.048589
0.549218 0.217521 0.047598
0.632813 0.221262 0.047135
0.711796 0.212136 0.046997
0.795355 0.203231 0.047516
0.876261 0.192668 0.050546
0.929937 0.195624 0.059056
0.946878 0.214189 0.073187
0.947373 0.222157 0.079136
0.954113 0.211122 0.076729
0.056272 0.140577 0.052934
0.065959 0.159286 0.052103
0.103143 0.186821 0.048017
0.172363 0.219856 0.051714
0.275003 0.256938 0.062424
0.394673 0.284198 0.069639
0.497249 0.299606 0.068354
0.588009 0.308140 0.066728
0.665225 0.309445 0.067303
0.736390 0.301271 0.066910
0.813842 0.286989 0.065173
0.889629 0.276151 0.065856
0.936335 0.276563 0.073313
0.938447 0.308953 0.097592
0.936500 0.321405 0.106904
0.944886 0.303159 0.101423
0.080791 0.200046 0.064401
0.091480 0.219635 0.063287
0.132156 0.266159 0.056472
0.195245 0.300091 0.056734
0.292242 0.336734 0.069634
0.412486 0.370654 0.085472
0.520241 0.387587 0.094169
0.608526 0.398160 0.095233
0.683998 0.401795 0.094647
0.750790 0.395910 0.089767
0.823142 0.382797 0.084789
0.891403 0.370454 0.082464
0.926403 0.378929 0.096803
0.924165 0.422385 0.138342
0.921989 0.436963 0.152492
0.930183 0.414412 0.142411
0.108583 0.269770 0.081143
0.117471 0.287217 0.080308
0.155158 0.343277 0.073452
0.208972 0.379151 0.070010
0.289560 0.406709 0.083049
0.407038 0.441697 0.105556
0.528140 0.467030 0.121706
0.618616 0.475885 0.126485
0.695353 0.485623 0.124427
0.763901 0.487581 0.117435
0.832462 0.482538 0.109403
0.894668 0.477455 0.106290
0.915561 0.495811 0.137065
0.915070 0.538992 0.199262
0.913419 0.553885 0.220191
0.920422 0.527505 0.203493
0.128453 0.337640 0.105379
0.134283 0.353081 0.104451
0.160216 0.408758 0.099663
0.204736 0.454362 0.092390
0.276031 0.471245 0.096759
0.386856 0.496755 0.118977
0.515665 0.526527 0.143392
0.628963 0.551565 0.156424
0.706383 0.561593 0.153886
0.777767 0.572556 0.145319
0.845347 0.578027 0.138273
0.895375 0.583630 0.144826
0.912122 0.610172 0.201129
0.916257 0.650470 0.287694
0.918456 0.666611 0.317915
0.921691 0.638020 0.291232
0.141115 0.401667 0.128237
0.144458 0.413055 0.126263
0.159222 0.462518 0.120237
0.187188 0.519013 0.102521
0.252210 0.538152 0.099809
0.360436 0.553857 0.117212
0.495811 0.583954 0.145311
0.616546 0.612479 0.167035
0.714090 0.639906 0.178183
0.787250 0.650765 0.179918
0.853767 0.667063 0.175072
0.894325 0.687199 0.198451
0.915300 0.717329 0.287957
0.926833 0.757318 0.397466
0.930147 0.770740 0.431364
0.932623 0.741886 0.399713
0.145378 0.464618 0.145751
0.147019 0.473558 0.144398
0.154467 0.516018 0.136323
0.163765 0.587378 0.102650
0.215477 0.620435 0.087864
0.322837 0.629932 0.103182
0.472880 0.662761 0.141053
0.600489 0.692962 0.173390
0.701690 0.718327 0.192842
0.788277 0.738202 0.207901
0.854655 0.749223 0.217330
0.898857 0.779264 0.264630
0.923806 0.811564 0.390076
0.933650 0.844485 0.497021
0.935549 0.853348 0.525021
0.940217 0.829424 0.496987
0.142552 0.530554 0.154260
0.142939 0.539340 0.150649
0.143057 0.585970 0.138098
0.137496 0.680910 0.094481
0.171393 0.744820 0.064031
0.284833 0.749643 0.084404
0.455162 0.769473 0.133069
0.597827 0.792844 0.189030
0.704987 0.814992 0.235472
0.797096 0.836411 0.267467
0.871213 0.848990 0.301333
0.912137 0.861984 0.338726
0.932681 0.882221 0.500631
0.937473 0.901026 0.590378
0.938156 0.906250 0.606387
0.943223 0.891853 0.582668
0.131705 0.623980 0.150110
0.130089 0.636917 0.144142
0.121698 0.699330 0.121303
0.115413 0.804671 0.083137
0.159465 0.869291 0.072063
0.293925 0.867144 0.118703
0.475010 0.867384 0.200531
0.632573 0.875521 0.302624
0.746007 0.888439 0.387703
0.836331 0.900772 0.457107
0.899136 0.910932 0.506295
0.927340 0.918106 0.544337
0.936938 0.920161 0.582674
0.939145 0.923662 0.637997
0.939315 0.925792 0.644353
0.944861 0.921502 0.635455
0.112661 0.725142 0.130549
0.110061 0.742244 0.125353
0.103830 0.809887 0.108135
0.126065 0.881773 0.109183
0.229828 0.899997 0.171703
0.407139 0.891533 0.275480
0.569485 0.894327 0.372388
0.699625 0.901552 0.458846
0.803982 0.909984 0.528085
0.878668 0.917944 0.577950
0.921579 0.924333 0.614868
0.936303 0.927851 0.639058
0.939161 0.928625 0.648077
0.939465 0.928569 0.651350
0.939500 0.928642 0.651954
0.945301 0.928243 0.650808
0.106598 0.758842 0.123398
0.104259 0.776590 0.118476
0.101684 0.840880 0.105655
0.136528 0.899854 0.124655
0.271427 0.897958 0.225373
0.461947 0.893865 0.348901
0.613048 0.900255 0.445362
0.724979 0.907059 0.511383
0.818979 0.913464 0.559309
0.889216 0.919898 0.593718
0.926551 0.925538 0.624005
0.938561 0.928455 0.645460
0.939493 0.928700 0.651719
0.939500 0.928700 0.652099
0.939500 0.928700 0.652100
0.945321 0.928700 0.652100
0.106130 0.761527 0.122838
0.103963 0.777303 0.118438
0.101119 0.837377 0.106166
0.127108 0.901271 0.116689
0.247994 0.899457 0.211732
0.434641 0.893323 0.333719
0.591277 0.899089 0.434267
0.702580 0.905944 0.501952
0.796743 0.912023 0.550777
0.872175 0.918098 0.585700
0.918316 0.924019 0.615293
0.936734 0.927998 0.640532
0.939485 0.928695 0.651022
0.939500 0.928700 0.652100
0.939500 0.928700 0.652100
0.945321 0.928700 0.652100
0.024251 0.027800 0.025684
0.025915 0.027933 0.026747
0.032714 0.027640 0.028925
0.062623 0.025209 0.030391
0.107231 0.023132 0.028263
0.165887 0.023632 0.028569
0.245114 0.027085 0.029613
0.338647 0.029829 0.031820
0.436480 0.031672 0.034290
0.530497 0.034048 0.036476
0.624472 0.035258 0.038508
0.729949 0.036725 0.042022
0.834008 0.038596 0.049250
0.883077 0.038729 0.055214
0.890493 0.039030 0.056547
0.896108 0.039157 0.055491
0.024888 0.029283 0.026851
0.027090 0.029857 0.027883
0.034606 0.029651 0.029004
0.066605 0.027223 0.028380
0.114942 0.028579 0.025186
0.176941 0.032233 0.025381
0.257369 0.038780 0.026481
0.343472 0.043370 0.028171
0.433789 0.047122 0.029868
0.521440 0.050640 0.031819
0.612389 0.052676 0.034280
0.713494 0.051916 0.038325
0.818727 0.050265 0.044299
0.872577 0.048849 0.048671
0.881328 0.048498 0.049475
0.887092 0.048498 0.049498
0.026705 0.034101 0.029545
0.029081 0.035152 0.029532
0.039724 0.036931 0.031327
0.085802 0.045455 0.032110
0.155408 0.057901 0.028879
0.239735 0.066220 0.027333
0.327110 0.071312 0.028603
0.415614 0.077542 0.029499
0.505570 0.080264 0.030002
0.592961 0.082122 0.031511
0.680064 0.081813 0.034136
0.773888 0.080358 0.038204
0.866809 0.078270 0.045135
0.908927 0.080861 0.052215
0.917661 0.081066 0.053468
0.922081 0.078951 0.053255
0.032583 0.054818 0.034574
0.035031 0.057744 0.031954
0.060700 0.069341 0.033127
0.119662 0.085992 0.037508
0.202042 0.106105 0.038309
0.298954 0.117928 0.037803
0.399638 0.125496 0.036491
0.490993 0.133606 0.036031
0.577920 0.135295 0.035610
0.662593 0.131621 0.036550
0.744642 0.127026 0.039569
0.835486 0.122611 0.041843
0.912471 0.122905 0.049183
0.941888 0.133706 0.059869
0.945841 0.138315 0.063378
0.951464 0.131811 0.061929
0.040140 0.094943 0.052338
0.043587 0.099832 0.046287
0.072807 0.119723 0.043449
0.141150 0.144206 0.045712
0.238479 0.172395 0.053264
0.347294 0.190235 0.053471
0.450228 0.202549 0.051991
0.542213 0.209942 0.050160
0.628032 0.213148 0.048448
0.708290 0.204026 0.048376
0.792027 0.195159 0.049671
0.874888 0.184614 0.052255
0.930231 0.187844 0.060818
0.946840 0.208393 0.075953
0.947245 0.216714 0.082049
0.953975 0.205200 0.079447
0.055139 0.143268 0.060843
0.059507 0.149777 0.056769
0.093221 0.184977 0.053534
0.161249 0.215445 0.055043
0.264353 0.252879 0.066410
0.386377 0.280982 0.074155
0.490140 0.295013 0.071543
0.582168 0.302916 0.069174
0.660203 0.303675 0.069674
0.732478 0.295570 0.069310
0.811327 0.280978 0.067601
0.889550 0.269687 0.067670
0.937005 0.270882 0.075365
0.938640 0.304831 0.100243
0.936665 0.317228 0.109512
0.944972 0.299379 0.104168
0.079114 0.204824 0.075991
0.084341 0.209663 0.068427
0.121924 0.260591 0.061953
0.184189 0.296036 0.059899
0.281307 0.332254 0.072184
0.403859 0.367336 0.088315
0.514614 0.385132 0.097221
0.604319 0.395018 0.098042
0.680695 0.398317 0.097309
0.747876 0.391862 0.092441
0.821265 0.378544 0.087685
0.891105 0.366109 0.084797
0.926721 0.374352 0.098809
0.924116 0.419086 0.140725
0.921914 0.433785 0.154737
0.930132 0.411271 0.144664
0.106720 0.274888 0.091078
0.110990 0.278391 0.084598
0.145612 0.335220 0.078241
0.200587 0.377926 0.072602
0.280356 0.402648 0.083706
0.398634 0.438750 0.107333
0.522315 0.464886 0.124137
0.614901 0.474211 0.129933
0.691841 0.483698 0.127802
0.761166 0.485100 0.120317
0.830761 0.479703 0.111663
0.894239 0.474019 0.108050
0.915657 0.492517 0.138619
0.914970 0.536345 0.200716
0.913363 0.551123 0.221503
0.920255 0.524958 0.205146
0.125732 0.341918 0.115682
0.129590 0.344649 0.108377
0.153220 0.400826 0.104734
0.197010 0.452608 0.096502
0.267912 0.470925 0.098852
0.378191 0.494291 0.120561
0.509274 0.524607 0.146028
0.624919 0.550250 0.159462
0.703840 0.560597 0.157058
0.775612 0.571185 0.147762
0.844597 0.576451 0.140080
0.895435 0.581553 0.146046
0.912228 0.607821 0.201774
0.916364 0.648631 0.288008
0.918445 0.664708 0.317940
0.921654 0.636039 0.291593
0.136429 0.406114 0.140682
0.140060 0.407099 0.132638
0.154410 0.454964 0.125816
0.180930 0.516127 0.107296
0.244255 0.538549 0.102349
0.351824 0.551975 0.117944
0.489588 0.582617 0.147019
0.612745 0.611584 0.168958
0.711812 0.639373 0.180237
0.786252 0.650365 0.181877
0.853424 0.666351 0.176094
0.894469 0.686156 0.198839
0.915376 0.715950 0.287972
0.926576 0.756145 0.395555
0.929988 0.769697 0.429533
0.932459 0.740469 0.398144
0.141429 0.469241 0.156196
0.144512 0.469161 0.148774
0.151745 0.510079 0.141299
0.160440 0.582631 0.108227
0.208868 0.621131 0.089480
0.314837 0.630175 0.102943
0.466488 0.662008 0.140647
0.596816 0.692627 0.173948
0.699672 0.718258 0.193607
0.787347 0.738445 0.208471
0.854528 0.749362 0.217603
0.898784 0.778846 0.263983
0.923823 0.811209 0.389438
0.933585 0.844365 0.495185
0.935471 0.853187 0.523201
0.940146 0.829076 0.495160
0.138685 0.536607 0.162453
0.141362 0.535693 0.155543
0.141934 0.579274 0.142789
0.136617 0.673709 0.100315
0.166747 0.743751 0.065875
0.277212 0.751143 0.083293
0.448378 0.769817 0.131220
0.594356 0.793041 0.187936
0.703082 0.815164 0.234723
0.796109 0.836504 0.266630
0.870797 0.849065 0.300239
0.911949 0.861911 0.337603
0.932620 0.882428 0.498946
0.937422 0.901154 0.589077
0.938071 0.906341 0.605128
0.943127 0.891804 0.581006
0.127790 0.633938 0.156527
0.130119 0.630547 0.150111
0.122474 0.687896 0.127353
0.113324 0.797786 0.086737
0.152885 0.869718 0.070498
0.286884 0.867634 0.117129
0.469805 0.867485 0.198093
0.629935 0.875386 0.300993
0.744494 0.888299 0.385875
0.835854 0.900614 0.454556
0.898923 0.910693 0.503730
0.927298 0.917859 0.542162
0.936905 0.919936 0.580779
0.939086 0.923595 0.636991
0.939284 0.925732 0.643461
0.944833 0.921354 0.634168
0.109033 0.738306 0.134436
0.111016 0.732851 0.130061
0.103113 0.798270 0.111303
0.119901 0.879761 0.105714
0.220017 0.900789 0.165296
0.399140 0.891478 0.269399
0.564715 0.893992 0.367622
0.696902 0.901209 0.455387
0.802974 0.909763 0.525713
0.878255 0.917833 0.576273
0.921407 0.924268 0.613561
0.936215 0.927768 0.638057
0.939159 0.928639 0.647576
0.939465 0.928602 0.650887
0.939500 0.928717 0.651530
0.945300 0.928294 0.650235
0.103230 0.772201 0.127180
0.105141 0.766478 0.122842
0.100476 0.829243 0.107935
0.128333 0.899631 0.118484
0.260366 0.898631 0.217878
0.454184 0.893634 0.342723
0.608889 0.899890 0.441334
0.722627 0.906767 0.508822
0.817819 0.913291 0.557416
0.888740 0.919747 0.592274
0.926327 0.925455 0.622733
0.938482 0.928398 0.644657
0.939493 0.928760 0.651380
0.939500 0.928776 0.651784
0.939500 0.928776 0.651721
0.945321 0.928776 0.651721
0.103133 0.773498 0.126131
0.104673 0.769222 0.122269
0.100638 0.827577 0.108546
0.119382 0.900929 0.111010
0.237300 0.900054 0.204836
0.427024 0.893085 0.327843
0.587344 0.898736 0.430485
0.700040 0.905695 0.499278
0.795250 0.911850 0.548841
0.871467 0.917999 0.584192
0.918041 0.923892 0.614063
0.936597 0.927897 0.639476
0.939483 0.928694 0.650600
0.939500 0.928776 0.651797
0.939500 0.928776 0.651789
0.945321 0.928776 0.651721
0.024815 0.027818 0.029271
0.027129 0.028037 0.031054
0.032470 0.027785 0.032801
0.060863 0.025142 0.040815
0.107314 0.022342 0.047722
0.168903 0.022044 0.054975
0.248117 0.023145 0.060734
0.341959 0.024169 0.064510
0.440862 0.024931 0.066386
0.537668 0.025545 0.067608
0.636865 0.025398 0.070540
0.746409 0.025917 0.073561
0.844647 0.029751 0.080466
0.890039 0.034722 0.088458
0.893684 0.036852 0.091738
0.900458 0.036513 0.088854
0.025542 0.030032 0.031847
0.027327 0.029865 0.032505
0.033999 0.029732 0.034549
0.064524 0.026684 0.041297
0.114227 0.025089 0.044562
0.179296 0.024674 0.047760
0.261081 0.025189 0.052393
0.354961 0.026517 0.055839
0.455143 0.026763 0.057567
0.552273 0.027014 0.059246
0.649683 0.027438 0.061721
0.758004 0.027940 0.064549
0.856085 0.030942 0.071308
0.897031 0.036591 0.081006
0.900925 0.038849 0.084222
0.906330 0.039094 0.082379
0.026718 0.034542 0.034140
0.028815 0.035682 0.035369
0.037335 0.036966 0.037123
0.074007 0.034201 0.035446
0.130733 0.037412 0.031012
0.201679 0.041712 0.031688
0.285144 0.041947 0.032968
0.378329 0.044190 0.034244
0.473880 0.045435 0.035440
0.565421 0.046369 0.037144
0.657438 0.048033 0.038895
0.757387 0.047534 0.042449
0.853577 0.047771 0.049635
0.897457 0.049656 0.056989
0.905725 0.049841 0.058238
0.911784 0.049841 0.058340
0.031677 0.057103 0.046362
0.033748 0.060083 0.046032
0.044270 0.064316 0.040966
0.105535 0.081233 0.050087
0.182625 0.092699 0.046003
0.276707 0.098691 0.041958
0.373493 0.102480 0.041119
0.465308 0.107158 0.040547
0.556734 0.107418 0.039054
0.646372 0.103453 0.038897
0.734090 0.099566 0.041246
0.827832 0.094778 0.044102
0.907318 0.095058 0.052529
0.936779 0.106683 0.064576
0.941653 0.111279 0.068163
0.946480 0.106921 0.067499
0.038481 0.096064 0.065925
0.041347 0.102754 0.066015
0.052003 0.113221 0.056423
0.115320 0.135498 0.053772
0.220065 0.165680 0.063548
0.326707 0.177062 0.061968
0.429961 0.184733 0.058912
0.526234 0.189246 0.054867
0.614025 0.189960 0.052018
0.697434 0.179976 0.051233
0.783723 0.170729 0.053033
0.869953 0.160628 0.055465
0.929613 0.164000 0.064038
0.947813 0.185149 0.079971
0.947352 0.193958 0.086566
0.953067 0.185125 0.084753
0.052245 0.147330 0.084574
0.056118 0.154965 0.081053
0.068784 0.169679 0.066407
0.135010 0.210661 0.064931
0.239310 0.243484 0.074591
0.366875 0.273523 0.085781
0.471532 0.282561 0.080609
0.566556 0.287867 0.075913
0.647614 0.286178 0.074127
0.723696 0.277352 0.073025
0.804938 0.262246 0.072076
0.887457 0.250307 0.071887
0.938254 0.253375 0.079835
0.939546 0.289608 0.106142
0.937313 0.302631 0.115386
0.945321 0.285857 0.110580
0.076272 0.212428 0.097356
0.079720 0.219044 0.095790
0.093644 0.233266 0.078641
0.159243 0.291812 0.070824
0.252821 0.320627 0.079285
0.380035 0.358793 0.096848
0.500159 0.379261 0.105082
0.592534 0.386344 0.104079
0.671033 0.387720 0.102652
0.739316 0.379539 0.098305
0.815310 0.365319 0.094298
0.890325 0.352526 0.090494
0.927785 0.359844 0.103784
0.924184 0.407515 0.145859
0.921924 0.422570 0.159486
0.930151 0.400496 0.149689
0.101582 0.283040 0.116856
0.105050 0.288961 0.112841
0.119156 0.301400 0.091830
0.177349 0.372531 0.081440
0.257158 0.397443 0.087022
0.376758 0.431028 0.110059
0.506323 0.459328 0.129735
0.605727 0.470366 0.137595
0.683840 0.477988 0.135444
0.753916 0.477803 0.127292
0.825508 0.470885 0.117935
0.892599 0.463596 0.113324
0.915712 0.482372 0.142879
0.914957 0.527453 0.204861
0.913363 0.542637 0.225547
0.919948 0.517085 0.209719
0.117274 0.351883 0.145643
0.119901 0.356250 0.141361
0.132977 0.365338 0.117490
0.175753 0.444710 0.107312
0.244737 0.469930 0.103458
0.354207 0.487563 0.122916
0.491070 0.519524 0.151714
0.613159 0.546531 0.166498
0.697157 0.558216 0.166040
0.769500 0.567422 0.155203
0.841499 0.571595 0.145857
0.894824 0.575215 0.150366
0.912562 0.600695 0.204579
0.916314 0.642493 0.289049
0.918240 0.658268 0.318063
0.921288 0.629601 0.292863
0.126393 0.416089 0.171332
0.128608 0.418704 0.166359
0.139815 0.423704 0.141860
0.163570 0.504274 0.121995
0.221202 0.540104 0.110125
0.326710 0.549010 0.120993
0.469741 0.578259 0.151119
0.600389 0.608850 0.175152
0.704659 0.637761 0.187015
0.782819 0.649488 0.188277
0.852032 0.664647 0.180566
0.894989 0.683024 0.201741
0.915623 0.712180 0.290014
0.926204 0.752399 0.392221
0.929664 0.766251 0.425453
0.932149 0.736333 0.395332
0.131591 0.482946 0.191137
0.133542 0.484039 0.185555
0.142586 0.483281 0.157661
0.151023 0.565128 0.127629
0.188834 0.622106 0.096834
0.290003 0.632112 0.103690
0.445260 0.659596 0.139910
0.584645 0.691447 0.176322
0.693038 0.718256 0.197066
0.784439 0.739361 0.211833
0.854068 0.750247 0.220005
0.899110 0.778433 0.264850
0.923975 0.810088 0.389310
0.933418 0.844122 0.490636
0.935308 0.852855 0.517754
0.939881 0.827719 0.490145
0.128227 0.559028 0.196360
0.129787 0.558788 0.189671
0.138235 0.550373 0.160609
0.134280 0.647298 0.121959
0.152636 0.738848 0.074621
0.252628 0.756317 0.081415
0.424950 0.770882 0.126296
0.582304 0.794008 0.185956
0.697150 0.816264 0.234851
0.793206 0.837553 0.266792
0.869885 0.850057 0.299958
0.911779 0.862505 0.336857
0.932454 0.882861 0.495325
0.937315 0.901602 0.584223
0.937948 0.906589 0.599786
0.942995 0.891740 0.575191
0.114814 0.667959 0.178475
0.116258 0.666345 0.173259
0.125546 0.649927 0.150487
0.113184 0.765483 0.104478
0.137716 0.863423 0.073239
0.261845 0.870374 0.113497
0.450819 0.868791 0.191815
0.620843 0.875686 0.297975
0.739634 0.888220 0.382476
0.833849 0.900098 0.449045
0.898467 0.910167 0.497647
0.927251 0.917297 0.536642
0.936721 0.919599 0.575377
0.938980 0.923326 0.631707
0.939146 0.925476 0.638488
0.944660 0.921177 0.628663
0.096520 0.785712 0.150663
0.097848 0.782542 0.146559
0.106704 0.755453 0.129182
0.107788 0.861074 0.105108
0.186748 0.903276 0.147273
0.371998 0.891746 0.252810
0.549360 0.893085 0.354392
0.687532 0.900298 0.445455
0.798324 0.908895 0.517993
0.877216 0.917299 0.570090
0.921045 0.923908 0.607634
0.935926 0.927294 0.632287
0.939013 0.928392 0.642997
0.939401 0.928394 0.646839
0.939441 0.928484 0.647776
0.945207 0.928002 0.645925
0.092097 0.820267 0.141490
0.093562 0.816661 0.137569
0.101365 0.788974 0.121921
0.110168 0.886411 0.109620
0.221004 0.901177 0.194464
0.426264 0.892956 0.322591
0.594622 0.898780 0.427727
0.714209 0.905758 0.498974
0.813939 0.912487 0.550009
0.887553 0.919286 0.586199
0.925921 0.925031 0.617228
0.938219 0.927986 0.639563
0.939384 0.928514 0.647635
0.939446 0.928556 0.648472
0.939446 0.928556 0.648400
0.945267 0.928556 0.648316
0.092575 0.820126 0.139458
0.093910 0.816585 0.135817
0.100934 0.791550 0.121246
0.108927 0.882471 0.109855
0.206877 0.901443 0.185916
0.400550 0.892442 0.309521
0.573953 0.897729 0.417590
0.691679 0.904746 0.489943
0.790540 0.911029 0.541367
0.869441 0.917504 0.578212
0.917196 0.923486 0.608550
0.936199 0.927372 0.633920
0.939364 0.928418 0.646498
0.939446 0.928556 0.648447
0.939446 0.928556 0.648525
0.945267 0.928556 0.648425
0.026770 0.027900 0.044827
0.029446 0.028167 0.047563
0.039486 0.027393 0.052016
0.057558 0.025533 0.057881
0.105453 0.022199 0.072077
0.170557 0.021640 0.084195
0.251301 0.022342 0.093511
0.345499 0.023048 0.100234
0.439653 0.023819 0.104975
0.533180 0.024300 0.109214
0.631428 0.024518 0.113690
0.737948 0.025671 0.118344
0.833969 0.030931 0.123618
0.872230 0.039646 0.133922
0.875857 0.042089 0.137382
0.883269 0.041670 0.133621
0.027331 0.030674 0.051166
0.028608 0.029594 0.051282
0.039960 0.029079 0.056425
0.060706 0.027037 0.062654
0.112066 0.024092 0.074702
0.181535 0.023830 0.083577
0.265653 0.023967 0.091735
0.356531 0.024559 0.097154
0.451815 0.024737 0.100778
0.546813 0.024794 0.104064
0.645152 0.025030 0.107776
0.750622 0.026219 0.111877
0.843789 0.031648 0.118009
0.878761 0.041684 0.130189
0.882214 0.044357 0.133818
0.889649 0.043912 0.130234
0.028428 0.041895 0.057967
0.030047 0.042384 0.060136
0.036333 0.036641 0.063928
0.067075 0.034190 0.069979
0.125135 0.032248 0.073121
0.199856 0.032124 0.073585
0.291130 0.029851 0.078263
0.380460 0.030422 0.082148
0.479064 0.029145 0.083604
0.577485 0.027851 0.085192
0.676069 0.027556 0.087660
0.780554 0.028484 0.090311
0.869080 0.033610 0.097975
0.895728 0.045694 0.114285
0.898090 0.049370 0.119073
0.905184 0.049126 0.115732
0.030152 0.061261 0.065947
0.032107 0.065232 0.068228
0.040022 0.071412 0.072084
0.080450 0.073824 0.073284
0.148060 0.072137 0.064927
0.230101 0.067426 0.061355
0.325001 0.062456 0.059021
0.424612 0.060232 0.056064
0.525755 0.057072 0.054863
0.625514 0.053403 0.053097
0.726018 0.049567 0.052936
0.832812 0.046475 0.053635
0.904264 0.049802 0.066215
0.926094 0.062259 0.083694
0.927524 0.067068 0.089449
0.933290 0.067323 0.089793
0.036358 0.096608 0.084723
0.039000 0.103697 0.086625
0.047546 0.116857 0.087970
0.082793 0.130943 0.084058
0.186302 0.152345 0.089618
0.284794 0.154789 0.084077
0.386822 0.152121 0.078465
0.485974 0.150922 0.073664
0.580733 0.147975 0.068193
0.674313 0.136121 0.063968
0.771639 0.123491 0.063338
0.864648 0.111564 0.065604
0.930130 0.117084 0.075698
0.943357 0.147680 0.098116
0.943187 0.158078 0.105459
0.949104 0.151471 0.104270
0.049284 0.150204 0.109978
0.052358 0.158248 0.111830
0.062406 0.175995 0.108473
0.099259 0.210474 0.094715
0.188022 0.222481 0.096498
0.321974 0.256177 0.115115
0.428950 0.258076 0.106859
0.528774 0.258520 0.097858
0.618792 0.252981 0.090337
0.702953 0.241100 0.086099
0.792485 0.223058 0.084536
0.881681 0.210246 0.085477
0.937603 0.216381 0.095101
0.936990 0.264629 0.127117
0.934869 0.278197 0.136606
0.942054 0.263719 0.132821
0.071803 0.217699 0.127139
0.075036 0.225238 0.126142
0.084693 0.244088 0.122673
0.119541 0.290353 0.108720
0.203028 0.309546 0.105628
0.331161 0.340239 0.120892
0.462672 0.364760 0.132509
0.561579 0.368073 0.124368
0.646266 0.365849 0.118549
0.718358 0.353826 0.114658
0.801839 0.338652 0.111483
0.886154 0.324354 0.108133
0.926973 0.339593 0.124657
0.922623 0.390803 0.167691
0.919216 0.406626 0.182781
0.927256 0.386095 0.174918
0.094991 0.289867 0.149208
0.097411 0.296247 0.148543
0.106395 0.314097 0.141041
0.139760 0.367444 0.116905
0.214945 0.395901 0.105507
0.330713 0.415705 0.121984
0.469394 0.446818 0.146106
0.581755 0.461980 0.156339
