luts/7.cube
LUT_3D_SIZE 6
0.024100 0.027800 0.024700
0.062696 0.025827 0.027394
0.243611 0.039250 0.024881
0.498390 0.055008 0.029799
0.801683 0.052134 0.042020
0.872771 0.049200 0.046299
0.032976 0.054624 0.029391
0.126907 0.088410 0.031378
0.408207 0.133600 0.034497
0.667335 0.141511 0.035368
0.911622 0.133270 0.048131
0.951820 0.140355 0.059537
0.080791 0.200046 0.064401
0.195245 0.300091 0.056734
0.520241 0.387587 0.094169
0.750790 0.395910 0.089767
0.926403 0.378929 0.096803
0.930183 0.414412 0.142411
0.141115 0.401667 0.128237
0.187188 0.519013 0.102521
0.495811 0.583954 0.145311
0.787250 0.650765 0.179918
0.915300 0.717329 0.287957
0.932623 0.741886 0.399713
0.131705 0.623980 0.150110
0.115413 0.804671 0.083137
0.475010 0.867384 0.200531
0.836331 0.900772 0.457107
0.936938 0.920161 0.582674
0.944861 0.921502 0.635455
0.106130 0.761527 0.122838
0.127108 0.901271 0.116689
0.591277 0.899089 0.434267
0.872175 0.918098 0.585700
0.939485 0.928695 0.651022
0.945321 0.928700 0.652100
0.026770 0.027900 0.044827
0.057558 0.025533 0.057881
0.251301 0.022342 0.093511
0.533180 0.024300 0.109214
0.833969 0.030931 0.123618
0.883269 0.041670 0.133621
0.030152 0.061261 0.065947
0.080450 0.073824 0.073284
0.325001 0.062456 0.059021
0.625514 0.053403 0.053097
0.904264 0.049802 0.066215
0.933290 0.067323 0.089793
0.071803 0.217699 0.127139
0.119541 0.290353 0.108720
0.462672 0.364760 0.132509
0.718358 0.353826 0.114658
0.926973 0.339593 0.124657
0.927256 0.386095 0.174918
0.116885 0.426117 0.207228
0.140696 0.482322 0.168381
0.424017 0.570486 0.164364
0.773047 0.648943 0.210683
0.917274 0.708026 0.309135
0.932728 0.733293 0.400626
0.103947 0.700883 0.205802
0.110663 0.716474 0.152660
0.421727 0.875367 0.204634
0.834446 0.900782 0.444690
0.936136 0.919337 0.560631
0.943940 0.921447 0.605037
0.083357 0.860533 0.158423
0.091463 0.862122 0.121255
0.550402 0.896071 0.390700
0.870191 0.915868 0.555441
0.938565 0.926474 0.621154
0.944629 0.927028 0.627158
0.025148 0.026700 0.132862
0.071200 0.023332 0.163313
0.239718 0.021358 0.179424
0.523153 0.023337 0.233419
0.778736 0.035668 0.231555
0.823091 0.054764 0.230451
0.029322 0.082281 0.177874
0.045922 0.061903 0.213627
0.285102 0.052336 0.220801
0.588614 0.040388 0.234110
0.828568 0.064945 0.219659
0.847944 0.111501 0.234472
0.063006 0.224051 0.229372
0.087352 0.292087 0.296337
0.310696 0.299453 0.268805
0.598319 0.252078 0.230454
0.897429 0.227910 0.210520
0.899961 0.321325 0.266478
0.099450 0.453831 0.326003
0.104366 0.525232 0.344492
0.285796 0.575910 0.243021
0.720633 0.625098 0.297552
0.919568 0.672322 0.378277
0.933039 0.706650 0.452389
0.067623 0.787141 0.308186
0.066611 0.825278 0.286296
0.283983 0.898789 0.296822
0.830723 0.910387 0.520001
0.937302 0.921468 0.581296
0.943589 0.922009 0.590248
0.059583 0.898614 0.284557
0.065864 0.902736 0.275752
0.385406 0.897761 0.393580
0.871199 0.917357 0.572654
0.937852 0.924021 0.592165
0.943591 0.923967 0.591671
0.025027 0.027672 0.286627
0.054034 0.024160 0.314122
0.235956 0.021784 0.303801
0.482280 0.022835 0.334242
0.733529 0.036848 0.300323
0.764688 0.069282 0.298821
0.029287 0.088530 0.343641
0.029511 0.048876 0.472481
0.232882 0.040586 0.419217
0.538636 0.038187 0.370086
0.756380 0.077327 0.307121
0.776397 0.138959 0.314140
0.066885 0.270809 0.398919
0.066223 0.293387 0.498927
0.174589 0.233848 0.430059
0.490967 0.236755 0.443071
0.782554 0.278237 0.393510
0.810359 0.362820 0.441615
0.085282 0.472661 0.467772
0.069938 0.547800 0.564252
0.190095 0.578725 0.616882
0.580408 0.555642 0.558804
0.867871 0.486863 0.420699
0.910480 0.617692 0.570638
0.029461 0.840409 0.530751
0.025843 0.860164 0.575338
0.246851 0.912295 0.743083
0.687685 0.900647 0.592780
0.935260 0.907375 0.646152
0.946736 0.889603 0.720608
0.019727 0.891694 0.588191
0.020430 0.898109 0.634242
0.319485 0.916398 0.819070
0.828021 0.930227 0.768845
0.938660 0.931762 0.800378
0.950524 0.933800 0.822144
0.026478 0.030878 0.576811
0.038492 0.026243 0.586137
0.228266 0.023178 0.541286
0.479035 0.023192 0.455166
0.715073 0.038710 0.403361
0.731321 0.072201 0.387887
0.027326 0.101554 0.592165
0.025413 0.048351 0.774536
0.165543 0.031862 0.721319
0.514364 0.034423 0.601433
0.709265 0.087192 0.450109
0.720180 0.150324 0.435426
0.059631 0.330140 0.603418
0.046688 0.335711 0.699689
0.059388 0.189799 0.712592
0.365220 0.193795 0.739903
0.709617 0.302573 0.714998
0.739126 0.349800 0.717529
0.042138 0.571595 0.761251
0.026029 0.596033 0.858471
0.111437 0.568357 0.922494
0.422826 0.500231 0.879265
0.848271 0.561318 0.878789
0.911004 0.663448 0.886972
0.009993 0.805494 0.882241
0.009803 0.825661 0.906927
0.159613 0.896075 0.909711
0.522628 0.893382 0.915256
0.846182 0.810836 0.843080
0.942068 0.825141 0.848375
0.009600 0.836848 0.914265
0.009976 0.850993 0.919745
0.276564 0.910285 0.909712
0.775753 0.933445 0.907656
0.880272 0.939273 0.864092
0.952389 0.936220 0.866806
0.026600 0.031200 0.646679
0.035270 0.026505 0.660504
0.216105 0.023605 0.626097
0.464609 0.023386 0.516387
0.710737 0.042379 0.457730
0.721441 0.071695 0.433070
0.025783 0.102983 0.667389
0.024687 0.049905 0.816623
0.133671 0.028843 0.788508
0.475317 0.031587 0.689136
0.695653 0.093015 0.526163
0.700958 0.147696 0.493859
0.050849 0.343674 0.682839
0.037037 0.339907 0.768234
0.031089 0.172302 0.837708
0.308414 0.205988 0.832176
0.689336 0.313610 0.827350
0.730528 0.348913 0.826895
0.029127 0.594940 0.849182
0.017984 0.594638 0.915590
0.193338 0.587247 0.917460
0.598730 0.610204 0.920640
0.878153 0.644804 0.920700
0.921639 0.696813 0.923758
0.009626 0.800265 0.929953
0.010186 0.813268 0.933563
0.226510 0.842417 0.918396
0.646420 0.846929 0.936986
0.877705 0.831753 0.935964
0.941605 0.826340 0.934969
0.009600 0.835863 0.928223
0.010185 0.851716 0.929798
0.282198 0.908979 0.915881
0.747721 0.932881 0.938997
0.855939 0.937515 0.939843
0.958419 0.952051 0.950179
