luts/8.cube
LUT_3D_SIZE 16
0.012033 0.013024 0.012913
0.043155 0.013247 0.012044
0.080999 0.014595 0.011747
0.127802 0.017739 0.011643
0.180418 0.022327 0.012123
0.237032 0.026413 0.011607
0.299511 0.029590 0.009315
0.370596 0.031929 0.011643
0.447762 0.037184 0.017236
0.522344 0.042282 0.022953
0.592784 0.047654 0.028044
0.657013 0.058369 0.032440
0.719077 0.071125 0.035961
0.781570 0.084988 0.039210
0.843689 0.100628 0.042602
0.890265 0.114260 0.046069
0.010405 0.040453 0.011350
0.040283 0.040138 0.010564
0.079192 0.043073 0.010625
0.127312 0.047277 0.011586
0.181805 0.052325 0.012560
0.239824 0.056255 0.011531
0.302649 0.059576 0.009242
0.373905 0.063052 0.011725
0.451216 0.068459 0.017317
0.526367 0.073428 0.023096
0.596407 0.080810 0.028228
0.660823 0.092108 0.032631
0.722568 0.104676 0.036068
0.784598 0.119302 0.039334
0.847060 0.135224 0.042607
0.891571 0.147401 0.045508
0.010157 0.073744 0.011048
0.040644 0.073950 0.010919
0.076088 0.073814 0.010715
0.124998 0.078215 0.011432
0.180480 0.084307 0.012971
0.239968 0.089213 0.012383
0.305965 0.092187 0.009476
0.381512 0.095038 0.012083
0.460502 0.100676 0.017868
0.535903 0.106482 0.023737
0.604970 0.114000 0.028788
0.667953 0.125439 0.032981
0.728392 0.138118 0.036196
0.789947 0.153024 0.039325
0.852358 0.169656 0.042391
0.894689 0.181712 0.044549
0.010892 0.112575 0.011986
0.040205 0.112789 0.012126
0.074839 0.113418 0.012743
0.118634 0.113077 0.012510
0.174722 0.117822 0.013200
0.234634 0.123539 0.012995
0.301312 0.128549 0.010098
0.380196 0.132604 0.012210
0.465305 0.138333 0.017733
0.545116 0.144471 0.024104
0.617044 0.151332 0.029453
0.679492 0.159905 0.033339
0.738824 0.171752 0.036347
0.800126 0.187601 0.039156
0.861828 0.205353 0.042038
0.900763 0.217106 0.043054
0.012276 0.154303 0.013929
0.040850 0.154560 0.014075
0.073948 0.154985 0.014467
0.114269 0.156591 0.015691
0.166096 0.156003 0.014822
0.227545 0.160379 0.014035
0.295481 0.165776 0.010778
0.376089 0.172678 0.012554
0.465035 0.181281 0.017728
0.549783 0.188132 0.024126
0.625916 0.195096 0.030036
0.689926 0.203240 0.033955
0.750207 0.214154 0.036921
0.813009 0.229497 0.039677
0.871282 0.247005 0.041876
0.908544 0.257945 0.042845
0.013535 0.197733 0.016194
0.041780 0.198039 0.016325
0.073950 0.198285 0.016622
0.110460 0.199602 0.017457
0.159947 0.202608 0.019413
0.218997 0.201139 0.016851
0.289553 0.205063 0.012497
0.374157 0.212307 0.013027
0.467930 0.223440 0.018790
0.555871 0.233476 0.024721
0.633738 0.242722 0.030712
0.698995 0.251731 0.034803
0.760503 0.263781 0.037930
0.825002 0.280852 0.041029
0.879848 0.299282 0.042542
0.917461 0.309398 0.043352
0.014611 0.243112 0.019421
0.043318 0.243572 0.019471
0.074021 0.243904 0.019615
0.109158 0.244863 0.020006
0.150900 0.248166 0.021684
0.211473 0.252894 0.023951
0.281702 0.249913 0.017802
0.373744 0.256939 0.013824
0.474915 0.269230 0.020414
0.566070 0.281157 0.026555
0.644269 0.293068 0.031624
0.709506 0.304397 0.035870
0.771699 0.319218 0.039306
0.834708 0.338925 0.042323
0.887464 0.358976 0.043794
0.925235 0.366844 0.044505
0.015777 0.292752 0.025206
0.044820 0.293329 0.025050
0.074290 0.293836 0.024869
0.108349 0.294884 0.024293
0.146533 0.297877 0.024389
0.197249 0.305523 0.026240
0.275679 0.314047 0.027684
0.372887 0.311446 0.018793
0.485158 0.324862 0.022684
0.581603 0.338543 0.029341
0.660364 0.352118 0.034027
0.725192 0.365476 0.037422
0.787499 0.382476 0.041017
0.844280 0.402938 0.043384
0.896171 0.423990 0.045124
0.933392 0.427133 0.045491
0.016366 0.349788 0.034144
0.045608 0.350413 0.033708
0.075038 0.351260 0.033299
0.107370 0.352926 0.032388
0.145248 0.355570 0.030391
0.188720 0.363818 0.028883
0.258669 0.379851 0.032277
0.378698 0.390769 0.032522
0.495393 0.392636 0.030927
0.599126 0.408196 0.033672
0.679290 0.423912 0.037403
0.745611 0.438528 0.040980
0.803727 0.455177 0.043909
0.855254 0.473655 0.045862
0.906064 0.489563 0.047297
0.943472 0.491183 0.047538
0.016965 0.413146 0.044354
0.046492 0.414027 0.043787
0.076313 0.415386 0.043318
0.107324 0.417476 0.042035
0.145127 0.420882 0.039406
0.188597 0.428279 0.036310
0.242966 0.444379 0.036488
0.370819 0.480053 0.050466
0.509206 0.479891 0.045215
0.614729 0.487847 0.046910
0.699280 0.503322 0.046658
0.766117 0.518117 0.047921
0.817188 0.533008 0.049337
0.867694 0.547985 0.050604
0.917200 0.557745 0.051404
0.953908 0.556260 0.050901
0.021826 0.486223 0.058614
0.051643 0.487310 0.058120
0.081853 0.489377 0.057816
0.112749 0.491859 0.056580
0.149033 0.495030 0.053639
0.191120 0.501195 0.048784
0.239816 0.516437 0.044292
0.338102 0.550808 0.052851
0.517601 0.589941 0.068474
0.629110 0.578240 0.062243
0.713391 0.586700 0.062450
0.778039 0.598383 0.061889
0.828985 0.611399 0.061937
0.878929 0.622887 0.062520
0.927765 0.631535 0.063108
0.963901 0.627295 0.062570
0.027964 0.565660 0.073026
0.058093 0.567296 0.072650
0.088696 0.569926 0.072432
0.119971 0.572198 0.071445
0.155879 0.575365 0.068740
0.196550 0.580253 0.062833
0.243840 0.591835 0.054173
0.326596 0.620204 0.057943
0.516831 0.667631 0.079997
0.638859 0.672817 0.075010
0.725023 0.667539 0.075390
0.783510 0.668900 0.074200
0.835834 0.679714 0.073374
0.886241 0.689370 0.073126
0.934013 0.698144 0.073941
0.969491 0.693789 0.074197
0.033816 0.641287 0.083566
0.064117 0.642349 0.083212
0.095023 0.644264 0.082849
0.126563 0.646344 0.081805
0.162067 0.648929 0.079014
0.202358 0.652590 0.072780
0.248985 0.661583 0.062470
0.328156 0.686273 0.062664
0.508905 0.729578 0.083544
0.641914 0.751217 0.095574
0.728599 0.740459 0.082367
0.790387 0.737748 0.081994
0.836957 0.737438 0.080632
0.887845 0.745698 0.080078
0.935823 0.755110 0.081047
0.971933 0.752145 0.081970
0.039638 0.713328 0.090883
0.070330 0.714287 0.090580
0.101304 0.716253 0.090445
0.133449 0.718559 0.089418
0.169790 0.721087 0.086251
0.210993 0.724948 0.079466
0.258632 0.733344 0.067806
0.340535 0.756070 0.067848
0.518269 0.793944 0.088899
0.652084 0.818596 0.109027
0.736072 0.820181 0.101535
0.798634 0.807076 0.088360
0.846290 0.804959 0.087470
0.887600 0.801110 0.086560
0.936425 0.809337 0.087515
0.973067 0.805079 0.087985
0.044696 0.781551 0.097072
0.076011 0.782331 0.096678
0.107582 0.784297 0.096577
0.140025 0.786810 0.095668
0.177873 0.789953 0.091691
0.220777 0.794092 0.083742
0.271388 0.802252 0.070851
0.357192 0.823705 0.073054
0.528918 0.856747 0.094645
0.658140 0.883060 0.116659
0.748744 0.893491 0.129251
0.809995 0.884005 0.109406
0.855069 0.871171 0.094241
0.897202 0.867313 0.093668
0.936559 0.863215 0.093257
0.973442 0.857542 0.093205
0.048202 0.832073 0.102763
0.079462 0.832837 0.102185
0.110923 0.834574 0.101936
0.143256 0.837297 0.101092
0.181693 0.840858 0.096383
0.224995 0.844974 0.087535
0.276718 0.851845 0.075216
0.360599 0.870162 0.076754
0.514947 0.899987 0.095899
0.639876 0.924688 0.116817
0.735145 0.933816 0.130434
0.805314 0.936376 0.136395
0.854959 0.932663 0.128276
0.893741 0.920340 0.101220
0.934020 0.914924 0.098915
0.973521 0.910069 0.098341
0.012015 0.014512 0.044572
0.042397 0.013868 0.043504
0.080877 0.014732 0.045047
0.129873 0.017677 0.044735
0.183998 0.022052 0.043789
0.241196 0.026126 0.041801
0.303179 0.029644 0.038731
0.374112 0.032095 0.040709
0.451031 0.037459 0.046278
0.525040 0.041353 0.052059
0.594939 0.047949 0.057404
0.658628 0.058732 0.062123
0.720350 0.071139 0.066098
0.782175 0.084972 0.070137
0.843949 0.100523 0.074344
0.890015 0.113458 0.077786
0.009910 0.040987 0.041777
0.039150 0.040538 0.040424
0.078698 0.040926 0.039185
0.126888 0.043835 0.038191
0.180543 0.048416 0.037337
0.237631 0.052726 0.035674
0.300373 0.056092 0.032502
0.372102 0.058488 0.034577
0.449745 0.063393 0.040178
0.524786 0.068075 0.045951
0.595848 0.073036 0.051101
0.660443 0.083073 0.055467
0.722051 0.095685 0.058919
0.784009 0.110061 0.062274
0.845916 0.125547 0.065784
0.890854 0.137834 0.068916
0.009562 0.074636 0.042923
0.036696 0.074364 0.038435
0.075329 0.074100 0.037099
0.124930 0.077636 0.036990
0.180629 0.083177 0.037619
0.239424 0.087781 0.036149
0.303940 0.091186 0.032470
0.377730 0.094310 0.034714
0.455906 0.099520 0.040376
0.531453 0.104820 0.046255
0.601984 0.110807 0.051405
0.665900 0.121953 0.055690
0.726982 0.134967 0.059004
0.788824 0.150266 0.062288
0.851199 0.166713 0.065548
0.893802 0.178518 0.067931
0.010545 0.113637 0.043299
0.035594 0.113360 0.037894
0.072770 0.113448 0.037250
0.118154 0.113184 0.036565
0.175135 0.117407 0.036741
0.235357 0.122831 0.036323
0.302202 0.127284 0.033135
0.380881 0.130657 0.035023
0.464286 0.136406 0.040495
0.542439 0.142395 0.046743
0.613628 0.149136 0.052034
0.676641 0.157784 0.056007
0.736764 0.169930 0.059113
0.798651 0.185843 0.062005
0.860829 0.203624 0.064993
0.899988 0.215027 0.066117
0.012019 0.155290 0.044097
0.036088 0.155103 0.038489
0.071708 0.155175 0.038334
0.112531 0.156373 0.038787
0.165752 0.155900 0.037814
0.227833 0.159933 0.036950
0.295902 0.165097 0.033608
0.376709 0.171547 0.035322
0.465593 0.179426 0.040513
0.549658 0.185962 0.046946
0.625059 0.192906 0.052773
0.688790 0.201042 0.056679
0.749061 0.211973 0.059648
0.811845 0.227275 0.062385
0.870682 0.244720 0.064681
0.907869 0.255656 0.065747
0.013252 0.198735 0.045728
0.036776 0.198601 0.040127
0.071593 0.198631 0.040234
0.108543 0.199308 0.040518
0.158169 0.202095 0.042084
0.218606 0.200805 0.039667
0.289487 0.204571 0.035386
0.374299 0.211620 0.035770
0.467826 0.222540 0.041504
0.555542 0.232251 0.047462
0.633435 0.240902 0.053472
0.698599 0.249610 0.057550
0.759943 0.261576 0.060640
0.824300 0.278556 0.063712
0.879549 0.296822 0.065274
0.916899 0.306730 0.066105
0.014235 0.244336 0.049265
0.037770 0.244204 0.043306
0.071533 0.244268 0.043286
0.107234 0.244738 0.043360
0.148938 0.247413 0.044275
0.210055 0.252238 0.046669
0.281284 0.249601 0.040685
0.373558 0.256394 0.036565
0.474595 0.268477 0.043097
0.565810 0.280386 0.049261
0.643943 0.292164 0.054431
0.709148 0.303282 0.058653
0.771313 0.317873 0.062063
0.834787 0.337200 0.065106
0.887504 0.357127 0.066534
0.924920 0.365056 0.067296
0.015235 0.293872 0.055203
0.038813 0.293834 0.048864
0.072069 0.294221 0.048483
0.106666 0.295127 0.047886
0.145269 0.297661 0.047527
0.196133 0.305088 0.048936
0.274765 0.313885 0.050617
0.373014 0.311524 0.041558
0.485537 0.324802 0.045444
0.581947 0.338236 0.052097
0.660667 0.351572 0.056767
0.725464 0.364743 0.060206
0.787650 0.381620 0.063799
0.844708 0.401958 0.066205
0.896555 0.422934 0.067928
0.933589 0.426303 0.068287
0.015648 0.350699 0.064453
0.039147 0.350805 0.057699
0.072804 0.351711 0.057002
0.105818 0.353248 0.056046
0.144075 0.355754 0.053896
0.187894 0.363467 0.051850
0.257316 0.379381 0.054846
0.377848 0.390938 0.055472
0.495773 0.392877 0.053659
0.599714 0.408310 0.056392
0.679888 0.423682 0.060179
0.746048 0.438004 0.063741
0.804309 0.454530 0.066682
0.855827 0.473040 0.068653
0.906610 0.489106 0.070108
0.943816 0.490636 0.070351
0.016238 0.413978 0.074880
0.039734 0.414348 0.067912
0.073947 0.415859 0.067116
0.105845 0.417871 0.065830
0.143857 0.421121 0.063170
0.187474 0.427910 0.059512
0.241899 0.443812 0.059100
0.368793 0.479497 0.072981
0.509033 0.480381 0.068116
0.615371 0.488176 0.069749
0.699925 0.503423 0.069410
0.766751 0.517880 0.070591
0.817777 0.532481 0.071967
0.868265 0.547622 0.073282
0.917705 0.557409 0.074097
0.954267 0.555878 0.073931
0.021170 0.487318 0.089505
0.044665 0.487765 0.082269
0.079432 0.489991 0.081619
0.111334 0.492506 0.080380
0.147840 0.495387 0.077300
0.190030 0.501214 0.072377
0.239008 0.515807 0.067069
0.335887 0.549891 0.075272
0.516347 0.590202 0.091922
0.629298 0.578767 0.085449
0.713838 0.586842 0.086099
0.778704 0.598506 0.085294
0.829547 0.611256 0.084965
0.879442 0.622951 0.085445
0.928255 0.631540 0.086147
0.964372 0.627321 0.085679
0.027471 0.566982 0.104151
0.050877 0.567706 0.096744
0.086204 0.570564 0.096187
0.118447 0.572846 0.095077
0.154627 0.575729 0.092386
0.195477 0.580328 0.086474
0.242701 0.590763 0.077149
0.323493 0.618774 0.080229
0.515069 0.667345 0.102574
0.638294 0.673718 0.098506
0.725151 0.667912 0.098953
0.784070 0.669201 0.097693
0.836333 0.679874 0.096676
0.886669 0.689880 0.096351
0.934371 0.698442 0.096972
0.969832 0.694064 0.097173
0.034011 0.642690 0.114840
0.056865 0.642868 0.107048
0.092436 0.644784 0.106500
0.124970 0.646763 0.105365
0.160832 0.649184 0.102654
0.201328 0.652624 0.096444
0.247730 0.660703 0.085828
0.325090 0.684738 0.084961
0.506108 0.728851 0.105795
0.641040 0.751415 0.118877
0.728192 0.741088 0.105653
0.790799 0.738022 0.105147
0.837363 0.737644 0.103705
0.888189 0.746143 0.103042
0.936110 0.755548 0.103955
0.972191 0.752535 0.104895
0.039872 0.714747 0.122779
0.062678 0.714885 0.114341
0.098807 0.716843 0.113978
0.131775 0.718901 0.112951
0.168487 0.721251 0.109864
0.209891 0.724908 0.103120
0.257195 0.732501 0.091213
0.337744 0.754750 0.090184
0.515395 0.793234 0.111044
0.650816 0.818335 0.131356
0.735533 0.820687 0.125792
0.798990 0.807343 0.111223
0.846590 0.805160 0.110298
0.887901 0.801417 0.109419
0.936716 0.809693 0.110423
0.973311 0.805506 0.110927
0.044933 0.782891 0.129776
0.067734 0.782832 0.120479
0.104949 0.784721 0.120039
0.138304 0.786997 0.119188
0.176388 0.789907 0.115311
0.219541 0.793805 0.107326
0.269629 0.801378 0.094084
0.354626 0.822585 0.095368
0.526546 0.856125 0.116776
0.656564 0.882378 0.138675
0.747690 0.893255 0.151657
0.810078 0.884225 0.133105
0.855303 0.871346 0.117075
0.897450 0.867542 0.116526
0.936760 0.863461 0.116108
0.973721 0.857789 0.116076
0.048418 0.833307 0.135597
0.071232 0.833322 0.126127
0.108312 0.834920 0.125449
0.141546 0.837352 0.124537
0.180189 0.840733 0.119984
0.223717 0.844644 0.111071
0.274793 0.851128 0.098184
0.358404 0.869221 0.099142
0.512969 0.899288 0.118042
0.638247 0.924498 0.139037
0.733635 0.933942 0.152977
0.804878 0.936554 0.159189
0.854994 0.932724 0.151011
0.893829 0.920348 0.123986
0.934210 0.914998 0.121766
0.973793 0.910086 0.121179
0.011943 0.017464 0.082908
0.044205 0.016696 0.082511
0.079515 0.016053 0.080555
0.128424 0.018443 0.081759
0.184436 0.023652 0.082361
0.245276 0.026208 0.078701
0.311153 0.026670 0.073752
0.385409 0.028719 0.075334
0.462423 0.034559 0.079412
0.533672 0.040312 0.083664
0.600899 0.051040 0.087963
0.663136 0.061145 0.092230
0.724259 0.072408 0.096544
0.785765 0.085488 0.101519
0.846881 0.101377 0.106752
0.891514 0.114047 0.110155
0.009925 0.045816 0.080414
0.038779 0.042970 0.080781
0.077797 0.042018 0.079026
0.127322 0.044173 0.078699
0.183298 0.048779 0.077508
0.242579 0.052199 0.073399
0.306362 0.055844 0.068854
0.379196 0.058391 0.069943
0.456843 0.063380 0.074442
0.531017 0.066902 0.079735
0.600682 0.073413 0.084979
0.664148 0.083576 0.089831
0.725322 0.096147 0.094073
0.786896 0.110524 0.098791
0.848371 0.126149 0.103755
0.892157 0.138053 0.106836
0.009034 0.075370 0.077354
0.035569 0.075427 0.076782
0.073855 0.074728 0.074774
0.124275 0.076577 0.072733
0.180300 0.080704 0.070293
0.238073 0.085029 0.066412
0.301675 0.088427 0.061035
0.374789 0.090889 0.062054
0.453502 0.095295 0.067515
0.529611 0.099594 0.073425
0.601330 0.104240 0.078673
0.665889 0.112590 0.082904
0.726789 0.125402 0.086235
0.788309 0.140608 0.089701
0.850000 0.156589 0.093357
0.892954 0.167979 0.096113
0.009503 0.114824 0.078972
0.034098 0.114826 0.076531
0.068678 0.113966 0.071724
0.116846 0.113610 0.069790
0.175436 0.116903 0.069009
0.236135 0.121471 0.067028
0.302411 0.125000 0.062398
0.379113 0.128133 0.063063
0.460196 0.133383 0.067667
0.537296 0.138838 0.073553
0.608864 0.144763 0.078876
0.672847 0.152899 0.082965
0.733640 0.165295 0.086185
0.795726 0.180856 0.089256
0.857969 0.198194 0.092519
0.898039 0.209037 0.093833
0.010846 0.156975 0.079644
0.034844 0.156769 0.076450
0.066944 0.156008 0.070616
0.108992 0.156395 0.069378
0.165004 0.156185 0.067931
0.228664 0.159403 0.066535
0.297439 0.163896 0.062786
0.378635 0.169138 0.063989
0.466775 0.175949 0.068690
0.548761 0.182136 0.074403
0.622474 0.188882 0.079714
0.685564 0.196797 0.083538
0.745662 0.207204 0.086512
0.808071 0.221805 0.089186
0.868262 0.238751 0.091705
0.905262 0.249482 0.092761
0.012177 0.200434 0.080888
0.035715 0.200325 0.077661
0.066240 0.199611 0.071151
0.104907 0.199574 0.069905
0.154814 0.201974 0.070334
0.218313 0.200967 0.067904
0.290373 0.204112 0.063388
0.375475 0.210618 0.063438
0.468561 0.220850 0.068950
0.555729 0.229634 0.074879
0.633122 0.237243 0.080743
0.697648 0.245371 0.084585
0.758285 0.256748 0.087506
0.821888 0.273312 0.090493
0.877904 0.291058 0.092214
0.914539 0.300481 0.093107
0.013137 0.245948 0.083017
0.036645 0.245891 0.079866
0.065892 0.245204 0.073053
0.103496 0.245160 0.071816
0.145242 0.247015 0.071800
0.207365 0.251834 0.073786
0.281257 0.249737 0.068162
0.374204 0.256043 0.063870
0.475269 0.267436 0.070296
0.565999 0.278834 0.076346
0.643705 0.289938 0.081602
0.708538 0.300395 0.085754
0.770541 0.314021 0.089031
0.834594 0.332523 0.092069
0.887326 0.351817 0.093436
0.924106 0.359785 0.094244
0.013991 0.295449 0.087440
0.037520 0.295475 0.084515
0.066340 0.295095 0.077552
0.102719 0.295612 0.076305
0.142068 0.297560 0.075538
0.192919 0.304418 0.076031
0.272813 0.313891 0.078106
0.373294 0.311877 0.068993
0.486604 0.324655 0.072828
0.582982 0.337529 0.079389
0.661423 0.350319 0.083985
0.725887 0.362672 0.087393
0.787739 0.379042 0.090949
0.845440 0.398998 0.093437
0.897201 0.419511 0.095242
0.933977 0.423477 0.096084
0.014265 0.352274 0.096156
0.037739 0.352556 0.093346
0.066435 0.352768 0.086115
0.101780 0.353833 0.084556
0.140606 0.356012 0.082281
0.184825 0.362565 0.079741
0.253586 0.378423 0.081509
0.375507 0.391607 0.083370
0.496652 0.393497 0.081478
0.601154 0.408460 0.084190
0.681177 0.423066 0.087888
0.747040 0.436655 0.091247
0.805292 0.452627 0.094081
0.856758 0.470985 0.096008
0.907455 0.487142 0.097649
0.944383 0.488583 0.098774
0.015067 0.415612 0.106385
0.038524 0.416145 0.103668
0.067133 0.416951 0.096263
0.102067 0.418600 0.094458
0.140278 0.421357 0.091807
0.183954 0.427055 0.087795
0.238601 0.442542 0.085944
0.363773 0.478348 0.099613
0.508349 0.481839 0.096857
0.616704 0.489147 0.099076
0.701322 0.503563 0.098447
0.768037 0.517093 0.099097
0.818858 0.530888 0.099947
0.869132 0.546019 0.100985
0.918442 0.555569 0.101954
0.954826 0.554003 0.102757
0.020271 0.489543 0.121421
0.043645 0.490219 0.118627
0.072182 0.491373 0.110922
0.107587 0.493771 0.109109
0.144467 0.496031 0.105909
0.186873 0.501110 0.100891
0.236259 0.514272 0.094613
0.330113 0.547881 0.101563
0.513040 0.590832 0.120996
0.629322 0.580112 0.115180
0.714757 0.587427 0.115886
0.779920 0.598496 0.114753
0.830660 0.610547 0.113896
0.880376 0.622249 0.114026
0.929065 0.630668 0.114934
0.965108 0.626058 0.114674
0.027687 0.570023 0.136395
0.050574 0.570668 0.133594
0.078470 0.571868 0.125473
0.114385 0.574074 0.123681
0.151292 0.576322 0.120859
0.192583 0.580323 0.115005
0.239585 0.588880 0.105086
0.316005 0.615780 0.106274
0.510177 0.666650 0.129346
0.637054 0.675875 0.128650
0.725314 0.668789 0.128843
0.785172 0.669807 0.127459
0.837388 0.680032 0.126166
0.887504 0.689985 0.125688
0.935061 0.698227 0.126130
0.970529 0.693619 0.126233
0.034425 0.645387 0.147606
0.057243 0.645610 0.144419
0.084438 0.646033 0.135480
0.120564 0.647767 0.133933
0.157279 0.649558 0.131150
0.198399 0.652613 0.125087
0.244544 0.659409 0.114287
0.317222 0.681512 0.111084
0.498163 0.727133 0.131639
0.639068 0.752039 0.147772
0.727219 0.742555 0.135365
0.791400 0.738613 0.134604
0.838260 0.738124 0.133073
0.888897 0.746695 0.132313
0.936722 0.755996 0.133104
0.972778 0.752734 0.134023
0.040296 0.717597 0.156381
0.063088 0.717654 0.152604
0.090233 0.718093 0.142649
0.126970 0.719839 0.141461
0.164580 0.721467 0.138464
0.206789 0.724847 0.131771
0.253668 0.731250 0.119754
0.330100 0.751836 0.116443
0.507077 0.791491 0.136656
0.647137 0.817870 0.158139
0.734176 0.821779 0.157813
0.799247 0.808023 0.140432
0.847190 0.805667 0.139393
0.888530 0.801967 0.138461
0.937373 0.810175 0.139390
0.974158 0.805930 0.139894
0.045384 0.785876 0.165560
0.068163 0.785798 0.161357
0.095296 0.785890 0.149183
0.133082 0.787842 0.147973
0.172043 0.790169 0.144121
0.215995 0.793650 0.136062
0.265181 0.800049 0.122566
0.346061 0.819707 0.121523
0.517965 0.854118 0.142071
0.651721 0.880962 0.165467
0.745121 0.892918 0.179758
0.809848 0.884883 0.163770
0.855627 0.871706 0.145818
0.897845 0.867910 0.145248
0.937300 0.863828 0.144809
0.974578 0.857956 0.144788
0.048807 0.836100 0.172582
0.071626 0.836129 0.168346
0.098769 0.836076 0.155763
0.136457 0.838148 0.154184
0.175918 0.841029 0.149533
0.220199 0.844555 0.140164
0.270297 0.850175 0.126379
0.350483 0.866680 0.125346
0.504814 0.897114 0.143528
0.633357 0.923235 0.166056
0.729881 0.934074 0.180966
0.803503 0.936913 0.187633
0.854899 0.933156 0.179907
0.893954 0.920531 0.152354
0.934414 0.915158 0.150229
0.974218 0.910347 0.149684
0.011699 0.022764 0.130767
0.043969 0.022130 0.131127
0.080567 0.021199 0.130214
0.125402 0.020619 0.126429
0.180888 0.023959 0.126488
0.240839 0.028463 0.125413
0.310275 0.028488 0.116812
0.389456 0.028262 0.111590
0.468267 0.035552 0.116185
0.541689 0.043634 0.120971
0.610721 0.051911 0.125206
0.673260 0.060221 0.128200
0.732331 0.070666 0.130579
0.792954 0.086009 0.135647
0.852886 0.104011 0.142776
0.895550 0.116820 0.145834
0.010134 0.052293 0.128601
0.037872 0.048086 0.129574
0.077653 0.046913 0.128988
0.124370 0.046248 0.125028
0.180677 0.049653 0.124192
0.241217 0.053681 0.121896
0.311005 0.053184 0.112499
0.389445 0.052834 0.108939
0.468144 0.058671 0.113056
0.541018 0.066624 0.117270
0.608902 0.076302 0.120887
0.671430 0.086244 0.123844
0.731689 0.097203 0.127348
0.793462 0.111719 0.133503
0.854072 0.128377 0.140449
0.896054 0.140534 0.143416
0.008978 0.082732 0.124998
0.035300 0.081758 0.125348
0.071808 0.079039 0.125789
0.122051 0.078162 0.122131
0.180129 0.081234 0.118674
0.240780 0.084423 0.112736
0.308136 0.086706 0.103718
0.383510 0.088874 0.101814
0.462623 0.092450 0.105156
0.537762 0.097320 0.109459
0.607658 0.103420 0.113829
0.670842 0.113301 0.117952
0.731216 0.126293 0.122277
0.793031 0.141939 0.127689
0.854019 0.158223 0.133628
0.895852 0.169824 0.136439
0.008798 0.115715 0.119743
0.033300 0.115916 0.119302
0.066831 0.115670 0.118249
0.113995 0.114812 0.115113
0.173626 0.117320 0.111151
0.233629 0.121061 0.105133
0.299319 0.124469 0.096930
0.375529 0.127375 0.094292
0.457054 0.131075 0.097604
0.534818 0.134792 0.102569
0.607408 0.139109 0.107758
0.672470 0.145434 0.111825
0.733480 0.157856 0.115221
0.795366 0.173122 0.118740
0.856881 0.189315 0.122809
0.897741 0.200501 0.124726
0.009137 0.157935 0.121084
0.032801 0.158386 0.119372
0.064280 0.158150 0.115606
0.103973 0.157272 0.110183
0.162647 0.157103 0.107832
0.228534 0.160145 0.105562
0.298239 0.163534 0.098415
0.379216 0.167355 0.095992
0.465266 0.172519 0.099309
0.544412 0.177860 0.103579
0.617218 0.183920 0.108176
0.681214 0.190913 0.111942
0.742216 0.200839 0.115066
0.804866 0.214834 0.117816
0.866302 0.230920 0.120610
0.903569 0.242263 0.121935
0.009849 0.203342 0.122856
0.033420 0.203170 0.120311
0.063607 0.202175 0.115109
0.100149 0.200938 0.108496
0.149436 0.202140 0.107142
0.217102 0.202056 0.104780
0.292025 0.204401 0.098069
0.377893 0.210016 0.095724
0.471201 0.218508 0.100692
0.556472 0.225656 0.106249
0.631940 0.232192 0.111007
0.695174 0.239892 0.113692
0.755071 0.250517 0.115886
0.817629 0.266232 0.118747
0.875062 0.283246 0.120782
0.911418 0.292943 0.121983
0.010491 0.249463 0.124501
0.034224 0.249136 0.121755
0.063352 0.248148 0.116214
0.098207 0.246722 0.108628
0.139794 0.247293 0.106212
0.201209 0.251984 0.107245
0.281478 0.250999 0.101536
0.375737 0.256295 0.095483
0.478049 0.266789 0.101507
0.567687 0.277146 0.107135
0.644695 0.286847 0.112348
0.708812 0.295762 0.116118
0.769848 0.307613 0.118739
0.833459 0.325148 0.121038
0.886496 0.343327 0.122226
0.922564 0.351484 0.123038
0.010916 0.299592 0.128375
0.034698 0.299388 0.125809
0.063799 0.298727 0.120126
0.097107 0.297685 0.111820
0.137318 0.298279 0.108766
0.185693 0.303562 0.107868
0.268207 0.314343 0.110087
0.373664 0.313242 0.101118
