luts/8.cube
LUT_3D_SIZE 6
0.012033 0.013024 0.012913
0.127802 0.017739 0.011643
0.299511 0.029590 0.009315
0.522344 0.042282 0.022953
0.719077 0.071125 0.035961
0.890265 0.114260 0.046069
0.010892 0.112575 0.011986
0.118634 0.113077 0.012510
0.301312 0.128549 0.010098
0.545116 0.144471 0.024104
0.738824 0.171752 0.036347
0.900763 0.217106 0.043054
0.014611 0.243112 0.019421
0.109158 0.244863 0.020006
0.281702 0.249913 0.017802
0.566070 0.281157 0.026555
0.771699 0.319218 0.039306
0.925235 0.366844 0.044505
0.016965 0.413146 0.044354
0.107324 0.417476 0.042035
0.242966 0.444379 0.036488
0.614729 0.487847 0.046910
0.817188 0.533008 0.049337
0.953908 0.556260 0.050901
0.033816 0.641287 0.083566
0.126563 0.646344 0.081805
0.248985 0.661583 0.062470
0.641914 0.751217 0.095574
0.836957 0.737438 0.080632
0.971933 0.752145 0.081970
0.048202 0.832073 0.102763
0.143256 0.837297 0.101092
0.276718 0.851845 0.075216
0.639876 0.924688 0.116817
0.854959 0.932663 0.128276
0.973521 0.910069 0.098341
0.011699 0.022764 0.130767
0.125402 0.020619 0.126429
0.310275 0.028488 0.116812
0.541689 0.043634 0.120971
0.732331 0.070666 0.130579
0.895550 0.116820 0.145834
0.008798 0.115715 0.119743
0.113995 0.114812 0.115113
0.299319 0.124469 0.096930
0.534818 0.134792 0.102569
0.733480 0.157856 0.115221
0.897741 0.200501 0.124726
0.010491 0.249463 0.124501
0.098207 0.246722 0.108628
0.281478 0.250999 0.101536
0.567687 0.277146 0.107135
0.769848 0.307613 0.118739
0.922564 0.351484 0.123038
0.014107 0.422013 0.146679
0.096118 0.421698 0.128990
0.231439 0.440223 0.115429
0.618727 0.490723 0.131977
0.821006 0.528165 0.131530
0.956268 0.550868 0.134568
0.035494 0.653349 0.189920
0.113718 0.651107 0.168932
0.239833 0.658119 0.145782
0.635170 0.752958 0.180363
0.839870 0.739377 0.165551
0.973835 0.753239 0.166509
0.049501 0.842650 0.221537
0.128099 0.841340 0.192710
0.263670 0.849279 0.159802
0.623177 0.920632 0.195744
0.854800 0.934249 0.213019
0.974855 0.911263 0.181865
0.010755 0.046902 0.298345
0.118535 0.044264 0.298391
0.291905 0.041529 0.283028
0.539753 0.062382 0.270104
0.748922 0.081238 0.266124
0.910706 0.119198 0.286690
0.008609 0.148804 0.289318
0.098744 0.136776 0.294630
0.292123 0.133103 0.279079
0.555152 0.146039 0.251219
0.755829 0.162240 0.251666
0.910842 0.203501 0.271439
0.009072 0.261814 0.275586
0.091133 0.260336 0.271723
0.255048 0.263427 0.267399
0.559909 0.276711 0.224504
0.756799 0.286856 0.218975
0.912800 0.321606 0.227534
0.020938 0.471872 0.328838
0.098713 0.467819 0.309562
0.204190 0.446753 0.256229
0.614772 0.498848 0.242245
0.827549 0.515007 0.235519
0.956117 0.529954 0.240838
0.041285 0.700729 0.391594
0.120981 0.694385 0.362387
0.219736 0.673096 0.292348
0.585540 0.748784 0.282007
0.846141 0.746039 0.270717
0.978580 0.755514 0.272014
0.051782 0.871539 0.432669
0.134678 0.869517 0.401585
0.236863 0.859855 0.312956
0.555302 0.904499 0.288230
0.851883 0.941771 0.327133
0.977592 0.916701 0.286323
0.018316 0.101269 0.497478
0.127956 0.085327 0.495993
0.277141 0.085614 0.487627
0.518672 0.082833 0.441441
0.742599 0.102811 0.454697
0.916804 0.153751 0.523534
0.016561 0.214246 0.495789
0.104252 0.180547 0.500462
0.260781 0.174797 0.496791
0.524788 0.168822 0.443430
0.748507 0.189207 0.452999
0.920584 0.243105 0.518539
0.016312 0.328838 0.492273
0.098436 0.326309 0.495225
0.211228 0.310681 0.510524
0.531554 0.305889 0.462936
0.762900 0.320174 0.452183
0.930959 0.352256 0.475607
0.018794 0.481781 0.513018
0.103051 0.488377 0.517782
0.212223 0.502522 0.528186
0.526950 0.548175 0.540403
0.809855 0.527978 0.448379
0.943846 0.522323 0.401059
0.043176 0.722676 0.606646
0.130276 0.730482 0.604136
0.235353 0.740524 0.587291
0.411436 0.741716 0.482827
0.844767 0.765444 0.433228
0.981295 0.759847 0.422905
0.060980 0.900875 0.653901
0.145948 0.905551 0.645091
0.249368 0.904620 0.601957
0.439563 0.904740 0.461156
0.810912 0.953753 0.481972
0.977538 0.927403 0.419712
0.029533 0.148134 0.691373
0.148630 0.136662 0.696411
0.303644 0.133992 0.686125
0.504748 0.132385 0.668046
0.732427 0.126349 0.642873
0.911652 0.154403 0.685509
0.028831 0.278796 0.696526
0.117193 0.235312 0.703188
0.279032 0.222771 0.696968
0.492498 0.220320 0.678081
0.735840 0.212057 0.649776
0.915433 0.246831 0.692219
0.029352 0.402855 0.706640
0.109878 0.396630 0.708925
0.216653 0.358683 0.716833
0.448050 0.351677 0.715176
0.751039 0.342508 0.679172
0.933313 0.381466 0.720945
0.032223 0.557758 0.736325
0.118728 0.559195 0.740112
0.225340 0.559509 0.747667
0.396466 0.557543 0.778756
0.804891 0.547875 0.763294
0.969235 0.559788 0.760309
0.045463 0.721328 0.763984
0.133630 0.728812 0.768228
0.242221 0.742886 0.776334
0.367339 0.764164 0.786014
0.808435 0.805780 0.790104
0.985596 0.783869 0.747377
0.066806 0.895603 0.808679
0.153389 0.903419 0.811330
0.260839 0.916432 0.811431
0.373317 0.935966 0.793997
0.743179 0.959347 0.711038
0.985523 0.954758 0.674885
0.039051 0.213970 0.857542
0.161218 0.180408 0.873039
0.329995 0.177237 0.878105
0.505473 0.172876 0.879127
0.748008 0.175353 0.885322
0.910504 0.189685 0.876345
0.039009 0.332803 0.867347
0.123582 0.297917 0.871818
0.299896 0.268916 0.884328
0.492643 0.261259 0.884202
0.749704 0.266653 0.889087
0.915725 0.281841 0.884233
0.039527 0.461961 0.881607
0.119570 0.453345 0.883603
0.223678 0.407133 0.891282
0.459587 0.399231 0.906762
0.764816 0.399728 0.910245
0.939595 0.417439 0.911747
0.043885 0.614259 0.907220
0.131427 0.613861 0.910781
0.239073 0.606666 0.917404
0.393099 0.571138 0.938123
0.787779 0.577016 0.956591
0.969500 0.587463 0.950727
0.058827 0.764414 0.928779
0.146806 0.767940 0.932878
0.254582 0.772572 0.939734
0.367947 0.778547 0.954380
0.753947 0.787176 0.981917
0.988099 0.789833 0.977524
0.073409 0.892500 0.936558
0.159680 0.898330 0.940614
0.266546 0.907337 0.946827
0.377004 0.919029 0.954751
0.601232 0.946190 0.971487
0.987301 0.985481 0.969521
