luts/9.cube
LUT_3D_SIZE 16
-0.005821 -0.005821 -0.005821
0.015544 -0.005666 -0.005666
0.046700 -0.005422 -0.004918
0.085399 -0.005148 -0.002591
0.162159 -0.004862 0.011130
0.261998 -0.004567 0.032209
0.365289 -0.004272 0.054818
0.471064 -0.003955 0.078517
0.573640 -0.003615 0.101405
0.670599 -0.003250 0.122754
0.770654 -0.002825 0.144846
0.839779 -0.002294 0.170160
0.877521 -0.001576 0.195814
0.924381 -0.000564 0.214764
0.976053 0.000703 0.223006
1.011902 0.001650 0.223705
-0.005507 0.015607 -0.005507
0.015690 0.015682 -0.005342
0.046886 0.020649 -0.004471
0.085272 0.022583 -0.002153
0.159868 0.023062 0.011017
0.257787 0.022947 0.031601
0.358997 0.022621 0.053673
0.463321 0.022268 0.076989
0.565551 0.022022 0.099816
0.662085 0.021872 0.121086
0.762126 0.021972 0.143059
0.838886 0.022512 0.168333
0.876507 0.023672 0.194559
0.923221 0.025540 0.214459
0.974779 0.027734 0.223079
1.010560 0.028681 0.223710
-0.005007 0.046505 -0.005007
0.020745 0.046605 -0.004789
0.046870 0.046722 -0.004280
0.085126 0.050383 -0.001846
0.158473 0.049720 0.011200
0.254669 0.049257 0.031366
0.354144 0.048364 0.052973
0.456887 0.047468 0.075885
0.558476 0.046740 0.098581
0.654544 0.046166 0.119760
0.754144 0.046033 0.141611
0.838096 0.046681 0.166760
0.875597 0.048415 0.193484
0.922186 0.051321 0.213940
0.973638 0.054731 0.223147
1.009376 0.055798 0.224359
-0.004399 0.083532 -0.004399
0.022827 0.083540 -0.004149
0.049049 0.083617 -0.003853
0.082893 0.083592 -0.002959
0.158038 0.078740 0.011485
0.252980 0.077274 0.031553
0.350677 0.075612 0.052749
0.451915 0.074029 0.075281
0.552802 0.072710 0.097822
0.648298 0.071629 0.118884
0.747207 0.071222 0.140594
0.836906 0.071980 0.165515
0.874821 0.074340 0.192306
0.921323 0.078380 0.212892
0.972667 0.083045 0.222198
1.008374 0.084208 0.223498
-0.003710 0.148360 -0.003710
0.023571 0.147769 -0.003415
0.050036 0.147601 -0.003090
0.078548 0.147828 -0.002701
0.142667 0.146741 0.000953
0.248537 0.135078 0.027884
0.347314 0.105622 0.051545
0.447668 0.102083 0.074313
0.548010 0.099556 0.096946
0.642877 0.097948 0.117959
0.740940 0.097239 0.139352
0.833950 0.098093 0.163573
0.874187 0.101082 0.189876
0.920583 0.106272 0.210846
0.971858 0.112195 0.221728
1.007566 0.113428 0.223614
-0.002958 0.229912 -0.002958
0.023779 0.228739 -0.002637
0.049892 0.228007 -0.002266
0.077507 0.227858 -0.001859
0.106752 0.227837 -0.001389
0.211388 0.226461 0.002287
0.334972 0.212771 0.038056
0.439748 0.185880 0.068279
0.541174 0.156951 0.093048
0.635956 0.135649 0.114755
0.733748 0.127756 0.136416
0.830446 0.126966 0.160560
0.873708 0.128385 0.187313
0.920042 0.134735 0.209685
0.971289 0.148830 0.220405
1.006993 0.159042 0.221899
-0.002143 0.312887 -0.002143
0.023847 0.311085 -0.001798
0.049364 0.309910 -0.001413
0.076299 0.309269 -0.000962
0.104138 0.309047 -0.000460
0.133170 0.308586 0.000103
0.293299 0.306776 0.000862
0.420606 0.288573 0.039525
0.529269 0.267926 0.081840
0.626112 0.250978 0.107357
0.723845 0.238963 0.129977
0.825105 0.220346 0.154868
0.873397 0.227527 0.182443
0.919703 0.253941 0.204357
0.971064 0.305776 0.213672
1.006927 0.314720 0.214443
-0.001251 0.397609 -0.001251
0.023969 0.395412 -0.000891
0.048909 0.393746 -0.000472
0.075116 0.392682 0.000008
0.102205 0.392130 0.000540
0.129925 0.391740 0.001125
0.184853 0.390888 0.001782
0.366075 0.387989 0.004530
0.503398 0.367406 0.042126
0.611053 0.344563 0.090043
0.713703 0.329604 0.121034
0.819616 0.330448 0.147818
0.873267 0.346441 0.175352
0.919657 0.376957 0.196703
0.971209 0.404799 0.205346
1.006930 0.409107 0.206228
-0.000262 0.481310 -0.000262
0.024286 0.478881 0.000132
0.048706 0.476983 0.000581
0.074279 0.475802 0.001075
0.100715 0.474996 0.001639
0.127770 0.474431 0.002262
0.155320 0.473852 0.002940
0.232264 0.472780 0.003681
0.449716 0.469771 0.004489
0.578028 0.451346 0.024182
0.690682 0.435283 0.088743
0.809779 0.428059 0.130778
0.873391 0.435763 0.164232
0.919927 0.460702 0.186072
0.971279 0.494389 0.192114
1.006859 0.499179 0.192557
0.000832 0.560638 0.000832
0.024774 0.557983 0.001253
0.048726 0.556037 0.001713
0.073767 0.554562 0.002252
0.099623 0.553574 0.002848
0.126082 0.552985 0.003496
0.153032 0.552550 0.004201
0.182106 0.551870 0.004985
0.328514 0.550869 0.005827
0.528481 0.548249 0.006735
0.656015 0.535497 0.018457
0.785075 0.531393 0.081848
0.873537 0.539459 0.135902
0.920145 0.566513 0.160178
0.971264 0.603778 0.162865
1.006690 0.607665 0.163268
0.002127 0.642885 0.002127
0.025640 0.640156 0.002569
0.049338 0.637966 0.003085
0.074059 0.636479 0.003654
0.099553 0.635475 0.004286
0.125641 0.634810 0.004983
0.152241 0.634320 0.005744
0.179265 0.633926 0.006551
0.206735 0.633355 0.007370
0.421630 0.632768 0.007861
0.605470 0.629981 0.008070
0.749223 0.628277 0.015992
0.870785 0.641625 0.065837
0.920274 0.673440 0.103029
0.971142 0.713233 0.085237
1.006401 0.716008 0.092369
0.003800 0.737933 0.003800
0.027196 0.735100 0.004298
0.050964 0.732892 0.004855
0.075735 0.731315 0.005481
0.101254 0.730224 0.006173
0.127363 0.729510 0.006936
0.153948 0.729233 0.007648
0.180881 0.729185 0.008073
0.208280 0.729132 0.008183
0.263312 0.728564 0.008292
0.511904 0.727286 0.008397
0.696308 0.723373 0.008492
0.848295 0.739807 0.008613
0.920269 0.772908 0.013253
0.970877 0.809995 0.008399
1.005970 0.811505 0.010387
0.006127 0.846380 0.006127
0.029775 0.844149 0.006690
0.054089 0.842357 0.007336
0.079388 0.841057 0.008039
0.105253 0.840374 0.008509
0.131533 0.840253 0.008576
0.158420 0.840099 0.008579
0.185865 0.839635 0.008598
0.213862 0.838712 0.008612
0.242907 0.837315 0.008628
0.347279 0.835317 0.008630
0.647643 0.832593 0.008636
0.797889 0.827402 0.008606
0.916036 0.856879 0.008410
0.970447 0.888451 0.007942
1.005379 0.889268 0.007650
0.009455 0.921507 0.009455
0.033363 0.921166 0.009710
0.058018 0.920949 0.009579
0.083710 0.920817 0.009407
0.110290 0.920713 0.009263
0.137609 0.920634 0.009144
0.165587 0.920559 0.009029
0.194174 0.920506 0.008936
0.223310 0.920427 0.008831
0.252947 0.920300 0.008717
0.305943 0.920122 0.008594
0.619786 0.919855 0.008442
0.788580 0.919408 0.008267
0.892008 0.918000 0.008063
0.969701 0.936552 0.007302
1.004609 0.937395 0.006896
0.010949 0.973314 0.010949
0.035241 0.972900 0.010521
0.060892 0.972555 0.010163
0.087717 0.972285 0.009879
0.115449 0.972031 0.009611
0.143950 0.971788 0.009354
0.173135 0.971547 0.009099
0.202951 0.971328 0.008866
0.233347 0.971084 0.008608
0.264209 0.970819 0.008329
0.335388 0.970536 0.008033
0.646599 0.970224 0.007707
0.804220 0.969877 0.007346
0.900719 0.969486 0.006941
0.964663 0.969066 0.006508
1.003647 0.969837 0.005952
0.011277 1.009084 0.011277
0.035616 1.008578 0.010780
0.061339 1.008157 0.010367
0.088186 1.007760 0.009979
0.115938 1.007396 0.009623
0.144454 1.007036 0.009271
0.173674 1.006701 0.008944
0.203451 1.006335 0.008587
0.233822 1.005963 0.008224
0.264704 1.005581 0.007851
0.317186 1.005160 0.007438
0.628660 1.004699 0.006986
0.794001 1.004211 0.006506
0.893406 1.003701 0.006005
0.958812 1.003113 0.005426
1.002426 1.002477 0.004797
-0.005761 -0.005761 0.015506
0.015572 -0.005600 0.015577
0.046732 -0.005342 0.021039
0.085369 -0.005059 0.024988
0.161695 -0.004766 0.038765
0.261152 -0.004466 0.059307
0.364075 -0.004167 0.081166
0.469551 -0.003846 0.104095
0.572062 -0.003503 0.126362
0.668931 -0.003133 0.147150
0.769086 -0.002710 0.168892
0.839615 -0.002170 0.194178
0.877323 -0.001431 0.220311
0.924154 -0.000398 0.240211
0.975829 0.000875 0.249086
1.011640 0.001856 0.249599
-0.005445 0.015635 0.015647
0.015718 0.015710 0.015723
0.046877 0.015836 0.016382
0.085283 0.016000 0.018545
0.160100 0.016188 0.031642
0.258230 0.016395 0.052170
0.359637 0.016620 0.074194
0.463824 0.016869 0.097392
0.565867 0.017143 0.120086
0.662256 0.017446 0.141227
0.762269 0.017801 0.163088
0.838907 0.018265 0.188200
0.876546 0.018905 0.214104
0.923314 0.019818 0.233417
0.974921 0.020977 0.241860
1.010711 0.021873 0.242712
-0.004925 0.046542 0.020693
0.015979 0.046616 0.015983
0.046905 0.046759 0.016408
0.085154 0.048847 0.018703
0.158266 0.047838 0.031526
0.254370 0.047350 0.051552
0.353601 0.046560 0.073004
0.456093 0.045788 0.095747
0.557483 0.045188 0.118278
0.653330 0.044736 0.139279
0.752566 0.044677 0.160876
0.837995 0.045292 0.185627
0.875501 0.046863 0.211934
0.922099 0.049478 0.232446
0.973529 0.052547 0.242206
1.009278 0.053588 0.243561
-0.004302 0.083533 0.022762
0.016353 0.083539 0.016358
0.047588 0.083624 0.016559
0.082910 0.083612 0.017351
0.157863 0.078073 0.031624
0.252445 0.076267 0.051481
0.349864 0.074685 0.072470
0.450785 0.073127 0.094789
0.551458 0.071858 0.117131
0.646613 0.070837 0.137920
0.745109 0.070459 0.159268
0.836435 0.071192 0.183774
0.874700 0.073473 0.210484
0.921177 0.077353 0.231595
0.972514 0.081829 0.241312
1.008234 0.082974 0.242487
-0.003599 0.148132 0.023482
0.016831 0.147753 0.016837
0.048197 0.147448 0.017081
0.077823 0.147714 0.017358
0.142648 0.146641 0.020918
0.248351 0.134353 0.047895
0.346469 0.105695 0.070997
0.446450 0.102072 0.093443
0.546416 0.099031 0.115685
0.640870 0.097448 0.136239
0.738695 0.096747 0.157247
0.833109 0.097588 0.181249
0.874060 0.100514 0.207967
0.920447 0.105595 0.229844
0.971728 0.111392 0.240462
1.007414 0.112624 0.242248
-0.002837 0.229462 0.023673
0.017393 0.228700 0.017399
0.048009 0.227776 0.017677
0.076630 0.227565 0.017990
0.106276 0.227577 0.018352
0.211414 0.225926 0.022176
0.335277 0.209700 0.058629
0.438899 0.186672 0.087708
0.539243 0.160890 0.111464
0.633699 0.142712 0.132896
0.731281 0.127931 0.154407
0.829436 0.126980 0.178728
0.873583 0.127987 0.205993
0.919912 0.134259 0.228322
0.971149 0.147670 0.238968
1.006857 0.155817 0.240470
-0.002013 0.312202 0.023723
0.018038 0.310996 0.018043
0.047593 0.309462 0.018352
0.075394 0.308781 0.018698
0.103660 0.308549 0.019095
0.133014 0.308117 0.019544
0.293966 0.305778 0.020346
0.421039 0.284951 0.060123
0.529154 0.263968 0.101905
0.624906 0.251848 0.126177
0.722456 0.241971 0.148528
0.824250 0.220001 0.173518
0.873278 0.226388 0.201009
0.919562 0.251937 0.222869
0.970974 0.303156 0.232129
1.006831 0.312097 0.233046
-0.001112 0.396748 0.023832
0.018775 0.395115 0.018780
0.047270 0.393025 0.019120
0.074245 0.391971 0.019492
0.101699 0.391420 0.019920
0.129638 0.391023 0.020407
0.184760 0.390302 0.020949
0.366300 0.387253 0.023579
0.503103 0.366282 0.061728
0.610371 0.343841 0.109025
0.712847 0.329271 0.139666
0.818931 0.330260 0.166322
0.873155 0.346467 0.193651
0.919573 0.376270 0.214918
0.971109 0.404386 0.223634
1.006823 0.409357 0.224557
-0.000114 0.480389 0.024126
0.019609 0.478550 0.019614
0.047191 0.476295 0.019982
0.073465 0.475005 0.020388
0.100218 0.474239 0.020849
0.127452 0.473799 0.021363
0.155130 0.473313 0.021940
0.231686 0.472326 0.022580
0.449313 0.469362 0.023287
0.577433 0.450786 0.043147
0.689995 0.434735 0.107364
0.808821 0.427536 0.149133
0.873327 0.434790 0.182548
0.919848 0.459502 0.204486
0.971181 0.492823 0.210802
1.006741 0.497547 0.211378
0.000990 0.559603 0.024596
0.020557 0.557560 0.020562
0.047348 0.555185 0.020961
0.073020 0.553740 0.021400
0.099156 0.552862 0.021892
0.125762 0.552307 0.022442
0.152825 0.551849 0.023057
0.181852 0.551281 0.023729
0.327885 0.550369 0.024465
0.527958 0.547819 0.025272
0.655491 0.534934 0.036890
0.784663 0.530608 0.100306
0.873477 0.538413 0.154438
0.920061 0.565194 0.178872
0.971157 0.602091 0.181890
1.006558 0.605588 0.182525
0.002297 0.641775 0.025447
0.021701 0.639681 0.021706
0.048032 0.637278 0.022141
0.073346 0.635761 0.022618
0.099103 0.634750 0.023152
0.125339 0.634122 0.023746
0.152001 0.633723 0.024398
0.179107 0.633280 0.025121
0.206615 0.632858 0.025755
0.420858 0.632312 0.026122
0.605011 0.629507 0.026309
0.748718 0.627644 0.034313
0.870532 0.640707 0.084364
0.920158 0.672067 0.123062
0.971009 0.711625 0.106911
1.006255 0.714170 0.113743
0.003987 0.736865 0.026968
0.023203 0.734761 0.023208
0.049629 0.732217 0.023697
0.075005 0.730571 0.024231
0.100798 0.729448 0.024829
0.127040 0.728781 0.025487
0.153687 0.728598 0.026037
0.180652 0.728729 0.026306
0.208103 0.728607 0.026417
0.262614 0.727989 0.026530
0.510467 0.726651 0.026641
0.695676 0.722717 0.026742
0.848149 0.738958 0.026866
0.920152 0.771867 0.031809
0.970719 0.808551 0.026717
1.005809 0.809987 0.029111
0.006340 0.845531 0.029510
0.025323 0.843925 0.025328
0.052602 0.841834 0.025906
0.078592 0.840378 0.026530
0.104630 0.839879 0.026776
0.131062 0.839788 0.026805
0.158050 0.839615 0.026816
0.185580 0.839093 0.026836
0.213615 0.838148 0.026856
0.242691 0.836754 0.026877
0.345625 0.834771 0.026891
0.646338 0.831902 0.026881
0.797241 0.826712 0.026866
0.915828 0.856179 0.026687
0.970282 0.887467 0.026215
1.005202 0.888184 0.025929
0.009706 0.921365 0.033382
0.028020 0.921151 0.028020
0.056109 0.920890 0.027823
0.082581 0.920734 0.027637
0.109509 0.920624 0.027498
0.137033 0.920541 0.027385
0.165145 0.920469 0.027285
0.193804 0.920399 0.027186
0.223011 0.920311 0.027086
0.252691 0.920155 0.026979
0.301515 0.919934 0.026855
0.617034 0.919625 0.026707
0.787447 0.919127 0.026537
0.891463 0.917677 0.026338
0.969503 0.936380 0.025604
1.004414 0.937081 0.025181
0.010789 0.973159 0.035496
0.028847 0.972891 0.028845
0.058633 0.972481 0.028433
0.086369 0.972174 0.028124
0.114516 0.971911 0.027858
0.143266 0.971673 0.027617
0.172597 0.971435 0.027377
0.202486 0.971188 0.027128
0.232940 0.970936 0.026874
0.263901 0.970680 0.026616
0.328750 0.970381 0.026314
0.642143 0.970053 0.025985
0.802332 0.969698 0.025627
0.899875 0.969307 0.025233
0.964355 0.968870 0.024795
1.003433 0.969628 0.024240
0.011091 1.008894 0.035914
0.029141 1.008582 0.029140
0.059019 1.008046 0.028628
0.086801 1.007629 0.028232
0.114972 1.007254 0.027878
0.143733 1.006899 0.027543
0.173070 1.006543 0.027207
0.202965 1.006170 0.026855
0.233395 1.005791 0.026496
0.264318 1.005397 0.026122
0.309256 1.004961 0.025706
0.623073 1.004504 0.025269
0.791406 1.004007 0.024792
0.891761 1.003458 0.024264
0.957965 1.002870 0.023697
1.002190 1.002244 0.023090
-0.005671 -0.005671 0.046157
0.020478 -0.005477 0.046218
0.046772 -0.005262 0.046606
0.085358 -0.004965 0.051862
0.161319 -0.004663 0.065285
0.260410 -0.004357 0.085294
0.362992 -0.004055 0.106457
0.468183 -0.003729 0.128733
0.570599 -0.003380 0.150468
0.667385 -0.003007 0.170787
0.767492 -0.002574 0.192227
0.839445 -0.002023 0.217588
0.877139 -0.001272 0.244325
0.923946 -0.000215 0.265354
0.975571 0.001106 0.275388
1.011400 0.002084 0.275935
-0.005275 0.020546 0.046287
0.015766 0.015758 0.046322
0.046936 0.015890 0.046750
0.085283 0.016063 0.050468
0.159694 0.016260 0.063066
0.257381 0.016475 0.082683
0.358336 0.016706 0.103532
0.462250 0.016957 0.125599
0.564136 0.017236 0.147334
0.660341 0.017544 0.167621
0.760065 0.017909 0.188908
0.838726 0.018380 0.214015
0.876340 0.019039 0.240740
0.923076 0.019977 0.261897
0.974652 0.021169 0.272538
1.010428 0.022086 0.273602
-0.004837 0.046539 0.046439
0.016036 0.046623 0.046520
0.046909 0.046820 0.046838
0.085122 0.046866 0.048379
0.157919 0.045625 0.060438
0.253512 0.045737 0.080156
0.351925 0.045955 0.101271
0.453397 0.046200 0.123600
0.554003 0.046474 0.145800
0.649229 0.046780 0.166542
0.748014 0.047145 0.187945
0.837749 0.047613 0.212697
0.875250 0.048272 0.239478
0.921879 0.049215 0.260666
0.973391 0.050406 0.270641
1.009126 0.051336 0.272025
-0.004194 0.083510 0.048928
0.016428 0.083528 0.047510
0.045521 0.083699 0.045522
0.082640 0.083995 0.047123
0.157428 0.078015 0.060377
0.251517 0.075524 0.079853
0.348241 0.074393 0.100500
0.448310 0.073373 0.122440
0.548415 0.072593 0.144523
0.643235 0.072019 0.165173
0.741747 0.071903 0.186528
0.835239 0.072561 0.211179
0.874485 0.074313 0.238442
0.920979 0.077253 0.260154
0.972336 0.080689 0.269879
1.008034 0.081782 0.271021
-0.003476 0.148021 0.049886
0.016921 0.147627 0.048090
0.045926 0.147351 0.045927
0.076942 0.147655 0.046152
0.142853 0.146535 0.049716
0.247955 0.135471 0.076660
0.344975 0.107832 0.098854
0.444460 0.103417 0.120989
0.544225 0.099483 0.143047
0.638588 0.098197 0.163536
0.736469 0.097691 0.184649
0.832060 0.098496 0.208971
0.873867 0.101085 0.236166
0.920251 0.105546 0.258275
0.971517 0.110676 0.268586
1.007209 0.111871 0.270245
-0.002702 0.229159 0.049690
0.017500 0.228312 0.047883
0.046431 0.227390 0.046432
0.075933 0.227234 0.046689
0.105943 0.227299 0.046999
0.211606 0.225202 0.051140
0.335329 0.207079 0.088170
0.437728 0.190093 0.115917
0.537398 0.164964 0.139106
0.631737 0.147594 0.160509
0.729490 0.129812 0.182122
0.828356 0.128348 0.206522
0.873410 0.128396 0.233811
0.919720 0.134230 0.256233
0.970954 0.146677 0.267165
1.006696 0.152689 0.268865
-0.001867 0.311694 0.049130
0.018157 0.310349 0.047446
0.047023 0.308819 0.047024
0.075130 0.308208 0.047314
0.103527 0.308048 0.047657
0.132978 0.307680 0.048059
0.294233 0.305281 0.048999
0.420616 0.284217 0.088607
0.528132 0.264509 0.129993
0.623528 0.253707 0.154025
0.721019 0.244415 0.176344
0.823156 0.224009 0.201250
0.873123 0.229302 0.228747
0.919385 0.253686 0.251095
0.970882 0.301446 0.260729
1.006716 0.310442 0.261701
-0.000956 0.396081 0.048638
0.018899 0.394312 0.047098
0.047710 0.392208 0.047711
0.074519 0.391200 0.048032
0.101860 0.390751 0.048406
0.129723 0.390507 0.048835
0.185191 0.389898 0.049328
0.366204 0.386956 0.051814
0.502328 0.366372 0.089771
0.609184 0.344672 0.136669
0.711332 0.330924 0.167339
0.817524 0.332798 0.193780
0.873022 0.350068 0.221240
0.919504 0.381421 0.242492
0.971007 0.409476 0.251325
1.006690 0.414248 0.252318
0.000052 0.479658 0.048392
0.019750 0.477606 0.047005
0.048512 0.475264 0.048513
0.074227 0.474174 0.048857
0.100695 0.473513 0.049262
0.127739 0.473123 0.049728
0.155306 0.472704 0.050256
0.232434 0.471847 0.050841
0.448973 0.469033 0.051495
0.576573 0.450919 0.071028
0.688829 0.435280 0.135188
0.807526 0.428590 0.177192
0.873273 0.436058 0.210702
0.919759 0.460738 0.232845
0.971047 0.492680 0.239585
1.006587 0.497014 0.240335
0.001168 0.558799 0.048383
0.020710 0.556597 0.047141
0.049420 0.554159 0.049421
0.074226 0.552876 0.049797
0.099935 0.552059 0.050235
0.126282 0.551562 0.050733
0.153170 0.551274 0.051287
0.182344 0.550750 0.051912
0.329013 0.549895 0.052603
0.527481 0.547475 0.053359
0.654962 0.534887 0.066010
0.784225 0.530492 0.130177
0.873401 0.537886 0.183630
0.919942 0.563930 0.208271
0.970995 0.599702 0.211908
1.006383 0.603041 0.212733
0.002487 0.640932 0.048944
0.021865 0.638762 0.047798
0.050531 0.636141 0.050532
0.074820 0.634787 0.050943
0.100078 0.633878 0.051420
0.126011 0.633332 0.051959
0.152465 0.632951 0.052566
0.179418 0.632643 0.053230
0.206752 0.632384 0.053695
0.420884 0.631876 0.053937
0.604427 0.629003 0.054135
0.748021 0.627205 0.062662
0.870205 0.640013 0.114731
0.920026 0.670766 0.154939
0.970834 0.709546 0.143529
1.006056 0.711791 0.148917
0.004197 0.736001 0.050512
0.023390 0.733769 0.049365
0.051996 0.731021 0.051996
0.076414 0.729502 0.052467
0.101746 0.728505 0.053004
0.127710 0.727945 0.053574
0.154069 0.727954 0.053967
0.180895 0.728232 0.054114
0.208236 0.728039 0.054245
0.262526 0.727334 0.054376
0.509168 0.725889 0.054502
0.694702 0.721898 0.054616
0.847550 0.737997 0.054775
0.920007 0.770752 0.060755
0.970531 0.807055 0.056367
1.005585 0.808057 0.058640
0.006580 0.844850 0.053546
0.025546 0.843111 0.052286
0.054086 0.840796 0.054087
0.079379 0.839673 0.054507
0.105052 0.839363 0.054598
0.131329 0.839249 0.054615
0.158207 0.839015 0.054646
0.185680 0.838441 0.054686
0.213658 0.837439 0.054727
0.242714 0.835979 0.054766
0.345002 0.833908 0.054791
0.644794 0.831085 0.054813
0.796225 0.825840 0.054807
0.915507 0.855152 0.054659
0.970061 0.886376 0.054242
1.004953 0.886771 0.053972
0.009754 0.921276 0.058182
0.027974 0.921043 0.056240
0.055611 0.920785 0.055610
0.082273 0.920630 0.055456
0.109267 0.920514 0.055340
0.136823 0.920420 0.055247
0.164950 0.920334 0.055162
0.193627 0.920263 0.055091
0.222842 0.920159 0.055011
0.252518 0.919967 0.054919
0.295571 0.919694 0.054809
0.613621 0.919328 0.054688
0.785620 0.918751 0.054534
0.890605 0.917295 0.054349
0.969191 0.935996 0.053644
1.004137 0.936664 0.053256
0.010659 0.973034 0.061330
0.028687 0.972733 0.058863
0.056301 0.972353 0.056301
0.085015 0.972027 0.056006
0.113571 0.971752 0.055760
0.142532 0.971491 0.055528
0.171993 0.971237 0.055304
0.201999 0.970997 0.055091
0.232530 0.970734 0.054857
0.263491 0.970448 0.054600
0.319152 0.970133 0.054314
0.636564 0.969814 0.054023
0.799921 0.969445 0.053682
0.898438 0.969030 0.053296
0.963884 0.968582 0.052877
1.003127 0.969293 0.052347
0.010932 1.008732 0.061847
0.028935 1.008366 0.059302
0.056518 1.007867 0.056517
0.085349 1.007448 0.056151
0.113953 1.007059 0.055815
0.142929 1.006679 0.055487
0.172413 1.006319 0.055178
0.202408 1.005941 0.054852
0.232910 1.005551 0.054513
0.263874 1.005130 0.054144
0.300131 1.004705 0.053769
0.615404 1.004226 0.053341
0.787752 1.003715 0.052882
0.889650 1.003175 0.052392
0.956817 1.002568 0.051837
1.001850 1.001907 0.051227
-0.005576 -0.005576 0.083245
0.022327 -0.005355 0.083110
0.050917 -0.005116 0.083062
0.085360 -0.004863 0.083392
0.161042 -0.004552 0.094565
0.259791 -0.004239 0.113322
0.362032 -0.003931 0.133564
0.466939 -0.003600 0.154984
0.569275 -0.003248 0.176044
0.665975 -0.002868 0.195782
0.765989 -0.002424 0.216853
0.839294 -0.001865 0.242292
0.876969 -0.001097 0.269675
0.923753 -0.000013 0.291918
0.975386 0.001322 0.302655
1.011183 0.002335 0.301902
-0.005142 0.022395 0.083009
0.015821 0.015813 0.082989
0.049427 0.015961 0.082972
0.085308 0.016129 0.083347
0.159483 0.016335 0.093461
0.256884 0.016555 0.111639
0.357512 0.016791 0.131456
0.460988 0.017050 0.152526
0.562650 0.017335 0.173467
0.658648 0.017648 0.193077
0.758250 0.018020 0.213955
0.838524 0.018503 0.239059
0.876171 0.019180 0.266492
0.922885 0.020145 0.288993
0.974426 0.021377 0.299510
1.010209 0.022304 0.299747
-0.004654 0.049530 0.082916
0.016126 0.048060 0.082896
0.046950 0.046066 0.082941
0.085151 0.046138 0.083400
0.157557 0.045606 0.092130
0.252564 0.045809 0.109612
0.350163 0.046032 0.129033
0.450896 0.046280 0.149863
0.551144 0.046560 0.170895
0.646222 0.046871 0.190701
0.745034 0.047241 0.211627
0.837309 0.047725 0.236566
0.875097 0.048400 0.264655
0.921698 0.049371 0.287514
0.973158 0.050609 0.298413
1.008908 0.051547 0.299270
-0.004077 0.082897 0.082212
0.016508 0.082918 0.082230
0.045587 0.083114 0.082337
0.082688 0.083378 0.083014
0.157228 0.078842 0.092639
0.250726 0.077352 0.110860
0.346533 0.077437 0.131109
0.445726 0.077594 0.152757
0.545292 0.077864 0.174669
0.639709 0.078170 0.195197
0.738008 0.078537 0.216499
0.833139 0.079018 0.241206
0.874182 0.079684 0.268670
0.920686 0.080648 0.290585
0.972102 0.081873 0.301343
1.007802 0.082827 0.303218
-0.003340 0.147966 0.078307
0.017021 0.147588 0.077665
0.046011 0.147357 0.076931
0.077503 0.147759 0.077666
0.142995 0.146866 0.080960
0.247424 0.138585 0.107676
0.344137 0.114735 0.129527
0.443460 0.107354 0.151365
0.543336 0.102995 0.173390
0.637655 0.102299 0.193858
0.735631 0.102145 0.214986
0.831094 0.102873 0.239463
0.873646 0.104734 0.267116
0.920030 0.107838 0.289808
0.971334 0.111491 0.299523
1.007008 0.112825 0.301490
-0.002552 0.228984 0.077305
0.017613 0.228153 0.076447
0.046524 0.227319 0.075819
0.077559 0.227213 0.077596
0.106981 0.227331 0.077845
0.211945 0.225416 0.082329
0.334863 0.209645 0.119136
0.436526 0.197247 0.146127
0.535891 0.177867 0.169142
0.629944 0.160032 0.190421
0.727464 0.139319 0.212025
0.826938 0.135787 0.236473
0.873242 0.131623 0.263878
0.919559 0.138039 0.286490
0.970814 0.160074 0.298220
1.006633 0.173639 0.300226
-0.001705 0.311357 0.076014
0.018278 0.310073 0.075156
0.047130 0.308568 0.074993
0.078085 0.307986 0.078086
0.105104 0.307939 0.078352
0.134005 0.307655 0.078683
0.294217 0.305426 0.080066
0.419696 0.286721 0.118841
0.526598 0.270437 0.160076
0.621592 0.262524 0.184068
0.718799 0.255272 0.206531
0.821638 0.242311 0.231593
0.872996 0.244142 0.259479
0.919246 0.270411 0.283107
0.970827 0.305279 0.293202
1.006635 0.313903 0.294507
-0.000782 0.395605 0.074766
0.019039 0.393806 0.073961
0.047834 0.391752 0.074363
