luts/9.cube
LUT_3D_SIZE 6
-0.005821 -0.005821 -0.005821
0.085399 -0.005148 -0.002591
0.365289 -0.004272 0.054818
0.670599 -0.003250 0.122754
0.877521 -0.001576 0.195814
1.011902 0.001650 0.223705
-0.004399 0.083532 -0.004399
0.082893 0.083592 -0.002959
0.350677 0.075612 0.052749
0.648298 0.071629 0.118884
0.874821 0.074340 0.192306
1.008374 0.084208 0.223498
-0.002143 0.312887 -0.002143
0.076299 0.309269 -0.000962
0.293299 0.306776 0.000862
0.626112 0.250978 0.107357
0.873397 0.227527 0.182443
1.006927 0.314720 0.214443
0.000832 0.560638 0.000832
0.073767 0.554562 0.002252
0.153032 0.552550 0.004201
0.528481 0.548249 0.006735
0.873537 0.539459 0.135902
1.006690 0.607665 0.163268
0.006127 0.846380 0.006127
0.079388 0.841057 0.008039
0.158420 0.840099 0.008579
0.242907 0.837315 0.008628
0.797889 0.827402 0.008606
1.005379 0.889268 0.007650
0.011277 1.009084 0.011277
0.088186 1.007760 0.009979
0.173674 1.006701 0.008944
0.264704 1.005581 0.007851
0.794001 1.004211 0.006506
1.002426 1.002477 0.004797
-0.005576 -0.005576 0.083245
0.085360 -0.004863 0.083392
0.362032 -0.003931 0.133564
0.665975 -0.002868 0.195782
0.876969 -0.001097 0.269675
1.011183 0.002335 0.301902
-0.004077 0.082897 0.082212
0.082688 0.083378 0.083014
0.346533 0.077437 0.131109
0.639709 0.078170 0.195197
0.874182 0.079684 0.268670
1.007802 0.082827 0.303218
-0.001705 0.311357 0.076014
0.078085 0.307986 0.078086
0.294217 0.305426 0.080066
0.621592 0.262524 0.184068
0.872996 0.244142 0.259479
1.006635 0.313903 0.294507
0.001364 0.558185 0.073289
0.080322 0.552086 0.080322
0.154936 0.550842 0.081584
0.527355 0.547493 0.083548
0.873326 0.539543 0.217984
1.006227 0.601916 0.247904
0.006846 0.844287 0.078618
0.084425 0.839215 0.084424
0.159970 0.838545 0.084504
0.243527 0.835257 0.084645
0.795150 0.825015 0.084703
1.004710 0.885814 0.083893
0.010795 1.008593 0.088884
0.086003 1.007260 0.086003
0.172545 1.006113 0.085072
0.263799 1.004883 0.084059
0.784557 1.003426 0.082814
1.001506 1.001570 0.081172
-0.005308 -0.005308 0.320037
0.075122 -0.004548 0.312232
0.359761 -0.003505 0.313994
0.662429 -0.002392 0.317219
0.876540 -0.000497 0.380388
1.010644 0.003199 0.428437
-0.003721 0.075165 0.305674
0.077360 0.076998 0.299745
0.344269 0.077618 0.304229
0.627053 0.078480 0.311437
0.873892 0.080116 0.362587
1.007391 0.083535 0.421185
-0.001131 0.300804 0.289424
0.078432 0.298055 0.287336
0.292966 0.297363 0.297348
0.612100 0.301753 0.325018
0.872827 0.299024 0.379912
1.006544 0.312258 0.416427
0.002054 0.554570 0.159790
0.080781 0.548946 0.167876
0.163416 0.547272 0.230708
0.527903 0.544544 0.299595
0.873210 0.549631 0.365169
1.005932 0.597199 0.390015
0.007775 0.841408 0.158095
0.084489 0.837217 0.159914
0.165357 0.835592 0.165357
0.246075 0.831555 0.165969
0.792470 0.821089 0.210866
1.004161 0.878522 0.247960
0.010473 1.008260 0.174873
0.085678 1.006852 0.173101
0.165807 1.005702 0.165807
0.260360 1.004341 0.164748
0.768942 1.002733 0.163435
1.000580 1.000714 0.161710
-0.005041 -0.005041 0.573219
0.070379 -0.004269 0.562140
0.317766 -0.003228 0.554793
0.659662 -0.001823 0.561533
0.876224 0.000217 0.596640
1.010266 0.004225 0.665951
-0.003442 0.070565 0.552042
0.077532 0.077229 0.540418
0.318628 0.077849 0.536581
0.633183 0.078921 0.546212
0.873734 0.080703 0.578957
1.007186 0.084438 0.660955
-0.000947 0.156477 0.536017
0.078619 0.164420 0.528073
0.293920 0.201709 0.526856
0.613098 0.198153 0.539162
0.872960 0.164450 0.586171
1.006544 0.165900 0.654752
0.002883 0.535189 0.511774
0.081403 0.530952 0.507920
0.163827 0.531330 0.513162
0.527227 0.529824 0.529624
0.872965 0.537689 0.552441
1.005993 0.545404 0.571500
0.008875 0.831320 0.482881
0.084633 0.827922 0.481908
0.165440 0.825653 0.493654
0.237795 0.822726 0.483907
0.790117 0.811197 0.516213
1.003940 0.847229 0.520196
0.010228 1.008006 0.550646
0.085415 1.006507 0.534125
0.165469 1.005253 0.512567
0.237014 1.004248 0.415101
0.717899 1.002307 0.447014
0.998749 0.999978 0.447750
-0.004653 -0.004653 0.849506
0.071883 -0.003776 0.840124
0.326054 -0.002595 0.832611
0.673987 -0.001018 0.832929
0.876025 0.001048 0.843296
1.010050 0.005412 0.907349
-0.002845 0.072153 0.830890
0.077634 0.077616 0.819426
0.329939 0.078376 0.813533
0.661899 0.079625 0.815838
0.873718 0.081437 0.829248
1.007226 0.085385 0.903742
-0.000053 0.154644 0.814028
0.079292 0.156394 0.804876
0.292805 0.162494 0.799865
0.648195 0.163513 0.805082
0.873280 0.164736 0.822162
1.006603 0.166072 0.899440
0.004159 0.499024 0.794987
0.082471 0.499122 0.788092
0.164414 0.509431 0.788695
0.530176 0.478220 0.797982
0.873496 0.462369 0.814301
1.005777 0.448776 0.869797
0.009360 0.809957 0.772477
0.084839 0.806507 0.769307
0.165555 0.804022 0.769876
0.237805 0.799198 0.775168
0.786202 0.787991 0.787762
1.003977 0.782744 0.789286
0.010020 1.007788 0.835303
0.085174 1.006184 0.827908
0.165115 1.004784 0.819934
0.236474 1.003579 0.797539
0.557017 1.001995 0.745770
0.995728 0.999051 0.739528
-0.003987 -0.003987 1.017649
0.079247 -0.002863 1.015092
0.387192 -0.001329 1.012925
0.762124 0.000717 1.011294
0.907838 0.003381 1.010294
1.010002 0.006764 1.010002
-0.001673 0.079662 1.012736
0.078347 0.078346 1.010527
0.383328 0.079458 1.008671
0.746992 0.081179 1.007502
0.905480 0.083606 1.007038
1.007585 0.085828 1.007585
0.001926 0.169895 1.009109
0.080775 0.169282 1.007188
0.299711 0.163368 1.006090
0.717529 0.164668 1.005685
0.904050 0.165586 1.006299
1.006687 0.166268 1.006687
0.007333 0.562156 1.006418
0.084377 0.556805 1.005471
0.165248 0.543838 1.005885
0.533578 0.430481 1.005889
0.894766 0.385081 1.005899
1.005579 0.370121 1.005579
0.010022 0.874771 0.983700
0.085372 0.869814 0.983334
0.165780 0.862602 0.984862
0.237725 0.835276 0.991404
0.785251 0.766537 1.004727
1.003291 0.748933 1.003291
0.009821 1.007580 0.976072
0.084927 1.005856 0.974428
0.164760 1.004318 0.974264
0.235932 1.002915 0.977356
0.518553 1.000971 0.986105
0.991696 0.992210 0.991979
