luts/color.cube
LUT_3D_SIZE 6
-0.022040 -0.007561 0.063813
0.047858 0.037290 0.085478
0.299566 0.095574 0.137434
0.620182 0.173741 0.212696
0.853963 0.235450 0.275452
1.015631 0.280838 0.321560
-0.025565 0.123613 0.063483
0.052086 0.120843 0.063483
0.317567 0.183348 0.121278
0.628935 0.251178 0.215636
0.858162 0.292821 0.279257
1.018856 0.321198 0.324482
-0.035695 0.359579 0.063471
0.111556 0.359579 0.063470
0.315932 0.352080 0.063468
0.663140 0.440348 0.063450
0.888467 0.450645 0.242575
1.042393 0.446054 0.307298
-0.042530 0.672534 0.063438
0.157357 0.672534 0.063436
0.413336 0.672534 0.063430
0.659096 0.668769 0.063423
0.910344 0.668097 0.063410
1.082974 0.621603 0.113840
-0.042410 0.909410 0.063393
0.153092 0.909410 0.063392
0.408482 0.909410 0.063386
0.657409 0.909409 0.063377
0.915151 0.914187 0.063359
1.083748 0.843645 0.063362
-0.036792 1.119927 0.062088
0.147766 1.119927 0.061533
0.383017 1.119927 0.059177
0.598794 1.119927 0.056763
0.829681 1.119891 0.056841
1.084385 1.120843 0.057758
-0.022094 -0.507919 0.168791
0.042144 -0.507860 0.174048
0.302929 -0.505060 0.213072
0.612226 -0.480822 0.221742
0.849420 -0.458405 0.277852
1.004456 -0.438355 0.311644
-0.012144 0.122763 0.166623
0.052282 0.121881 0.175066
0.325604 0.101941 0.164173
0.634237 0.163757 0.216256
0.861017 0.228619 0.276566
1.015946 0.285963 0.330222
-0.011946 0.359467 0.223131
-0.082454 0.365518 0.110061
0.322991 0.357322 0.118200
0.670117 0.417891 0.116775
0.887236 0.426726 0.264435
1.036989 0.429568 0.327523
-0.017020 0.672516 0.261762
-0.111772 0.674513 0.054062
0.386843 0.674835 0.108549
0.661935 0.670923 0.108577
0.911315 0.658784 0.108027
1.081972 0.610859 0.178092
-0.019937 0.909441 0.259535
-0.107989 0.910362 0.053623
0.373858 0.910595 0.107377
0.646328 0.910206 0.107933
0.916140 0.914603 0.109170
1.083971 0.839073 0.154087
-0.022605 1.119926 0.245847
0.025933 1.119955 0.122035
0.352358 1.119911 0.084152
0.584822 1.119937 -0.075633
0.823136 1.119961 -0.074019
1.084784 1.121082 -0.061088
-0.028231 -0.507994 0.435192
0.124993 -0.507895 0.440822
0.327492 -0.508137 0.444014
0.677198 -0.508163 0.556614
0.898279 -0.490918 0.538107
1.031966 -0.461878 0.506056
-0.010415 0.180439 0.429299
0.015220 0.055804 0.483755
0.338700 0.071514 0.444105
0.673602 0.059070 0.507710
0.882165 0.202019 0.497642
1.027287 0.276522 0.492979
-0.012219 0.355389 0.421687
0.012027 0.358616 0.430750
0.322438 0.344372 0.452918
0.682580 0.332141 0.417988
0.906955 0.342600 0.423953
1.020742 0.406355 0.474664
-0.017245 0.672517 0.526585
0.010485 0.674498 0.500836
0.172842 0.692755 0.332087
0.678429 0.679457 0.301918
0.948288 0.617387 0.285963
1.070268 0.595181 0.432391
-0.019950 0.909441 0.520967
0.016774 0.910362 0.488439
0.111083 0.923134 0.289172
0.594522 0.920015 0.258872
0.923864 0.918640 0.247641
1.085985 0.829406 0.391823
-0.026611 1.119926 0.467122
0.025337 1.119875 0.432460
0.279864 1.119788 0.362642
0.556683 1.119962 0.336084
0.812559 1.120682 0.337524
1.087788 1.122769 0.330384
-0.033161 -0.508083 0.878684
0.172113 -0.507895 0.879795
0.430569 -0.508336 0.884798
0.672496 -0.509105 0.878767
0.920956 -0.509152 0.873987
1.083218 -0.509157 0.796397
-0.011156 0.215007 0.850476
-0.108445 -0.100095 0.901531
0.398592 0.060121 0.873892
0.667807 0.059286 0.860454
0.915151 0.059518 0.837739
1.083881 0.108115 0.761137
-0.013778 0.438940 0.850647
0.009952 0.419184 0.861774
0.271843 0.301572 0.939854
0.708827 0.270519 0.923718
0.966148 0.239754 0.830516
1.082367 0.326179 0.732247
-0.017754 0.669367 0.847880
0.012908 0.671530 0.852982
0.174568 0.679534 0.886497
0.662535 0.655182 0.890343
0.946523 0.643923 0.852226
1.060694 0.674856 0.849393
-0.019968 0.909441 0.844536
0.015022 0.910393 0.831434
0.128585 0.920350 0.787552
0.580846 0.927333 0.798837
0.932559 0.912504 0.752468
1.085593 0.861574 0.841589
-0.028570 1.119926 0.730605
0.014753 1.119959 0.711764
0.266277 1.119774 0.677562
0.633536 1.121325 0.796852
0.845286 1.122066 0.802384
1.091477 1.124042 0.801993
-0.033571 -0.508089 1.025977
0.170113 -0.507948 1.026909
0.426339 -0.508382 1.028198
0.661817 -0.509200 1.022398
0.913216 -0.508787 1.016892
1.083032 -0.508581 0.996092
-0.019060 0.213369 1.001453
0.010932 0.036207 1.001457
0.381873 0.108131 1.001456
0.647512 0.108125 1.001455
0.910344 0.116140 1.003775
1.083882 0.108115 0.995019
-0.019129 0.435618 1.001453
0.041027 0.410546 1.001456
0.273009 0.308406 1.001495
0.617343 0.315776 1.001490
0.905517 0.320974 1.001890
1.085784 0.317256 0.993592
-0.019272 0.666506 1.001452
0.040926 0.657797 1.001455
0.275516 0.625952 1.001493
0.631671 0.636799 1.001570
0.900685 0.634187 1.001935
1.089440 0.637452 0.998484
-0.019527 0.911952 1.006327
0.047442 0.911981 1.006466
0.295782 0.907757 1.005280
0.633279 0.899120 1.003080
0.903585 0.901683 1.001745
1.088849 0.901363 1.003470
-0.027674 1.119926 0.990553
0.019723 1.119930 0.988823
0.273203 1.119938 0.985685
0.637247 1.121574 0.995600
0.909377 1.122013 1.000024
1.082807 1.118906 0.999922
-0.031761 -0.508072 1.186189
0.151441 -0.507949 1.186313
0.390960 -0.508382 1.186075
0.606557 -0.509201 1.183958
0.832644 -0.508668 1.182394
1.084747 -0.507879 1.184696
-0.019086 0.200257 1.172770
0.019296 0.066990 1.173238
0.351467 0.108131 1.173114
0.598590 0.108122 1.173114
0.838523 0.108103 1.173114
1.085397 0.108107 1.173113
-0.019146 0.407489 1.172770
0.041020 0.383525 1.173146
0.279432 0.314680 1.177323
0.571984 0.315775 1.176768
0.828758 0.315772 1.176768
1.087511 0.315770 1.176767
-0.019265 0.622353 1.172769
0.040927 0.611604 1.173145
0.275516 0.583158 1.177132
0.636696 0.641630 1.185238
0.852193 0.632704 1.184922
1.090524 0.632704 1.184922
-0.019458 0.845093 1.172769
0.040777 0.839842 1.173144
0.275488 0.830381 1.177131
0.626199 0.850215 1.185355
0.904578 0.902478 1.181973
1.087284 0.901473 1.182411
-0.019745 1.047997 1.172768
0.041304 1.048255 1.173143
0.275401 1.049583 1.177130
0.626196 1.050650 1.185354
0.904578 1.047316 1.180269
1.083518 1.046732 1.172357
