luts/color.cube
LUT_3D_SIZE 16
-0.022040 -0.007561 0.063813
0.002417 -0.003074 0.063402
0.016663 0.014959 0.075041
0.047858 0.037290 0.085478
0.107002 0.054564 0.099133
0.197842 0.073839 0.116684
0.299566 0.095574 0.137434
0.408261 0.120999 0.161418
0.518160 0.147871 0.187321
0.620182 0.173741 0.212696
0.711182 0.197780 0.236035
0.787909 0.218368 0.257672
0.853963 0.235450 0.275452
0.905517 0.249857 0.289279
0.943040 0.260509 0.300399
1.015631 0.280838 0.321560
-0.022274 0.036630 0.063484
0.002847 0.036475 0.064089
0.017157 0.039194 0.076221
0.047878 0.047643 0.086910
0.107394 0.063076 0.099776
0.199372 0.080682 0.117273
0.299940 0.102559 0.138129
0.408555 0.127140 0.162053
0.518430 0.153273 0.187868
0.620430 0.178444 0.213168
0.710486 0.201375 0.235673
0.789073 0.221210 0.257193
0.853171 0.238606 0.274720
0.905517 0.252806 0.290451
0.943122 0.262728 0.300640
1.015725 0.282863 0.321781
-0.023332 0.077362 0.063483
0.003320 0.077347 0.063483
0.018164 0.076469 0.063483
0.053611 0.086318 0.063483
0.117106 0.099370 0.091811
0.204469 0.116479 0.116502
0.304805 0.137043 0.139002
0.412222 0.160098 0.163899
0.521247 0.183980 0.190087
0.622634 0.206339 0.215427
0.713179 0.226837 0.238934
0.790282 0.242751 0.258580
0.855043 0.258203 0.277075
0.906434 0.269778 0.291537
0.944036 0.277582 0.302047
1.016625 0.296052 0.322859
-0.025565 0.123613 0.063483
0.004102 0.123613 0.063483
0.023586 0.123613 0.063483
0.052086 0.120843 0.063483
0.120142 0.142075 0.063481
0.218231 0.161667 0.074643
0.317567 0.183348 0.121278
0.422663 0.207056 0.156339
0.529381 0.230551 0.187654
0.628935 0.251178 0.215636
0.717948 0.268173 0.241189
0.795411 0.282182 0.260758
0.858162 0.292821 0.279257
0.909377 0.300649 0.293103
0.946198 0.305519 0.304271
1.018856 0.321198 0.324482
-0.028721 0.186270 0.063481
0.005285 0.186270 0.063481
0.031577 0.186270 0.063481
0.070885 0.185318 0.063481
0.114420 0.182503 0.063480
0.216411 0.215260 0.063478
0.324377 0.240715 0.063475
0.436930 0.263356 0.110134
0.543863 0.286092 0.163284
0.641200 0.305507 0.202934
0.727873 0.320265 0.234488
0.802388 0.331980 0.258237
0.863438 0.338018 0.279760
0.913216 0.342555 0.295537
0.950469 0.343939 0.305774
1.023244 0.356310 0.324891
-0.032254 0.265832 0.063477
0.006826 0.265832 0.063477
0.039152 0.265832 0.063477
0.091926 0.265832 0.063477
0.154447 0.265345 0.063476
0.210717 0.258943 0.063476
0.323165 0.300356 0.063471
0.439159 0.330110 0.063470
0.555174 0.351607 0.079630
0.656735 0.367882 0.156178
0.742783 0.379273 0.207697
0.815609 0.387703 0.242136
0.874594 0.392713 0.269445
0.921952 0.393690 0.291611
0.957631 0.389708 0.303317
1.030890 0.398656 0.320911
-0.035695 0.359579 0.063471
0.008437 0.359579 0.063471
0.047448 0.359579 0.063471
0.111556 0.359579 0.063470
0.186062 0.359973 0.063469
0.255221 0.357804 0.063468
0.315932 0.352080 0.063468
0.437840 0.396462 0.063464
0.555273 0.424777 0.063456
0.663140 0.440348 0.063450
0.756740 0.447781 0.136389
0.831544 0.450362 0.194295
0.888467 0.450645 0.242575
0.935448 0.446054 0.272344
0.968404 0.440640 0.291679
1.042393 0.446054 0.307298
-0.038718 0.463360 0.063464
0.009962 0.463360 0.063464
0.057324 0.463360 0.063464
0.132115 0.463360 0.063463
0.212865 0.463206 0.063462
0.290570 0.463863 0.063461
0.365027 0.462173 0.063460
0.430842 0.455836 0.063458
0.553975 0.496961 0.063448
0.663139 0.517283 0.063443
0.759459 0.525294 0.063437
0.841371 0.523352 0.095757
0.903044 0.515312 0.181901
0.948884 0.508232 0.236469
0.981852 0.496119 0.263248
1.057233 0.498132 0.276425
-0.041050 0.570771 0.063450
0.011189 0.570771 0.063450
0.063468 0.570771 0.063450
0.144469 0.570771 0.063449
0.231218 0.570771 0.063452
0.316030 0.570682 0.063450
0.396207 0.570771 0.063448
0.475108 0.569658 0.063445
0.548569 0.564703 0.063443
0.662301 0.593910 0.063432
0.759140 0.604458 0.063428
0.839529 0.600065 0.063423
0.910133 0.588717 0.063419
0.961313 0.573302 0.159875
0.995587 0.557155 0.206891
1.072721 0.556002 0.217532
-0.042530 0.672534 0.063438
0.011862 0.672534 0.063436
0.068957 0.672534 0.063437
0.157357 0.672534 0.063436
0.242692 0.672534 0.063434
0.329294 0.672534 0.063432
0.413336 0.672534 0.063430
0.497110 0.672534 0.063431
0.579735 0.671724 0.063426
0.659096 0.668769 0.063423
0.757606 0.683068 0.063414
0.841322 0.680089 0.063413
0.910344 0.668097 0.063410
0.964236 0.649302 0.063408
1.003660 0.624986 0.105105
1.082974 0.621603 0.113840
-0.043177 0.765050 0.063422
0.012165 0.765050 0.063421
0.069897 0.765050 0.063421
0.157022 0.765050 0.063421
0.248996 0.765050 0.063419
0.332407 0.765050 0.063417
0.420337 0.765050 0.063415
0.505257 0.765050 0.063412
0.590240 0.765050 0.063412
0.674418 0.764620 0.063407
0.758844 0.764062 0.063402
0.840612 0.762511 0.063397
0.910344 0.747026 0.063394
0.964236 0.723432 0.063394
1.004124 0.698401 0.063395
1.083748 0.694593 0.063391
-0.043086 0.844928 0.063408
0.012111 0.844928 0.063408
0.068957 0.844928 0.063407
0.156872 0.844928 0.063406
0.247839 0.844928 0.063405
0.331966 0.844928 0.063403
0.418203 0.844928 0.063401
0.502745 0.844928 0.063398
0.587487 0.844927 0.063394
0.671851 0.844927 0.063392
0.755199 0.844927 0.063386
0.843887 0.848027 0.063380
0.910344 0.827281 0.063380
0.964236 0.804087 0.063380
1.004124 0.773138 0.063382
1.083748 0.768688 0.063375
-0.042410 0.909410 0.063393
0.011636 0.909410 0.063393
0.066190 0.909410 0.063393
0.153092 0.909410 0.063392
0.239765 0.909410 0.063391
0.325634 0.909409 0.063389
0.408482 0.909410 0.063386
0.491532 0.909409 0.063384
0.574547 0.909409 0.063381
0.657409 0.909409 0.063377
0.739736 0.909409 0.063375
0.823049 0.910377 0.063369
0.915151 0.914187 0.063359
0.966148 0.882394 0.063365
1.004123 0.848763 0.063367
1.083748 0.843645 0.063362
-0.041381 0.956227 0.063380
0.010901 0.956227 0.063380
0.063468 0.956227 0.063380
0.143610 0.956227 0.063378
0.231770 0.956226 0.063377
0.312783 0.956226 0.063375
0.394583 0.956226 0.063372
0.475160 0.956226 0.063373
0.555966 0.956226 0.063370
0.636409 0.956226 0.063366
0.717779 0.956226 0.063362
0.797729 0.956226 0.063356
0.880338 0.957604 0.063353
0.972846 0.962765 0.063343
1.005265 0.925971 0.063352
1.083747 0.919371 0.063346
-0.040438 0.986468 0.063370
0.009959 0.986468 0.063370
0.059923 0.986468 0.063370
0.138250 0.986468 0.063369
0.220414 0.986467 0.063369
0.300899 0.986467 0.063366
0.378596 0.986467 0.063365
0.456505 0.986467 0.063362
0.534463 0.986467 0.063359
0.612444 0.986467 0.063355
0.689948 0.986467 0.063354
0.767578 0.986467 0.063349
0.846285 0.986943 0.063343
0.927692 0.988127 0.063338
1.008589 0.989352 0.063333
1.084061 0.982300 0.063326
-0.036792 1.119927 0.062088
0.014087 1.119927 0.062050
0.066190 1.119927 0.061902
0.147766 1.119927 0.061533
0.230919 1.119927 0.060922
0.309318 1.119927 0.060126
0.383017 1.119927 0.059177
0.455038 1.119927 0.058187
0.526434 1.119927 0.057340
0.598794 1.119927 0.056763
0.673109 1.119927 0.056554
0.748359 1.119927 0.056625
0.829681 1.119891 0.056841
0.913216 1.119854 0.057229
0.995811 1.120170 0.057597
1.084385 1.120843 0.057758
-0.027936 -0.507902 0.093687
-0.038123 -0.507894 0.093623
0.005270 -0.507873 0.095282
-0.138407 -0.502800 -0.144361
-0.169375 -0.496626 -0.204061
0.036251 -0.495064 -0.205100
0.220833 -0.493202 -0.197075
0.364552 -0.490101 -0.183381
0.493473 -0.485443 -0.161593
0.606965 -0.479531 -0.128268
0.702492 -0.472781 -0.067369
0.783909 -0.466002 0.133821
0.848342 -0.459606 0.177021
0.899676 -0.453959 0.202330
0.933645 -0.449729 0.217667
1.005476 -0.439818 0.248833
-0.020804 0.036363 0.091587
0.002712 0.036287 0.093523
0.021891 0.014241 0.090788
0.053882 0.022858 0.091133
0.111307 0.042676 0.100847
0.200374 0.064604 0.116638
0.301521 0.088594 0.136682
0.409516 0.115113 0.160490
0.519008 0.142874 0.186367
0.620739 0.169456 0.211798
0.709941 0.193634 0.235048
0.788394 0.214972 0.255768
0.853993 0.233833 0.275363
0.905517 0.248457 0.289189
0.942986 0.258877 0.300303
1.015604 0.279436 0.321488
-0.017070 0.077133 0.093497
-0.034142 0.079381 0.083979
0.018677 0.077133 0.081726
0.054777 0.083864 0.079332
0.117915 0.093941 0.098499
0.206166 0.110865 0.117819
0.305566 0.130571 0.140208
0.412663 0.153439 0.164419
0.521503 0.177485 0.190248
0.622750 0.200266 0.215438
0.713338 0.220263 0.238166
0.791390 0.238526 0.259561
0.854839 0.253313 0.277416
0.906434 0.264242 0.289871
0.943856 0.274614 0.302404
1.016422 0.293388 0.323202
-0.012931 0.123420 0.097284
-0.042802 0.124859 0.077779
0.020793 0.124342 0.077685
0.051460 0.121180 0.078549
0.119291 0.140591 0.077095
0.219338 0.159788 0.085138
0.317898 0.179959 0.125453
0.422624 0.203239 0.158656
0.529216 0.226511 0.188997
0.628775 0.247107 0.216462
0.716757 0.264094 0.239715
0.794251 0.280012 0.263550
0.857948 0.290273 0.279732
0.908416 0.298376 0.294561
0.945923 0.302942 0.304753
1.018586 0.318909 0.324927
-0.011091 0.186149 0.102447
-0.049480 0.187039 0.072186
0.027142 0.187074 0.076468
0.068957 0.186086 0.075979
0.114321 0.182435 0.076722
0.216689 0.213741 0.073210
0.325385 0.238710 0.076722
0.437204 0.260833 0.115321
0.543664 0.283329 0.166267
0.640972 0.302739 0.204833
0.726748 0.318494 0.235780
0.801181 0.329176 0.259243
0.864120 0.334970 0.278385
0.914216 0.340633 0.294167
0.950158 0.341855 0.306406
1.022935 0.354409 0.325554
-0.010969 0.265752 0.108096
-0.055903 0.266340 0.063130
0.032899 0.266722 0.075656
0.086659 0.265374 0.074698
0.153943 0.266559 0.075618
0.207765 0.260407 0.078811
0.323802 0.299610 0.077145
0.439671 0.328670 0.078044
0.555536 0.349703 0.088219
0.656643 0.365746 0.159727
0.742160 0.377387 0.207717
0.813547 0.386539 0.244080
0.873413 0.389095 0.273242
0.921952 0.390163 0.291528
0.957383 0.388084 0.304167
1.030532 0.397112 0.321848
-0.011893 0.359457 0.113548
-0.061753 0.359876 0.062504
0.039873 0.360464 0.078432
0.106175 0.359876 0.076983
0.182865 0.360329 0.076848
0.257880 0.359203 0.077386
0.316253 0.352383 0.077614
0.438208 0.395874 0.078922
0.555581 0.423684 0.079965
0.663229 0.438865 0.080849
0.756154 0.446705 0.136289
0.828728 0.449885 0.198014
0.888140 0.450389 0.244697
0.933474 0.444754 0.277540
0.968134 0.439377 0.292873
1.042007 0.444754 0.308567
-0.013404 0.463305 0.118422
-0.066727 0.463551 0.062047
0.047448 0.463305 0.078343
0.121368 0.463551 0.073938
0.209817 0.463373 0.081592
0.289768 0.463115 0.082922
0.364348 0.462385 0.079276
0.431135 0.456086 0.079836
0.554171 0.496488 0.081114
0.663233 0.516446 0.081594
0.759709 0.522754 0.084994
0.839492 0.521507 0.112808
0.902798 0.515261 0.184341
0.948884 0.506177 0.238123
0.981597 0.495083 0.264878
1.056903 0.497102 0.278115
-0.015173 0.570722 0.122202
-0.070281 0.570922 0.061804
0.053942 0.570722 0.084138
0.138542 0.570922 0.082372
0.227623 0.570863 0.082087
0.313394 0.570770 0.083550
0.395012 0.570863 0.081317
0.474672 0.569750 0.082001
0.548701 0.564823 0.082277
0.662335 0.593599 0.083002
0.759334 0.603559 0.090881
0.839537 0.600760 0.076839
0.909991 0.587941 0.088663
0.961313 0.572373 0.162118
0.995449 0.556361 0.209195
1.072476 0.555065 0.219929
-0.016969 0.672515 0.124433
-0.071978 0.672626 0.061977
0.059050 0.672515 0.090932
0.145880 0.672626 0.084702
0.239793 0.672596 0.083480
0.327212 0.672578 0.084819
0.411715 0.672596 0.083480
0.496178 0.672578 0.084036
0.579284 0.671879 0.084427
0.659069 0.668853 0.084936
0.759179 0.684181 0.080551
0.841341 0.680186 0.081058
0.910344 0.667317 0.088753
0.964236 0.648431 0.088589
1.003618 0.624223 0.111311
1.082917 0.620773 0.119424
-0.018629 0.765133 0.125280
-0.071558 0.765070 0.062687
0.060802 0.765133 0.088575
0.151961 0.765070 0.086263
0.242342 0.765055 0.085474
0.333296 0.765036 0.085915
0.418379 0.765055 0.085474
0.503999 0.765036 0.085915
0.589473 0.765130 0.086283
0.674077 0.764653 0.087017
0.758114 0.764151 0.084727
0.841231 0.762544 0.086232
0.910344 0.746509 0.088073
0.964236 0.725786 0.088185
1.004125 0.697958 0.087284
1.083763 0.693833 0.087402
-0.019703 0.844919 0.124950
-0.069331 0.844983 0.070331
0.059050 0.844919 0.089051
0.148317 0.844983 0.088789
0.242246 0.844939 0.087326
0.330483 0.844930 0.087718
0.416133 0.844939 0.087326
0.501347 0.844930 0.087718
0.586542 0.844984 0.088110
0.671471 0.844977 0.088709
0.755279 0.846006 0.088110
0.842541 0.848027 0.087137
0.910344 0.829064 0.088050
0.964236 0.800449 0.088170
1.004124 0.772908 0.087261
1.083762 0.768244 0.087384
-0.019937 0.909441 0.123653
-0.068049 0.909455 0.070856
0.056470 0.909441 0.087049
0.145880 0.909455 0.088549
0.236564 0.909448 0.088243
0.323030 0.909448 0.088212
0.406561 0.909448 0.088243
0.490100 0.909448 0.088212
0.573500 0.909449 0.088144
0.656686 0.909449 0.088102
0.738699 0.909449 0.088144
0.821345 0.910417 0.088102
0.915151 0.914060 0.088032
0.966148 0.882215 0.088142
1.004124 0.848619 0.087243
1.083762 0.843518 0.087352
-0.019800 0.956223 0.121799
-0.065947 0.956263 0.073024
0.053109 0.956223 0.087674
0.138542 0.956263 0.088450
0.228609 0.956260 0.087793
0.310170 0.956260 0.087787
0.392704 0.956260 0.087793
0.473724 0.956260 0.087787
0.554937 0.956259 0.087766
0.635727 0.956259 0.087761
0.714731 0.956259 0.087766
0.797042 0.957103 0.087761
0.880338 0.956639 0.088005
0.972846 0.962597 0.088118
1.005301 0.925816 0.087216
1.083762 0.919150 0.087333
-0.019678 0.986466 0.119752
-0.064141 0.986474 0.074243
0.049845 0.986466 0.088112
0.129927 0.986474 0.087373
0.214939 0.986472 0.087505
0.297081 0.986472 0.087503
0.376739 0.986472 0.087505
0.455013 0.986472 0.087503
0.533308 0.986471 0.087494
0.611436 0.986471 0.087487
0.689824 0.986471 0.087494
0.767572 0.986471 0.087487
0.846285 0.986925 0.088004
0.926702 0.987945 0.088091
1.008711 0.989330 0.087226
1.084079 0.982106 0.087306
-0.020856 1.119926 0.116825
-0.057070 1.119933 0.058654
0.057324 1.119934 0.061080
0.138542 1.119934 0.058803
0.227338 1.119934 0.055534
0.306347 1.119934 0.050063
0.380747 1.119934 0.042572
0.453235 1.119934 0.032415
0.525090 1.119934 0.016923
0.597540 1.119934 -0.020052
0.672856 1.119934 -0.024731
0.747129 1.119934 -0.023419
0.829681 1.119903 -0.017103
0.911315 1.119872 0.014476
0.995811 1.120188 0.023835
1.084409 1.120864 0.026850
-0.021436 -0.507906 0.126801
-0.011680 -0.507891 0.127699
0.008185 -0.507869 0.127641
0.035618 -0.507849 0.136218
0.098666 -0.507829 0.146764
0.116534 -0.500005 -0.139239
0.234667 -0.494832 -0.162323
0.366761 -0.490363 -0.150367
0.493356 -0.485155 -0.115920
0.606298 -0.478990 0.033908
0.703307 -0.472198 0.155524
0.784268 -0.465407 0.192438
0.850100 -0.458860 0.217010
0.898708 -0.453248 0.234325
0.933351 -0.449264 0.244676
1.005098 -0.439292 0.271238
-0.020344 0.040437 0.124293
0.001342 0.028665 0.133360
0.021891 -0.006599 0.130211
0.057820 -0.018939 0.132506
0.118245 0.040853 0.140526
0.202883 0.070679 0.156091
0.301411 0.097543 0.175869
0.408592 0.124173 0.198582
0.517931 0.151315 0.222373
0.619815 0.177018 0.244910
0.709901 0.200346 0.264781
0.787570 0.220735 0.282133
0.851838 0.238983 0.297655
0.905517 0.252252 0.308783
0.942779 0.262139 0.317878
1.015486 0.282296 0.337358
-0.016423 0.077153 0.123324
-0.031252 0.078506 0.126202
0.019198 0.076259 0.126700
0.058184 0.071369 0.124513
0.124420 0.060974 0.121918
0.213341 0.063382 0.124655
0.310439 0.083215 0.139780
0.416068 0.109269 0.160993
0.523861 0.137444 0.185743
0.624586 0.164665 0.210784
0.713681 0.189987 0.234401
0.791157 0.212004 0.255716
0.855735 0.228871 0.273086
0.909377 0.244157 0.287582
0.942821 0.259704 0.302011
1.015667 0.279957 0.322895
-0.012744 0.123444 0.130998
-0.029353 0.124358 0.130214
0.006494 0.127140 0.115032
0.053109 0.122515 0.112615
0.129827 0.134947 0.105561
0.222857 0.146462 0.115715
0.319712 0.162935 0.140833
0.423738 0.184029 0.166618
0.530254 0.206169 0.193109
0.629761 0.226681 0.218490
0.717758 0.244504 0.241145
0.793308 0.259436 0.262731
0.856542 0.273760 0.280075
0.911315 0.282572 0.293640
0.944610 0.292238 0.307136
1.017568 0.308906 0.327049
-0.011068 0.186141 0.141559
-0.020229 0.186564 0.139487
-0.051741 0.189917 0.098950
0.059050 0.190347 0.100250
0.115948 0.184441 0.099294
0.219407 0.210061 0.095057
0.330215 0.229223 0.092899
0.438637 0.249407 0.134776
0.543486 0.270872 0.177582
0.640456 0.289596 0.211729
0.727499 0.304976 0.240163
0.799732 0.315978 0.263538
0.863450 0.323492 0.280623
0.915151 0.328612 0.296058
0.948460 0.333317 0.309696
1.021646 0.346339 0.328532
-0.010979 0.265743 0.153346
0.000062 0.266006 0.150289
-0.070897 0.269627 0.083553
0.068803 0.268918 0.091012
0.146061 0.267227 0.094194
0.213245 0.262633 0.092354
0.326572 0.296406 0.091808
0.442537 0.322077 0.090777
0.557495 0.340947 0.109530
0.656780 0.356494 0.172392
0.741030 0.369594 0.217607
0.812718 0.375301 0.250066
0.874444 0.380287 0.274657
0.923864 0.381634 0.293606
0.955516 0.381294 0.308676
1.028961 0.390603 0.325987
-0.011911 0.359461 0.164897
0.001180 0.359575 0.160918
-0.080457 0.361441 0.062130
0.080065 0.361555 0.087130
0.170951 0.361757 0.092622
0.251766 0.360788 0.088933
0.318460 0.353849 0.091036
0.439907 0.393500 0.090509
0.557357 0.418709 0.090350
0.665220 0.432206 0.090225
0.756746 0.438729 0.147810
0.829634 0.441210 0.210121
0.885219 0.441905 0.252480
0.935448 0.439559 0.280065
0.966210 0.433903 0.298947
1.040345 0.439559 0.314201
-0.013422 0.463306 0.175340
0.001929 0.463377 0.170657
-0.086979 0.464320 0.057678
0.089810 0.465398 0.087060
0.192830 0.465353 0.088091
0.281274 0.463259 0.090513
0.361659 0.463352 0.090450
0.432630 0.457247 0.090513
0.555370 0.494640 0.090644
0.664550 0.512675 0.090785
0.760841 0.517874 0.090644
0.839758 0.515719 0.126810
0.902065 0.509760 0.191068
0.948884 0.501800 0.241725
0.979922 0.490583 0.273104
1.055393 0.492717 0.285827
-0.015190 0.570722 0.183514
0.002686 0.570719 0.178326
-0.091866 0.571749 0.054069
0.102571 0.571724 0.091407
0.208623 0.571622 0.092334
0.301232 0.571430 0.092599
0.389233 0.571622 0.090757
0.472639 0.570425 0.091016
0.549783 0.565588 0.091146
0.663127 0.592061 0.091510
0.760453 0.600274 0.092724
0.841356 0.596159 0.089943
0.910810 0.583951 0.095416
0.961313 0.567541 0.168632
0.994357 0.552422 0.220966
1.071435 0.551309 0.230641
-0.016987 0.672515 0.188421
0.003436 0.672516 0.183026
-0.092168 0.674514 0.055457
0.106284 0.673516 0.088381
0.218869 0.673113 0.086794
0.312721 0.673006 0.089474
0.404082 0.673113 0.091515
0.491843 0.673006 0.091847
0.577791 0.672282 0.092100
0.659825 0.669510 0.092378
0.759684 0.682573 0.086586
0.841048 0.679793 0.098772
0.909377 0.661962 0.097484
0.967041 0.642947 0.088242
1.003258 0.620921 0.135668
1.082675 0.617364 0.140278
-0.018645 0.765133 0.190381
0.004285 0.765061 0.185078
-0.091615 0.764154 0.055318
0.108964 0.766077 0.086227
0.222369 0.767649 0.096208
0.319507 0.765423 0.096790
0.409427 0.765540 0.092226
0.498233 0.765423 0.092805
0.586219 0.765261 0.093064
0.672781 0.764975 0.093398
0.758004 0.765261 0.098652
0.841932 0.760862 0.075493
0.910344 0.743938 0.102766
0.964236 0.721874 0.096245
1.004086 0.695346 0.118391
1.083785 0.690970 0.115807
-0.019707 0.844919 0.189776
0.005088 0.844877 0.184715
-0.092086 0.844919 0.056209
0.111161 0.846970 0.096207
0.220307 0.845382 0.094688
0.315792 0.845300 0.096140
0.406431 0.845382 0.093098
0.494732 0.845300 0.093749
0.582115 0.845224 0.093982
0.668814 0.845146 0.094150
0.753994 0.845224 0.087669
0.842868 0.847240 0.083147
0.910344 0.826189 0.095480
0.964236 0.800393 0.085179
1.004127 0.771016 0.118332
1.083785 0.766080 0.115798
-0.019937 0.909441 0.187043
0.004725 0.909339 0.182028
-0.084982 0.911428 0.061996
0.106266 0.911325 0.099450
0.212873 0.909796 0.096432
0.307627 0.909730 0.096968
0.396364 0.909796 0.094042
0.482855 0.909730 0.094578
0.568538 0.909756 0.094793
0.653410 0.909711 0.094735
0.738766 0.907708 0.104462
0.820189 0.908649 0.105206
0.916140 0.913773 0.103342
0.966148 0.881744 0.098602
1.004126 0.847288 0.118146
1.083785 0.842047 0.115753
-0.019800 0.956223 0.183055
0.004408 0.956153 0.178303
-0.086678 0.957068 0.057752
0.100486 0.957842 0.092168
0.202310 0.956540 0.062245
0.295627 0.956432 0.097658
0.382290 0.956540 0.094790
0.466287 0.956432 0.095272
0.549376 0.956438 0.095483
0.631819 0.956524 0.095802
0.713345 0.956438 0.090725
0.794217 0.956524 0.089445
0.878369 0.957922 0.099008
0.972846 0.962616 0.089797
1.005303 0.925362 0.117836
1.083785 0.918261 0.115700
-0.019678 0.986466 0.178579
0.003545 0.986483 0.173944
-0.073274 0.986466 0.085329
0.095689 0.986483 0.097892
0.194047 0.986701 0.091471
0.283261 0.986626 0.092799
0.366040 0.986701 0.089896
0.447212 0.986626 0.090428
0.527614 0.986673 0.090702
0.607268 0.986574 0.091468
0.687299 0.986673 0.087548
0.764521 0.986574 0.085188
0.845286 0.986409 0.108755
0.926702 0.987713 0.105020
1.008746 0.989479 0.117015
1.084129 0.981897 0.115702
-0.021523 1.119926 0.178547
0.000921 1.119931 0.171264
-0.044580 1.119964 0.060521
0.108063 1.119961 0.093909
0.207732 1.119942 0.077751
0.291886 1.119932 0.051782
0.371111 1.119932 0.025183
0.445883 1.119934 -0.043401
0.519377 1.119939 -0.059136
0.593340 1.119942 -0.066947
0.668315 1.119942 -0.069712
0.747048 1.119951 -0.069449
0.825813 1.119950 -0.066974
0.912307 1.119940 -0.062387
0.995811 1.120256 -0.057894
1.084483 1.120946 -0.055678
-0.022094 -0.507919 0.168791
0.005893 -0.507883 0.170443
0.023015 -0.507865 0.174189
0.042144 -0.507860 0.174048
0.103641 -0.507852 0.192629
0.204415 -0.507847 0.215265
0.302929 -0.505060 0.213072
0.397116 -0.496964 0.188327
0.506512 -0.488853 0.197393
0.612226 -0.480822 0.221742
0.705961 -0.472787 0.244650
0.784110 -0.465591 0.263168
0.849420 -0.458405 0.277852
0.898708 -0.452706 0.286530
0.932755 -0.448420 0.290782
1.004456 -0.438355 0.311644
-0.019398 0.043945 0.168963
-0.031463 -0.023817 0.183130
0.027142 -0.019757 0.177976
0.055620 -0.015864 0.171374
0.122462 -0.013530 0.186605
0.218069 0.009497 0.204771
0.315293 0.073971 0.221942
0.417187 0.112104 0.244617
0.522494 0.145684 0.268698
0.621909 0.175058 0.290462
0.710380 0.200304 0.307609
0.786609 0.220668 0.323798
0.851311 0.239584 0.334351
0.904578 0.253828 0.343163
0.942261 0.263705 0.347775
1.014858 0.283875 0.364983
-0.014662 0.088119 0.169190
-0.034501 0.087024 0.174049
0.016663 0.071989 0.182728
0.060802 0.063826 0.178577
0.135719 0.047757 0.186099
0.226027 0.048913 0.196011
0.317256 0.087606 0.210151
0.418157 0.120707 0.230742
0.523654 0.150948 0.253309
0.623264 0.178101 0.274227
0.712510 0.201873 0.292767
0.789904 0.221848 0.308208
0.853146 0.239221 0.319958
0.906434 0.252704 0.329229
0.942145 0.266249 0.337364
1.015173 0.285659 0.355053
-0.012144 0.122763 0.166623
-0.027927 0.123721 0.167898
0.007149 0.124610 0.174733
0.052282 0.121881 0.175066
0.130241 0.113815 0.169538
0.227151 0.103303 0.163651
0.325604 0.101941 0.164173
0.429804 0.115187 0.175312
0.535607 0.138118 0.194153
0.634237 0.163757 0.216256
0.721933 0.187827 0.238384
0.795603 0.210142 0.258460
0.861017 0.228619 0.276566
0.915151 0.242399 0.289729
0.942271 0.267177 0.310606
1.015946 0.285963 0.330222
-0.011008 0.186164 0.185335
-0.019141 0.186551 0.184849
0.000709 0.188999 0.179862
0.027142 0.192235 0.155267
0.122274 0.188060 0.152789
0.233737 0.197832 0.142470
0.339300 0.207059 0.145800
0.442271 0.222631 0.171584
0.546104 0.240743 0.198576
0.643051 0.257794 0.223997
0.731083 0.273611 0.247831
0.806124 0.284950 0.266485
0.866028 0.294586 0.284879
0.919993 0.300424 0.298371
0.945292 0.316080 0.318104
1.019280 0.329799 0.336007
-0.010997 0.265750 0.204362
0.000109 0.265991 0.203026
0.000832 0.268662 0.191419
-0.034484 0.273761 0.129929
0.125634 0.271624 0.128562
0.218518 0.267120 0.127493
0.333559 0.289127 0.125178
0.450523 0.307029 0.119085
0.561660 0.322160 0.151171
0.657913 0.336521 0.198435
0.741122 0.347709 0.231896
0.814773 0.354289 0.260320
0.874578 0.360347 0.282513
0.925822 0.359084 0.296406
0.951802 0.368268 0.319755
1.025963 0.377861 0.336035
-0.011946 0.359467 0.223131
0.001152 0.359604 0.221057
0.003411 0.361448 0.204347
-0.082454 0.365518 0.110061
0.134721 0.366200 0.116531
0.241959 0.363577 0.118866
0.322991 0.357322 0.118200
0.444562 0.388381 0.115537
0.562581 0.408056 0.112811
0.670117 0.417891 0.116775
0.759798 0.422983 0.180576
0.830530 0.426864 0.224956
0.887236 0.426726 0.264435
0.936348 0.421579 0.286100
0.962367 0.423713 0.313313
1.036989 0.429568 0.327523
-0.013461 0.463308 0.240240
