luts/pp10.cube
LUT_3D_SIZE 16
0.000918 0.011569 0.010665
0.056060 0.008707 0.009768
0.127615 0.015049 0.004190
0.208284 0.020546 0.006857
0.313772 0.037756 0.023680
0.416936 0.046568 0.019279
0.523095 0.059072 0.016544
0.620095 0.078287 0.017363
0.699841 0.101304 0.019900
0.768343 0.127163 0.022531
0.822468 0.148637 0.024692
0.870633 0.168774 0.026847
0.911070 0.186593 0.028319
0.939418 0.205097 0.029586
0.964496 0.214403 0.031129
0.984508 0.217779 0.032132
0.002236 0.069416 0.005655
0.060516 0.071862 0.004455
0.129762 0.081136 0.005742
0.211228 0.088167 0.009479
0.313882 0.090161 0.021290
0.417532 0.093431 0.019077
0.523535 0.103076 0.016424
0.620230 0.117461 0.017573
0.698949 0.138155 0.019908
0.767723 0.160458 0.022569
0.823503 0.181464 0.024983
0.871189 0.199848 0.026806
0.911368 0.216413 0.028537
0.939233 0.232568 0.029656
0.964610 0.241014 0.031309
0.984598 0.243829 0.032282
0.016016 0.138783 0.018546
0.066334 0.140945 0.020539
0.134064 0.147328 0.026035
0.222650 0.155147 0.023822
0.321075 0.160363 0.024766
0.422594 0.167343 0.019408
0.528299 0.175102 0.017420
0.620944 0.185407 0.018145
0.702765 0.202374 0.020690
0.770482 0.220811 0.022894
0.826520 0.234515 0.025809
0.872214 0.248161 0.026981
0.910227 0.258815 0.028941
0.939508 0.269290 0.030197
0.965120 0.276860 0.031993
0.984867 0.278407 0.032907
0.017093 0.223572 0.049622
0.056944 0.226556 0.041772
0.140537 0.228875 0.033280
0.238622 0.237677 0.026963
0.337674 0.246042 0.020575
0.438442 0.253228 0.017622
0.533994 0.263225 0.018665
0.628158 0.272564 0.021358
0.703314 0.281051 0.022473
0.770115 0.290257 0.024696
0.824160 0.299457 0.026462
0.870450 0.306390 0.028458
0.909028 0.312157 0.029641
0.941870 0.316589 0.031392
0.965272 0.319366 0.032630
0.984730 0.318760 0.033302
0.017909 0.322022 0.059591
0.051723 0.323278 0.054928
0.139535 0.327875 0.034104
0.242570 0.332788 0.026420
0.348867 0.343037 0.020322
0.455142 0.349830 0.020626
0.545159 0.356358 0.021976
0.631047 0.360753 0.023088
0.705498 0.364915 0.025253
0.771141 0.368149 0.026573
0.822541 0.371541 0.028062
0.868574 0.371017 0.030237
0.907584 0.370224 0.031651
0.939481 0.369217 0.033338
0.964943 0.368578 0.033743
0.984832 0.364298 0.033783
0.022578 0.427315 0.073189
0.052015 0.427020 0.071578
0.136716 0.431353 0.044827
0.252011 0.434787 0.036667
0.354830 0.441357 0.028357
0.460442 0.449168 0.024092
0.558248 0.451928 0.026221
0.636677 0.453762 0.026893
0.707070 0.453120 0.028103
0.767874 0.450106 0.029749
0.820315 0.446694 0.033084
0.866999 0.441800 0.036256
0.905795 0.436370 0.034757
0.938911 0.431049 0.034108
0.964999 0.426869 0.034637
0.984774 0.416100 0.034715
0.041720 0.526012 0.099362
0.078787 0.526379 0.094735
0.158567 0.527770 0.072374
0.262974 0.529701 0.062228
0.358300 0.533559 0.049864
0.458748 0.536993 0.043114
0.561001 0.542132 0.031064
0.642007 0.545225 0.031531
0.710303 0.537965 0.035569
0.769297 0.530382 0.040927
0.822134 0.521715 0.045108
0.867778 0.514751 0.047817
0.905288 0.507938 0.043283
0.938406 0.500350 0.041438
0.966010 0.493289 0.043125
0.985887 0.480878 0.042600
0.093247 0.611207 0.121209
0.126443 0.611676 0.118474
0.186660 0.612913 0.108027
0.277930 0.611282 0.102166
0.368519 0.613846 0.091890
0.458149 0.615012 0.080417
0.550349 0.618316 0.064875
0.638136 0.622621 0.051141
0.712589 0.616355 0.044687
0.769319 0.605362 0.045802
0.820210 0.593593 0.049328
0.863936 0.582827 0.052422
0.902839 0.571593 0.056755
0.937031 0.561384 0.060544
0.965594 0.550601 0.061162
0.987075 0.537839 0.058765
0.148092 0.689248 0.151614
0.177483 0.689195 0.150925
0.229739 0.689234 0.150801
0.301087 0.689200 0.149260
0.381471 0.689251 0.143953
0.463443 0.691332 0.130254
0.547337 0.692158 0.120782
0.630235 0.692917 0.107600
0.712102 0.695119 0.086147
0.773798 0.684145 0.073954
0.825124 0.669368 0.080781
0.866691 0.653762 0.084873
0.904635 0.637032 0.087012
0.938362 0.621122 0.084089
0.965736 0.604922 0.077775
0.987262 0.588028 0.072737
0.203387 0.754155 0.190339
0.231201 0.754199 0.190609
0.273298 0.754111 0.191384
0.328904 0.753131 0.191049
0.394639 0.752891 0.186566
0.466510 0.753405 0.177498
0.545047 0.753083 0.166694
0.623004 0.755349 0.160079
0.699819 0.756056 0.142110
0.776659 0.753425 0.127104
0.829308 0.738701 0.115083
0.871410 0.721813 0.119238
0.908347 0.705465 0.121221
0.941594 0.688745 0.123178
0.970226 0.672754 0.121884
0.991144 0.652081 0.110998
0.234210 0.809977 0.227548
0.259780 0.809835 0.227384
0.296682 0.809149 0.227096
0.346963 0.808511 0.225161
0.407274 0.808226 0.221392
0.472338 0.808085 0.219195
0.538899 0.810167 0.211584
0.613093 0.809010 0.201207
0.687299 0.808125 0.191354
0.757203 0.809413 0.171505
0.827248 0.806863 0.152801
0.872657 0.786911 0.141370
0.907836 0.769110 0.139196
0.942491 0.748346 0.142722
0.971381 0.731271 0.142376
0.992803 0.707414 0.139111
0.278219 0.856668 0.261852
0.301853 0.856667 0.261545
0.334323 0.856669 0.261521
0.376379 0.856667 0.261686
0.426329 0.856675 0.262897
0.482030 0.856432 0.260248
0.542071 0.857811 0.252891
0.607047 0.857239 0.245158
0.673992 0.856957 0.232466
0.741005 0.856786 0.219148
0.811879 0.856570 0.201020
0.873687 0.854948 0.183305
0.911381 0.830476 0.163500
0.942638 0.807310 0.156260
0.970089 0.787120 0.153465
0.990733 0.765227 0.149477
0.308690 0.899155 0.293700
0.331219 0.899089 0.293700
0.361044 0.898700 0.293112
0.398417 0.898313 0.293621
0.441723 0.897978 0.296039
0.493229 0.897349 0.293606
0.547793 0.896882 0.288211
0.602469 0.898069 0.280547
0.664396 0.898046 0.269332
0.727414 0.898374 0.258525
0.795477 0.897340 0.244405
0.856254 0.898296 0.222151
0.914786 0.893637 0.203269
0.949372 0.871699 0.185714
0.973707 0.846483 0.184005
0.992705 0.819618 0.167692
0.337840 0.934443 0.324353
0.359038 0.934628 0.324365
0.385067 0.934807 0.324295
0.416817 0.935212 0.324120
0.454368 0.934936 0.323827
0.498322 0.933720 0.322658
0.552051 0.933036 0.317387
0.604100 0.933754 0.311011
0.658742 0.933751 0.301057
0.715473 0.933818 0.291019
0.774882 0.933703 0.277269
0.835803 0.933714 0.256618
0.898464 0.935387 0.233925
0.949061 0.929150 0.211086
0.974182 0.903879 0.195691
0.993262 0.877289 0.192152
0.357746 0.965628 0.344481
0.378057 0.965558 0.344718
0.402952 0.965379 0.345603
0.433342 0.965590 0.347260
0.468103 0.964947 0.348113
0.508706 0.964127 0.346011
0.554676 0.963862 0.339800
0.600420 0.963988 0.334451
0.650691 0.964596 0.327870
0.704161 0.964778 0.319817
0.762139 0.964153 0.304232
0.819940 0.963863 0.284785
0.878787 0.965412 0.259463
0.933691 0.964972 0.232774
0.973064 0.963242 0.200043
0.992664 0.933662 0.194508
0.371127 0.988024 0.358719
0.390779 0.987997 0.358780
0.414683 0.987755 0.358980
0.443192 0.987575 0.359479
0.473555 0.988061 0.361155
0.509146 0.988379 0.360220
0.550859 0.988298 0.353820
0.593374 0.988120 0.346920
0.641647 0.988042 0.342003
0.692264 0.987484 0.335857
0.746867 0.986823 0.323754
0.800317 0.987232 0.304689
0.853185 0.988743 0.281334
0.911522 0.987664 0.254639
0.957030 0.989079 0.222926
0.993704 0.984529 0.197276
0.002573 0.015484 0.066834
0.056478 0.012546 0.067181
0.127943 0.010964 0.075727
0.211484 0.011459 0.075638
0.314375 0.031734 0.065948
0.420123 0.033272 0.058041
0.525007 0.051975 0.051708
0.620737 0.074712 0.048608
0.701659 0.101071 0.049755
0.769293 0.128660 0.051092
0.823177 0.149428 0.053825
0.870904 0.170023 0.055379
0.911149 0.188125 0.057041
0.939624 0.206242 0.058185
0.964671 0.215375 0.059736
0.984755 0.219002 0.060554
-0.001295 0.071421 0.073332
0.051232 0.072531 0.067444
0.131165 0.075697 0.073097
0.215955 0.079688 0.067141
0.317044 0.080142 0.065171
0.419867 0.083961 0.055214
0.524884 0.095101 0.049718
0.620789 0.112293 0.047611
0.700602 0.136020 0.049162
0.768893 0.160249 0.051018
0.823944 0.180647 0.053754
0.871415 0.199864 0.055257
0.911414 0.217136 0.057153
0.939699 0.233339 0.058229
0.964807 0.241838 0.059909
0.984781 0.245283 0.060810
0.014155 0.143625 0.082261
0.057913 0.144670 0.074045
0.135246 0.148860 0.072943
0.224262 0.152499 0.066808
0.322554 0.157368 0.061801
0.423675 0.162926 0.054835
0.528277 0.171225 0.048495
0.622022 0.183043 0.048376
0.703479 0.201557 0.049475
0.770998 0.220535 0.051564
0.826382 0.234083 0.054278
0.872507 0.248150 0.055509
0.910020 0.259363 0.057424
0.940139 0.269964 0.058687
0.965221 0.277417 0.060466
0.985103 0.279448 0.061382
0.015525 0.226283 0.093309
0.052900 0.227210 0.086062
0.136902 0.231388 0.073007
0.238886 0.238970 0.062600
0.336815 0.245284 0.054124
0.438942 0.252182 0.048600
0.535971 0.262348 0.050245
0.628886 0.271449 0.051266
0.703785 0.280241 0.051098
0.770428 0.289596 0.053774
0.824495 0.299065 0.055111
0.870601 0.306135 0.057090
0.909261 0.312493 0.058609
0.941981 0.317281 0.059812
0.965371 0.320193 0.061203
0.984798 0.319751 0.061699
0.017486 0.324813 0.100598
0.049107 0.324656 0.095494
0.133993 0.329056 0.071714
0.241216 0.333824 0.062908
0.349461 0.344418 0.053562
0.455817 0.350149 0.050476
0.545802 0.356209 0.051104
0.631310 0.360453 0.052356
0.705490 0.364865 0.054450
0.771001 0.368155 0.055147
0.822415 0.371416 0.056574
0.868635 0.370779 0.059740
0.907310 0.370330 0.060327
0.939498 0.369598 0.061517
0.964978 0.369058 0.062131
0.984810 0.364727 0.062165
0.022798 0.429040 0.113739
0.051768 0.428265 0.109172
0.127061 0.432945 0.082046
0.250113 0.436319 0.072268
0.354886 0.442227 0.060692
0.461198 0.449453 0.056090
0.557763 0.452398 0.055555
0.636345 0.452973 0.055699
0.707055 0.452954 0.056508
0.767351 0.450182 0.058574
0.820613 0.446368 0.064598
0.867242 0.441624 0.066606
0.905448 0.436606 0.063471
0.939050 0.431144 0.062347
0.965150 0.427406 0.062955
0.985125 0.416666 0.063458
0.042603 0.526011 0.138303
0.077326 0.526268 0.132670
0.152830 0.528123 0.109230
0.261306 0.530166 0.098787
0.357131 0.533709 0.086701
0.458330 0.537138 0.076688
0.561223 0.542285 0.060878
0.642106 0.544668 0.063582
0.710465 0.537982 0.067876
0.769430 0.530316 0.073070
0.822261 0.521673 0.076882
0.868247 0.515023 0.078907
0.905432 0.508222 0.074906
0.938982 0.500675 0.074588
0.966236 0.493496 0.075996
0.986278 0.481297 0.075244
0.095326 0.612189 0.156381
0.127572 0.612290 0.152998
0.185711 0.613541 0.142288
0.276586 0.611680 0.137111
0.367063 0.613910 0.127132
0.457433 0.615384 0.115651
0.550189 0.618593 0.099969
0.637774 0.622950 0.083861
0.712112 0.616312 0.074985
0.769331 0.605577 0.078461
0.820274 0.594041 0.083265
0.864350 0.582784 0.086692
0.903158 0.571894 0.090800
0.937373 0.561628 0.094437
0.965719 0.550916 0.094639
0.987391 0.538318 0.092017
0.149259 0.689135 0.185392
0.179971 0.689109 0.185938
0.229966 0.689474 0.184011
0.301173 0.689505 0.182373
0.381523 0.689648 0.176979
0.463452 0.691652 0.163731
0.547261 0.692361 0.154002
0.630296 0.693230 0.141247
0.712411 0.695393 0.121000
0.774065 0.684185 0.108789
0.825309 0.669542 0.115689
0.867029 0.654107 0.120063
0.904911 0.637445 0.121360
0.938478 0.621825 0.117179
0.966242 0.605574 0.111149
0.987668 0.588568 0.105621
0.205584 0.754372 0.220329
0.234784 0.754263 0.222524
0.275981 0.754185 0.223788
0.330622 0.753419 0.223400
0.395434 0.752905 0.218857
0.466655 0.753540 0.209660
0.545031 0.753092 0.199454
0.623115 0.755555 0.192909
0.699833 0.756056 0.174755
0.776790 0.753508 0.159631
0.829215 0.738787 0.147611
0.871512 0.722168 0.151903
0.908259 0.706049 0.153743
0.941788 0.689587 0.155608
0.970499 0.673589 0.154570
0.991373 0.653221 0.144021
0.235171 0.810207 0.254830
0.264556 0.810002 0.258726
0.300779 0.809457 0.258424
0.349968 0.808780 0.256511
0.409146 0.808399 0.252723
0.473576 0.808501 0.250786
0.539491 0.810329 0.243198
0.613846 0.809087 0.232711
0.687613 0.808279 0.223223
0.757055 0.809497 0.203386
0.827226 0.807024 0.184610
0.872469 0.787132 0.172756
0.907895 0.769476 0.170678
0.942529 0.748827 0.174056
0.971330 0.731777 0.173621
0.993145 0.708154 0.171979
0.282637 0.856680 0.289813
0.307534 0.856635 0.291323
0.339003 0.856661 0.291166
0.380061 0.856777 0.291381
0.429277 0.856634 0.293052
0.484108 0.856341 0.290469
0.543474 0.857833 0.283079
0.607947 0.857300 0.275084
0.674487 0.856960 0.262800
0.741311 0.856913 0.249793
0.811443 0.856650 0.231725
0.873502 0.855100 0.214153
0.911297 0.830679 0.194868
0.942634 0.807596 0.187204
0.970115 0.787656 0.184368
0.990891 0.766037 0.180504
0.313717 0.899147 0.320754
0.337889 0.899104 0.323015
0.366804 0.898890 0.322546
0.403326 0.898355 0.323022
0.445208 0.898024 0.325138
0.495715 0.897236 0.323153
0.550129 0.896858 0.317778
0.604158 0.898238 0.310653
0.665654 0.898037 0.299081
0.728281 0.898385 0.288329
0.795838 0.897293 0.274574
0.856114 0.898341 0.252201
0.914777 0.893754 0.233565
0.949126 0.871992 0.216286
0.973604 0.846958 0.214585
0.992790 0.819915 0.198660
0.342885 0.934648 0.350121
0.366231 0.934795 0.352956
0.391391 0.934782 0.352945
0.422161 0.935130 0.352831
0.458859 0.934910 0.352556
0.502162 0.933756 0.351324
0.554839 0.932991 0.346174
0.606280 0.933754 0.340021
0.660196 0.933881 0.330386
0.716493 0.934005 0.320472
0.775492 0.933687 0.306497
0.836171 0.933723 0.285961
0.898491 0.935511 0.263952
0.948956 0.929305 0.241211
0.974305 0.904060 0.225804
0.993245 0.877776 0.222770
0.363468 0.965606 0.370043
0.385952 0.965554 0.373165
0.409973 0.965553 0.374023
0.439604 0.965406 0.375662
0.473459 0.964918 0.376503
0.513189 0.964238 0.374511
0.558284 0.963866 0.368448
0.603079 0.964091 0.363047
0.652706 0.964699 0.356783
0.705646 0.964867 0.348912
0.763137 0.964249 0.333569
0.820426 0.963887 0.313905
0.879042 0.965563 0.288741
0.933660 0.964902 0.262245
0.973082 0.963098 0.230125
0.992567 0.933866 0.224633
0.376711 0.987948 0.383476
0.399090 0.988036 0.386836
0.422218 0.987722 0.387076
0.449826 0.987729 0.387648
0.479446 0.988025 0.389533
0.514213 0.988535 0.388677
0.555004 0.988356 0.382322
0.596635 0.988081 0.375338
0.644299 0.988138 0.370611
0.694519 0.987361 0.364639
0.748507 0.986625 0.352507
0.801112 0.987322 0.333418
0.853749 0.988688 0.310814
0.911814 0.987556 0.284309
0.957227 0.989078 0.252656
0.993634 0.984645 0.227441
-0.006658 0.017297 0.142280
0.052259 0.013029 0.149346
0.129242 0.009744 0.149002
0.213846 0.015432 0.143390
0.315227 0.020770 0.140757
0.426153 0.021316 0.138759
0.531095 0.026597 0.134392
0.627935 0.043301 0.114222
0.709225 0.089874 0.099376
0.773559 0.126170 0.093030
0.826189 0.149993 0.089686
0.871572 0.171981 0.093296
0.910705 0.191353 0.091155
0.941974 0.207990 0.089548
0.965469 0.217159 0.090928
0.985148 0.221791 0.090989
-0.005528 0.080436 0.145990
0.047197 0.076822 0.148095
0.131295 0.076788 0.152584
0.216714 0.078830 0.147309
0.319259 0.068593 0.136144
0.429364 0.063789 0.133552
0.534793 0.067720 0.126835
0.629806 0.087274 0.104305
0.708124 0.127407 0.098594
0.772961 0.158570 0.091407
0.826084 0.181022 0.089018
0.872331 0.201205 0.093375
0.911409 0.220210 0.091523
0.941984 0.234764 0.089536
0.965553 0.243151 0.090943
0.985206 0.247508 0.091181
0.008701 0.148852 0.152269
0.050176 0.150298 0.153214
0.131982 0.152294 0.151377
0.227396 0.155672 0.150569
0.333522 0.154812 0.140495
0.436419 0.157267 0.123559
0.540921 0.164196 0.115737
0.632239 0.178136 0.104961
0.709171 0.199519 0.101088
0.775926 0.219322 0.091384
0.826849 0.237237 0.095243
0.874482 0.250975 0.099849
0.911838 0.264805 0.093789
0.942974 0.275968 0.090627
0.966196 0.282190 0.097456
0.986184 0.286173 0.100847
0.013298 0.237226 0.161263
0.048640 0.236844 0.158702
0.132489 0.238195 0.148722
0.237667 0.246554 0.143552
0.345512 0.247027 0.129166
0.447204 0.251926 0.124151
0.545304 0.260720 0.111413
0.634424 0.267293 0.105385
0.710088 0.281666 0.098853
0.772629 0.291464 0.096213
0.826707 0.301574 0.100035
0.872653 0.309031 0.101965
0.911335 0.317805 0.095503
0.942044 0.322713 0.095385
0.966404 0.325007 0.101828
0.985897 0.325267 0.103405
0.017928 0.332998 0.170201
0.049870 0.333222 0.167495
0.124657 0.336261 0.157260
0.238549 0.340051 0.143502
0.352983 0.349103 0.123370
0.456278 0.352982 0.111975
0.549659 0.357639 0.110758
0.635745 0.362146 0.107754
0.706814 0.366790 0.100999
0.771646 0.370529 0.103729
0.821868 0.371648 0.105762
0.867742 0.370818 0.101328
0.906309 0.372663 0.096970
0.939914 0.371938 0.101961
0.966171 0.372929 0.104752
0.986378 0.368481 0.104849
0.022387 0.435948 0.186706
0.051361 0.435952 0.184797
0.124002 0.436924 0.170523
0.246579 0.440313 0.154326
0.350581 0.445495 0.136767
0.464476 0.451181 0.116309
0.557345 0.455257 0.105673
0.636383 0.453451 0.108635
0.708466 0.452291 0.113873
0.769795 0.449926 0.118664
0.823234 0.447008 0.119458
0.868920 0.442747 0.116709
0.906460 0.438913 0.112708
0.940821 0.434402 0.114688
0.967739 0.430446 0.116775
0.986475 0.420372 0.111537
0.045303 0.528621 0.204989
0.081128 0.528555 0.201546
0.155911 0.530966 0.187119
0.256760 0.534197 0.173315
0.354929 0.536053 0.162799
0.458423 0.539715 0.146172
0.559596 0.543707 0.130074
0.643483 0.542690 0.122463
0.712095 0.538519 0.127992
0.770715 0.531669 0.132086
0.823178 0.524113 0.136047
0.869531 0.516061 0.142562
0.908244 0.510079 0.141407
0.943351 0.502626 0.141893
0.969852 0.494547 0.140346
0.989362 0.483266 0.137799
0.103502 0.615587 0.217040
0.135914 0.615589 0.214929
0.192809 0.615911 0.209776
0.275516 0.613851 0.204249
0.363705 0.614950 0.196185
0.455734 0.617233 0.184511
0.550301 0.619531 0.168492
0.638125 0.622782 0.147072
0.713978 0.617230 0.141192
0.770204 0.607970 0.144892
0.821358 0.596449 0.153661
0.867033 0.582668 0.159070
0.905606 0.573763 0.158312
0.940118 0.563192 0.159140
0.968396 0.552966 0.156978
0.990313 0.540933 0.153516
0.157261 0.690272 0.243056
0.188251 0.690263 0.243316
0.237520 0.691183 0.242481
0.304832 0.691739 0.239034
0.381843 0.691878 0.234110
0.464555 0.692718 0.223462
0.547650 0.693222 0.213110
0.630761 0.694468 0.202892
0.713747 0.696735 0.187887
0.775697 0.685137 0.174964
0.825303 0.671589 0.178704
0.868693 0.655314 0.182328
0.906648 0.640427 0.180158
0.940353 0.625163 0.178410
0.968768 0.608321 0.174576
0.990778 0.593284 0.167876
0.207230 0.755218 0.267393
0.237545 0.755011 0.269852
0.282778 0.754805 0.276354
0.336204 0.753950 0.275646
0.397864 0.754173 0.273083
0.467957 0.754849 0.264027
0.544455 0.754950 0.255020
0.621501 0.756937 0.246261
0.699652 0.756653 0.231151
0.777657 0.754875 0.215693
0.829066 0.740376 0.203905
0.872209 0.724155 0.209307
0.908242 0.707903 0.209958
0.942146 0.692493 0.210556
0.971502 0.676619 0.211181
0.993271 0.658129 0.204240
0.237913 0.810831 0.299031
0.267760 0.810865 0.302049
0.310801 0.810494 0.308346
0.358019 0.809992 0.306078
0.413655 0.809838 0.302801
0.475691 0.809834 0.301927
0.539595 0.811112 0.293669
0.615334 0.809835 0.282215
0.687191 0.809071 0.272223
0.756879 0.809532 0.252293
0.826377 0.807698 0.233601
0.871413 0.788498 0.222160
0.907680 0.770469 0.220946
0.942500 0.749865 0.223230
0.971342 0.733245 0.222040
0.993456 0.712177 0.221793
0.279099 0.857199 0.323520
0.308256 0.857135 0.328415
0.346604 0.857182 0.337059
0.386775 0.856920 0.337266
0.434925 0.856364 0.337321
0.486975 0.855914 0.333362
0.545535 0.857981 0.326792
0.609188 0.857268 0.317272
0.675796 0.857250 0.307336
0.741548 0.857002 0.296048
0.808889 0.857701 0.278242
0.872901 0.855212 0.260575
0.910898 0.831560 0.243455
0.942198 0.808620 0.234626
0.969985 0.788821 0.231406
0.991017 0.768339 0.228505
0.313395 0.899492 0.349721
0.342555 0.899193 0.356347
0.378803 0.898576 0.363744
0.412767 0.897929 0.364342
0.450121 0.898061 0.364818
0.498651 0.897988 0.365279
0.554066 0.896762 0.359721
0.607083 0.898470 0.354344
0.667349 0.898257 0.341123
0.729364 0.898481 0.331569
0.794329 0.898002 0.316832
0.854889 0.898495 0.295218
0.914468 0.893737 0.278203
0.948740 0.871942 0.261698
0.973055 0.848091 0.260055
0.992531 0.821400 0.245083
0.339856 0.934688 0.376130
0.368371 0.934681 0.383388
0.400640 0.934763 0.391546
0.431065 0.934770 0.390866
0.467234 0.934380 0.390212
0.509314 0.933450 0.389078
0.558929 0.932953 0.384884
0.609619 0.933467 0.379286
0.661633 0.934359 0.371246
0.716925 0.934428 0.361597
0.776433 0.933456 0.346362
0.836515 0.933467 0.326449
0.898756 0.935973 0.306493
0.948508 0.929671 0.283945
0.974508 0.904469 0.269034
0.992803 0.879024 0.268348
0.363212 0.965273 0.394794
0.391208 0.965291 0.402743
0.422004 0.965242 0.411933
0.450062 0.965369 0.413339
0.481810 0.964994 0.413802
0.520405 0.964586 0.411915
0.563891 0.963890 0.406652
0.606378 0.963660 0.400976
0.654980 0.964938 0.396122
0.707780 0.965249 0.388706
0.764003 0.964332 0.372871
0.819958 0.964482 0.353829
0.878541 0.965024 0.330214
0.933841 0.964855 0.302596
0.973321 0.962818 0.273560
0.992819 0.933843 0.267955
0.376479 0.987874 0.406381
0.404304 0.987916 0.414736
0.434778 0.987524 0.423211
0.460359 0.987319 0.424339
0.488364 0.988216 0.427140
0.522319 0.988525 0.426367
0.561447 0.988286 0.420134
0.601204 0.988164 0.412989
0.648117 0.988353 0.408496
0.697309 0.987505 0.401538
0.749700 0.987252 0.387730
0.801422 0.988300 0.370626
0.854208 0.989138 0.352590
0.912017 0.987407 0.326097
0.957925 0.988669 0.294547
0.993761 0.984856 0.270869
-0.008066 0.024772 0.236559
0.037280 0.016697 0.238101
0.112039 0.014607 0.244009
0.218409 0.026739 0.244536
0.317442 0.032517 0.233221
0.422532 0.022433 0.226640
0.530975 0.020574 0.223399
0.630479 0.035344 0.220792
0.710695 0.065228 0.203106
0.779819 0.094213 0.174497
0.831587 0.137111 0.166977
0.875261 0.174054 0.171532
0.915289 0.194561 0.163531
0.948767 0.211741 0.163611
0.969747 0.222828 0.157368
0.988519 0.228036 0.150642
-0.007408 0.091317 0.234576
0.035405 0.084672 0.236693
0.107404 0.082197 0.246862
0.222978 0.077255 0.248229
0.322126 0.074328 0.233604
0.427671 0.061088 0.225959
0.534923 0.058107 0.224622
0.632408 0.075218 0.217945
0.711401 0.103076 0.200543
0.778990 0.131072 0.173275
0.832267 0.175500 0.175845
0.876109 0.201722 0.172170
0.916338 0.222154 0.164581
0.948569 0.236676 0.163686
0.969912 0.247283 0.157851
0.988599 0.252641 0.151969
0.007355 0.161403 0.241376
0.038628 0.160952 0.243051
0.108709 0.160077 0.247554
0.225482 0.159859 0.247837
0.334246 0.158338 0.236575
0.444752 0.148519 0.232095
0.549284 0.150105 0.225119
0.641193 0.166542 0.211835
0.718421 0.186883 0.199707
0.785075 0.217017 0.193824
0.834852 0.236447 0.189018
0.878282 0.253884 0.182623
0.918766 0.265939 0.179428
0.949462 0.276997 0.175664
0.971614 0.285384 0.169516
0.990271 0.290550 0.166216
0.014086 0.240752 0.251386
0.043325 0.243190 0.250174
0.110190 0.249166 0.250071
0.237025 0.250962 0.253421
0.345346 0.253149 0.244317
0.451655 0.259004 0.240406
0.553619 0.261962 0.227174
0.644312 0.272308 0.221275
0.719827 0.281896 0.211786
0.783810 0.294325 0.205114
0.832865 0.306444 0.201657
0.877764 0.316415 0.196953
0.917163 0.324378 0.198829
0.947997 0.331431 0.195891
0.973243 0.337783 0.193858
0.993030 0.339729 0.192706
0.017071 0.341972 0.266883
0.049052 0.342518 0.265168
0.118139 0.345809 0.258711
0.239922 0.348795 0.256348
0.352984 0.354859 0.244974
0.459020 0.357351 0.232871
0.553698 0.359744 0.226638
0.640272 0.366622 0.219525
0.714387 0.370911 0.213236
0.775927 0.372147 0.207893
0.829973 0.373815 0.205027
0.875195 0.376048 0.200267
0.913289 0.377939 0.196775
0.946615 0.380056 0.197122
0.973238 0.383327 0.193207
0.993218 0.381498 0.193134
0.025337 0.441981 0.276644
0.054731 0.442341 0.274644
0.128785 0.444893 0.268570
0.245165 0.447305 0.264280
0.351425 0.451630 0.251158
0.463311 0.454348 0.234326
0.558164 0.457629 0.225567
0.640476 0.455360 0.222978
0.714406 0.455152 0.222001
0.775710 0.454055 0.219150
0.828526 0.451461 0.219211
0.874598 0.449446 0.220921
0.914178 0.446824 0.217765
0.948048 0.444040 0.214417
0.974549 0.441161 0.212710
0.993825 0.434154 0.208342
0.067333 0.535499 0.290496
0.101418 0.535652 0.288331
0.167024 0.536913 0.282816
0.257210 0.538783 0.277377
0.354678 0.540913 0.269446
0.456148 0.543158 0.255658
0.558122 0.548931 0.235756
0.644308 0.546263 0.228652
0.717093 0.541366 0.232416
0.773553 0.536314 0.235291
0.826859 0.529631 0.236596
0.873003 0.523011 0.237292
0.912882 0.515605 0.239194
0.948622 0.508670 0.235897
0.975130 0.503582 0.232570
0.994731 0.494761 0.237335
0.119517 0.618546 0.300158
0.151947 0.618499 0.298908
0.208442 0.619238 0.296757
0.284959 0.620271 0.295765
0.369342 0.619509 0.292603
0.456716 0.620628 0.281513
0.547741 0.623038 0.264192
0.638864 0.626208 0.246980
