luts/pp10.cube
LUT_3D_SIZE 6
0.000918 0.011569 0.010665
0.208284 0.020546 0.006857
0.523095 0.059072 0.016544
0.768343 0.127163 0.022531
0.911070 0.186593 0.028319
0.984508 0.217779 0.032132
0.017093 0.223572 0.049622
0.238622 0.237677 0.026963
0.533994 0.263225 0.018665
0.770115 0.290257 0.024696
0.909028 0.312157 0.029641
0.984730 0.318760 0.033302
0.041720 0.526012 0.099362
0.262974 0.529701 0.062228
0.561001 0.542132 0.031064
0.769297 0.530382 0.040927
0.905288 0.507938 0.043283
0.985887 0.480878 0.042600
0.203387 0.754155 0.190339
0.328904 0.753131 0.191049
0.545047 0.753083 0.166694
0.776659 0.753425 0.127104
0.908347 0.705465 0.121221
0.991144 0.652081 0.110998
0.308690 0.899155 0.293700
0.398417 0.898313 0.293621
0.547793 0.896882 0.288211
0.727414 0.898374 0.258525
0.914786 0.893637 0.203269
0.992705 0.819618 0.167692
0.371127 0.988024 0.358719
0.443192 0.987575 0.359479
0.550859 0.988298 0.353820
0.692264 0.987484 0.335857
0.853185 0.988743 0.281334
0.993704 0.984529 0.197276
-0.008066 0.024772 0.236559
0.218409 0.026739 0.244536
0.530975 0.020574 0.223399
0.779819 0.094213 0.174497
0.915289 0.194561 0.163531
0.988519 0.228036 0.150642
0.014086 0.240752 0.251386
0.237025 0.250962 0.253421
0.553619 0.261962 0.227174
0.783810 0.294325 0.205114
0.917163 0.324378 0.198829
0.993030 0.339729 0.192706
0.067333 0.535499 0.290496
0.257210 0.538783 0.277377
0.558122 0.548931 0.235756
0.773553 0.536314 0.235291
0.912882 0.515605 0.239194
0.994731 0.494761 0.237335
0.212794 0.756293 0.335591
0.345736 0.755516 0.345056
0.544173 0.756923 0.330796
0.774286 0.758039 0.289957
0.909574 0.710993 0.286396
0.994556 0.663534 0.296978
0.313381 0.899148 0.390147
0.422568 0.899928 0.415888
0.556631 0.898638 0.417175
0.730532 0.898653 0.388873
0.913950 0.893963 0.337371
0.991873 0.824510 0.308341
0.373226 0.988297 0.434527
0.472418 0.988034 0.468253
0.572387 0.989089 0.467312
0.701042 0.988334 0.444867
0.854676 0.989163 0.407970
0.994005 0.985177 0.331416
0.009913 0.094023 0.544468
0.117775 0.090777 0.557599
0.532234 0.073094 0.568360
0.766671 0.156253 0.505861
0.919389 0.216237 0.466324
0.994491 0.266818 0.428746
0.015585 0.286405 0.546013
0.123163 0.288907 0.555596
0.542517 0.295903 0.573508
0.769973 0.335087 0.524888
0.912737 0.365212 0.493975
0.994034 0.388043 0.457199
0.042973 0.550606 0.568435
0.248837 0.554298 0.572753
0.544206 0.562744 0.566164
0.762050 0.569823 0.560913
0.905093 0.574281 0.550181
0.991342 0.580400 0.548092
0.236148 0.761450 0.572480
0.363645 0.762444 0.573914
0.562801 0.760882 0.583799
0.760868 0.762231 0.569018
0.900636 0.736118 0.563272
0.990058 0.709606 0.560200
0.315346 0.901670 0.562805
0.419086 0.900617 0.571096
0.592161 0.898480 0.611129
0.736318 0.899759 0.603354
0.905756 0.899956 0.572423
0.990003 0.845507 0.561655
0.364281 0.989708 0.557523
0.466121 0.988918 0.580809
0.616347 0.988881 0.628520
0.728620 0.988066 0.628628
0.860617 0.988937 0.607208
0.993746 0.986402 0.563396
0.016031 0.174119 0.767282
0.116226 0.182686 0.772501
0.444317 0.188280 0.789998
0.758764 0.210192 0.790840
0.901340 0.279332 0.714109
0.988892 0.303000 0.645569
0.019533 0.332519 0.765042
0.117474 0.338284 0.768350
0.466460 0.354942 0.786417
0.754672 0.370135 0.790549
0.896366 0.409131 0.718093
0.986397 0.420083 0.659795
0.029093 0.547155 0.770421
0.175224 0.552398 0.771262
0.506558 0.574697 0.780576
0.747133 0.584261 0.781914
0.889520 0.602771 0.745220
0.984576 0.603742 0.713969
0.183870 0.762707 0.784337
0.320375 0.762247 0.782612
0.540096 0.763524 0.783141
0.745103 0.767976 0.780497
0.887993 0.772623 0.779320
0.980353 0.774928 0.778614
0.294226 0.903887 0.750648
0.404771 0.902665 0.756725
0.585770 0.903105 0.769487
0.759010 0.902022 0.788926
0.892707 0.902968 0.785252
0.982477 0.879658 0.781026
0.341415 0.991303 0.706616
0.447930 0.991400 0.719142
0.607935 0.990348 0.747342
0.768021 0.989061 0.797202
0.877590 0.988612 0.797503
0.990354 0.989840 0.786936
0.021433 0.252671 0.903886
0.116126 0.261682 0.908300
0.407813 0.282024 0.924077
0.670788 0.301477 0.924248
0.890576 0.327078 0.923781
0.983279 0.340016 0.839553
0.023889 0.374694 0.907248
0.120879 0.388067 0.907209
0.458290 0.426592 0.925393
0.680463 0.431342 0.924077
0.887400 0.444706 0.921977
0.979261 0.451296 0.844847
0.030552 0.541609 0.904970
0.135665 0.550091 0.907854
0.486018 0.588731 0.922068
0.701742 0.608541 0.921662
0.883418 0.616277 0.918937
0.976384 0.624006 0.866733
0.082437 0.719468 0.912199
0.230042 0.724904 0.915792
0.480068 0.737836 0.919859
0.718101 0.765686 0.919195
0.881798 0.781518 0.920584
0.974939 0.785081 0.893873
0.243648 0.900331 0.922376
0.359367 0.899975 0.924880
0.545595 0.901499 0.923023
0.738367 0.902610 0.922481
0.883192 0.905076 0.921665
0.974841 0.909604 0.922866
0.307679 0.994323 0.864458
0.416242 0.994551 0.867988
0.583487 0.992787 0.882183
0.760455 0.992249 0.902185
0.895881 0.991554 0.929511
0.981032 0.994509 0.929616
0.028620 0.299749 0.993118
0.239246 0.321893 0.999531
0.447250 0.357232 0.999083
0.627065 0.364452 0.998402
0.806384 0.381611 0.998496
0.970274 0.409368 0.998545
0.081088 0.401100 0.999242
0.294577 0.435228 0.999543
0.496342 0.479504 0.998443
0.648387 0.482563 0.998017
0.812401 0.489560 0.998220
0.971687 0.511713 0.998760
0.056342 0.534319 0.995754
0.279690 0.552247 0.998816
0.527593 0.608927 0.998355
0.690931 0.640339 0.998083
0.833960 0.647628 0.998308
0.968364 0.659147 0.998817
0.038894 0.676414 0.995968
0.164086 0.681668 0.999203
0.494908 0.717017 0.998922
0.726672 0.775370 1.000024
0.856234 0.790920 0.999574
0.973142 0.796330 0.999217
0.214932 0.836188 0.999753
0.350144 0.839327 1.000024
0.544466 0.852600 1.000024
0.735788 0.876997 1.000024
0.880040 0.906900 0.999766
0.973931 0.911838 1.000024
0.359762 0.986098 1.001870
0.463094 0.985377 1.000024
0.608364 0.988081 1.000024
0.772341 0.988977 1.000024
0.899127 0.991717 1.001580
0.982927 0.993828 1.002745
